!!!!SEGMENT: pl-wtm--iii-41-945--001-003_mlynarski-emil--concerto-pour-violon-op-11-iii-allegro.krn
!!!cenid: 18xx:4274
!!!COM: Młynarski, Emil
!!!COM-rismID: pe50043899
!!!CDT: 1870/07/18-1935/04/05
!!!CNT: Polish
!!!OPR: Concerto pour Violon op. 11
!!!OTL: III. Allegro
!!!OMV: 003
!!!PDT: 1899
!!!AGN:
!!!SMS-siglum: PL-Wtm
!!!SMS-shelfmark: III.41.945
!!!SMS-shelfwork: 001-003 M
!!!SMS-variant:
!!!SMS-altvar:
!!!NIFC-rismSourceID: 1001152236
!!!NIFC-rismChildID: 1001152236
!!!NIFC-islandoraID: pl-wtm:22924
!!!URL-pdf-islandora: https://repozytorium.nifc.pl/islandora/object/pl-wtm:22924/datastream/PDF/view
!!!URL-scan: https://polish.musicsources.pl/pl/lokalizacje/galeria/druki-muzyczne/17788/11 @EN{Scan on Polish Music Sources Website (Piano)} @PL{Skany w portalu Dziedzictwo Muzyki Polskiej w otwartym dostępie (Fortepian)}
!!!URL-scan: https://polish.musicsources.pl/pl/lokalizacje/galeria/druki-muzyczne/17788-concerto/20 @EN{Scan on Polish Music Sources Website (Violin)} @PL{Skany w portalu Dziedzictwo Muzyki Polskiej w otwartym dostępie (Skrzypce)}
!!!ONB-nifc: UWAGA: Partię skrzypiec należy wpisać na podstawie głosu skrzypiec, a nie linii pomocniczej w partii fortepianu. Fortepian: skany 0011-0017; Skrzypce: skany 0020-0022
!!!AIN: 2 piano 1 violn
!!!key:
**kern	**dynam	**kern	**dynam	**kern	**fing	**dynam
*part3	*part3	*part2	*part2	*part1	*part1	*part1
*staff3	*	*staff2	*	*staff1	*	*
*I"PIANO.	*	*I"PIANO.	*	*I"VIOLON.	*	*
*I'[pf]	*	*I'[pf]	*	*I'[vln]	*	*
*ICklav	*	*ICklav	*	*ICstr	*	*
*Ipiano	*	*Ipiano	*	*Ivioln	*	*
*clefF4	*	*clefG2	*	*clefG2	*	*
*k[b-]	*	*k[b-]	*	*k[b-]	*	*
*D:	*	*D:	*	*D:	*	*
*M2/2	*	*M2/2	*	*M2/2	*	*
*met(c|)	*	*met(c|)	*	*met(c|)	*	*
=1	=1	=1	=1	=1	=1	=1
*^	*	*^	*	*	*	*
!	!	!	!	!	!	!LO:TX:a:t=14	!	!
!	!	!	!LO:TX:a:B:t=Allegro. Tutti [half] = 72.	!	!	!LO:TX:a:B:t=Allegro.	!	!
2E/	[1AA	.	([4c#X/	2A\	p	00r	.	.
.	.	.	12c#/L]	.	.	.	.	.
.	.	.	12d/	.	.	.	.	.
.	.	.	12e/J	.	.	.	.	.
2G#X/	.	.	12f/L	2Bn\	.	.	.	.
.	.	.	12e/	.	.	.	.	.
.	.	.	12d/J	.	.	.	.	.
.	.	.	4f/)	.	.	.	.	.
*v	*v	*	*	*	*	*	*	*
*	*	*v	*v	*	*	*	*
=2	=2	=2	=2	=2	=2	=2
4AA'\] 4A	.	4c#X'/ 4e	.	.	.	.
8.c#X\L	.	8.e/L 8.a	.	.	.	.
16c#\Jk	.	16e/Jk 16a	.	.	.	.
4e'\	.	4a'\ 4cc#X	.	.	.	.
4a'\	.	4cc#'\ 4ee	.	.	.	.
*clefG2	*	*	*	*	*	*
=3	=3	=3	=3	=3	=3	=3
*^	*	*^	*	*	*	*
2e/	[1A	.	([4cc#X/	2a\	.	.	.	.
*	*	*	*Xtuplet	*	*	*	*	*
.	.	.	12cc#/L]	.	.	.	.	.
.	.	.	12dd/	.	.	.	.	.
.	.	.	12ee/J	.	.	.	.	.
2g#X/	.	.	12ff/L	2bn\	.	.	.	.
.	.	.	12ee/	.	.	.	.	.
.	.	.	12dd/J	.	.	.	.	.
.	.	.	4ff/)	.	.	.	.	.
*v	*v	*	*	*	*	*	*	*
*	*	*v	*v	*	*	*	*
=4	=4	=4	=4	=4	=4	=4
4A/] 4a	.	4cc#X'\ 4ee	.	.	.	.
8.cc#X'\L	.	8.ee'\L 8.aa	.	.	.	.
16cc#'\Jk	.	16ee'\Jk 16aa	.	.	.	.
4ee'\	.	4aa'\ 4ccc#X	.	.	.	.
4aa'\	.	4ccc#'\ 4eee	.	.	.	.
!LO:LB:g=original	!	!	!	!	!	!
=5	=5	=5	=5	=5	=5	=5
4A/ 4e 4g 4a	.	4cc#X\ 4ee 4aa	sf	00r	.	.
8.cc#X'\L	.	8.ccc#X'\L	p	.	.	.
16cc#'\Jk	.	16ccc#'\Jk	.	.	.	.
4ee\	.	4eee\	.	.	.	.
4aa\	.	4aaa\	.	.	.	.
=6	=6	=6	=6	=6	=6	=6
4A/ 4d 4f 4a	.	4dd\ 4ff 4aa	sf	.	.	.
8.dd\L	.	8.ddd'\L	p	.	.	.
16dd\Jk	.	16ddd'\Jk	.	.	.	.
4ff\	.	4fff\	.	.	.	.
4aa\	.	4aaa\	.	.	.	.
=7	=7	=7	=7	=7	=7	=7
4A/ 4d 4f 4g#X	.	4bn\ 4dd 4ff 4gg#X	sf	.	.	.
8.dd\L	.	8.ddd'\L	p	.	.	.
16dd\Jk	.	16ddd'\Jk	.	.	.	.
4ff\	.	4fff\	.	.	.	.
4bbn\	.	4bbbn\	.	.	.	.
*clefF4	*	*	*	*	*	*
=8	=8	=8	=8	=8	=8	=8
8AA\L 8E 8c#X	.	4aa\ 4ccc#X 4eee 4aaa	f	.	.	.
8E\ 8e	.	.	.	.	.	.
8E\ 8e	.	4cc#X\ 4ccc#X	.	.	.	.
8E\J 8e	.	.	.	.	.	.
8E\L 8e	.	4dd\ 4ddd	.	.	.	.
8E\ 8e	.	.	.	.	.	.
8E\ 8e	.	4ee\ 4eee	.	.	.	.
8E\J 8e	.	.	.	.	.	.
!LO:LB:g=original	!	!	!	!	!	!
=9	=9	=9	=9	=9	=9	=9
4G#X\ 4Bn 4d 4f	.	(4ff\ 4bbn 4ddd [4fff	.	00r	.	.
*clefG2	*	*tuplet	*	*	*	*
!	!	!LO:TUP:a	!	!	!	!
4B/ 4d 4f 4g#X	.	12fff\L]	.	.	.	.
.	.	12eee\	<	.	.	.
.	.	12ddd\J	.	.	.	.
!	!	!LO:TUP:a	!	!	!	!
4d/ 4f 4g# 4bn	.	12ccc#X\L	.	.	.	.
.	.	12ddd\	.	.	.	.
.	.	12eee\J	.	.	.	.
4f/ 4g# 4b 4dd	.	4ff\) 4fff	.	.	.	.
*clefF4	*	*	*	*	*	*
=10	=10	=10	=10	=10	=10	=10
8AAA\L 8AA	.	4aa\ 4ccc#X 4eee 4aaa	ff	.	.	.
8E\ 8A 8c#X 8e	.	.	.	.	.	.
8E\ 8A 8c# 8e	.	4cc#X\ 4ccc#X	.	.	.	.
8E\J 8A 8c# 8e	.	.	.	.	.	.
8E\L 8A 8c# 8e	.	4dd\ 4ddd	.	.	.	.
8E\ 8A 8c# 8e	.	.	.	.	.	.
8E\ 8A 8c# 8e	.	4ee\ 4eee	.	.	.	.
8E\J 8A 8c# 8e	.	.	.	.	.	.
=11	=11	=11	=11	=11	=11	=11
4G#X\ 4Bn 4d 4f	.	(4ff\ 4bbn 4ddd [4fff	.	.	.	.
*clefG2	*	*Xtuplet	*	*	*	*
4Bn/ 4d 4f 4g#X	.	12fff\L]	.	.	.	.
.	.	12eee\	.	.	.	.
.	.	12ddd\J	.	.	.	.
4e/ 4f 4g# 4bn	.	12ccc#X\L	.	.	.	.
.	.	12ddd\	.	.	.	.
.	.	12eee\J	.	.	.	.
4f/ 4g# 4b 4dd	.	4ff\) 4fff	.	.	.	.
*clefF4	*	*	*	*	*	*
=12	=12	=12	=12	=12	=12	=12
4.AAA/ 4.AA	.	8aa\L 8ddd 8fff 8aaa	.	.	.	.
.	.	8gg#X\J 8ddd 8fff 8ggg#X	.	.	.	.
.	.	4.aa\ 4.ddd 4.fff 4.aaa	.	.	.	.
8F\ 8A 8d	.	.	.	.	.	.
4A\ 4d 4f	.	.	.	.	.	.
.	.	8g#X\ 8dd 8ff 8gg#X	.	.	.	.
8r	.	[4a\ [>4dd [4ff [4aa	.	.	.	.
8AA/ 8D 8F	.	.	.	.	.	.
!LO:LB:g=original	!	!	!	!	!	!
=13	=13	=13	=13	=13	=13	=13
8D\ 8F 8A	.	8a\L] 8dd] 8ff] 8aa]	.	0r	.	.
8r	.	8G#X\J 8d 8f 8g#X	.	.	.	.
8r	.	4A'/ 4d 4f 4a	.	.	.	.
8FF/ 8F	.	.	.	.	.	.
4DD/ 4D	.	8r	.	.	.	.
.	.	8d'/ 8f 8a 8dd	.	.	.	.
4BBBn/ 4BBn	.	8r	.	.	.	.
.	.	8f'\ 8a 8dd 8ff	.	.	.	.
=14	=14	=14	=14	=14	=14	=14
4.AAA/ 4.AA	.	8aa\L 8ccc#X 8eee 8aaa	.	.	.	.
.	.	8gg#X\J 8ggg#X	.	.	.	.
.	.	4.aa\ 4.ccc# 4.eee 4.aaa	.	.	.	.
8E\ 8G 8A 8c#X	.	.	.	.	.	.
4G\ 4A 4c# 4e	.	.	.	.	.	.
.	.	8g#X\ 8ee 8gg#X	.	.	.	.
8r	.	[4a\ [4ee [4aa	.	.	.	.
8AA\ 8E 8G 8A	.	.	.	.	.	.
=15	=15	=15	=15	=15	=15	=15
!	!	!	!	!LO:TX:a:t= 1	!	!
!	!	!	!	!LO:TX:a:i:t=riten.	!	!
8c#X\	.	8a\L] 8ee] 8aa]	.	1r	.	.
8r	.	8G#X\J 8e 8g#X	.	.	.	.
!	!	!LO:TX:b:i:t=molto riten.	!	!	!	!
8r	.	4.A/ 4.e 4.a	.	.	.	.
8GG#X/ 8G#X	.	.	.	.	.	.
8GGn~/L 8Gn	.	.	.	.	.	.
8FF#X~/ 8F#X	.	8A#X~/L 8e 8f#X 8a#X	.	.	.	.
8EE~/ 8E	.	8Bn~/ 8e 8g# 8bn	.	.	.	.
8AAA~/J 8AA	.	8c#X~/J 8g# 8a# 8cc#X	.	.	.	.
!!LO:REH:t=A
!LO:PB:g=original	!	!	!	!	!	!
=16||	=16||;	=16||;	=16||;	=16||;	=16||;	=16||;
!	!	!LO:TX:a:t=a tempo [half] = 72.	!	!LO:TX:a:B:t=Energico e con fuoco. [half] = 72.	!	!
!!LO:TX:t=P:problem: rehersal mark without box	!	!	!	!	!
*	*	*	*^	*	*	*
8DDD'/ 8DD	.	8r	.	.	4d^\ 4ff [4aa	.	f
!	!	!	!LO:DY:b	!LO:DY:a	!	!	!
8r	.	8A'/L 8f	p	mf	.	.	.
*	*	*	*v	*v	*	*	*
*	*	*	*	*Xtuplet	*	*
8r	.	8d'/J 8a	.	12aa\L]	.	.
.	.	.	.	12bbn'\	.	.
8AAA'/L 8AA	.	8r	.	.	.	.
.	.	.	.	12ccc#X'\J	.	.
*	*	*	*	*tuplet	*	*
!	!	!	!	!LO:TUP:a	!	!
8DD'^/J 8D	.	8r	.	(12ddd\L	.	.
.	.	.	.	12ccc#\	.	.
8r	.	8A'/L 8f	.	.	.	.
.	.	.	.	12bb\J	.	.
8r	.	8d'/J 8a	.	8.aa'\L	.	.
8AAA'/L 8AA	.	8r	.	.	.	.
.	.	.	.	16ff'\Jk) 16aa	.	.
=17	=17	=17	=17	=17	=17	=17
8DD'^/J 8D	.	8r	.	((4ff^\ 4aa	.	.
8r	.	8A'/L 8f	.	.	.	.
8r	.	8d'/J 8a	.	8.dd\L) 8.ff	.	.
8AAA'/L 8AA	.	8r	.	.	.	.
.	.	.	.	16dd'\Jk) 16ff	.	.
8DD'^/J 8D	.	8r	.	((>4dd^\ 4ff	.	.
8r	.	8A'/L 8f	.	.	.	.
8r	.	8d'/J 8a	.	8.a\L) 8.dd	.	.
8AAA'/L 8AA	.	8r	.	.	.	.
.	.	.	.	16a'\Jk) 16dd	.	.
=18	=18	=18	=18	=18	=18	=18
8BBB-'^/J 8BB-	.	8r	.	4G^>/ 4b-X [4dd	.	.
8r	.	8G'/L 8d	.	.	.	.
*	*	*	*	*Xtuplet	*	*
8r	.	8B-'/J 8g	.	12dd\L]	.	.
.	.	.	.	12ee'\	.	.
8GGG'/L 8GG	.	8r	.	.	.	.
.	.	.	.	12ff'\J	.	.
*	*	*	*	*tuplet	*	*
!	!	!	!	!LO:TUP:a:problem:klamra łukowa	!	!
8BBB-'^/J 8BB-	.	8r	.	(12gg\L	.	.
.	.	.	.	12ff\	.	.
8r	.	8B-'/L 8g	.	.	.	.
.	.	.	.	12ee\J	.	.
8r	.	8d'/J 8b-	.	8.dd\L	.	.
8GGG'/ 8GG	.	8r	.	.	.	.
.	.	.	.	16b-'\Jk) 16dd	.	.
!LO:LB:g=original	!	!	!	!LO:LB:g=original	!	!
=19	=19	=19	=19	=19	=19	=19
8AAA^/ 8AA	.	8r	.	((4a^\ 4dd	.	.
8r	.	8A'/L 8f	.	.	.	.
8r	.	8d'/J 8a	.	8.f/L) 8.a	.	.
8FFF/L 8FF	.	8r	.	.	.	.
.	.	.	.	16f'>/Jk) 16a	.	.
8DD^/J 8D	.	8r	.	((4f^>/ 4a	.	.
8r	.	8d'/L 8a	.	.	.	.
8r	.	8f'/J 8dd	.	8.d/L) 8.f	.	.
8FFF/ 8FF	.	8r	.	.	.	.
.	.	.	.	16d'/Jk) 16f	.	.
=20	=20	=20	=20	=20	=20	=20
!	!	!	!	!LO:TUP:b:problem:klamra łukowa	!	!
8EEE/ 8EE	.	4r	.	(>12g/L 12b-	.	.
.	.	.	.	12c#X/ 12g	.	.
8r	.	.	.	.	.	.
.	.	.	.	12g/J 12b-)	.	.
*	*	*	*	*^	*	*
*	*	*	*	*	*	*^	*
8AAA/ 8AA	.	4G/ 4A 4c#X	.	4g/	4a\	.	.	.
8r	.	.	.	.	.	.	.	.
*	*	*	*	*	*	*above	*above	*
8DD/ 8D	.	4r	.	4a/	(>16a\LL	0	4	.
.	.	.	.	.	16g\	.	.	.
8r	.	.	.	.	16f\	.	.	.
.	.	.	.	.	16e\JJ)	.	.	.
*	*	*	*	*	*	*v	*v	*
*	*	*	*	*Xtuplet	*	*	*
!	!	!	!	!LO:TX:a:i:t=ben marc.	!	!	!
8FF/ 8F	.	4A/ 4d	.	(12f'/L 12dd	4ryy	.	.
.	.	.	.	12A'/ 12f	.	.	.
8r	.	.	.	.	.	.	.
.	.	.	.	12f'/J) 12dd	.	.	.
*	*	*	*	*v	*v	*	*
=21	=21	=21	=21	=21	=21	=21
*	*	*	*	*tuplet	*	*
!	!	!	!	!LO:TUP:a	!	!
8AA/	.	4r	.	(12cc#X\L 12bb-	.	.
.	.	.	.	12e\	.	.
8r	.	.	.	.	.	.
.	.	.	.	12cc#\J) 12bb-	.	.
*	*	*	*	*^	*	*
8C#X/	.	8A/ 8e	.	4cc#\ 4aa	4ryy	.	.
8r	.	8r	.	.	.	.	.
*	*	*	*	*	*	*^	*
8D\	.	8A/ 8d 8f	.	4aa/	(>16aa\LL	4	1	.
*	*	*	*	*	*	*v	*v	*
.	.	.	.	.	16gg\	.	.
8r	.	8r	.	.	16ff\	.	.
.	.	.	.	.	16ee\JJ)	.	.
*	*	*	*	*Xtuplet	*	*	*
8F\	.	8d/ 8a 8dd	.	(12ff'\L 12ddd	4ryy	.	.
.	.	.	.	12d'\ 12ff	.	.	.
8r	.	8r	.	.	.	.	.
.	.	.	.	12ff'\J) 12ddd	.	.	.
*	*	*	*	*v	*v	*	*
!LO:LB:g=original	!	!	!	!LO:LB:g=original	!	!
=22	=22	=22	=22	=22	=22	=22
1AA 1D 1G#X	.	(4f^/ 4bn	.	(12fff\L	.	.
.	.	.	.	12ff\	.	.
.	.	.	.	12fff\J)	.	.
.	.	4Bn/) 4g#X	.	4ddd\	.	.
.	.	(4ff^\ 4bbn	.	(12ddd\L	.	.
.	.	.	.	12eee-X\	.	.
.	.	.	.	12eeen\J)	.	.
.	.	4b\) 4gg#X	.	4fff\	.	.
*clefG2	*	*	*	*	*	*
=23	=23	=23	=23	=23	=23	=23
4g#X\ 4dd	.	4ff\ 4bbn 4fff	.	(12f/L	.	.
.	.	.	.	12e/	.	.
.	.	.	.	12d/J	.	.
4r	.	4r	.	12f/L	4	.
.	.	.	.	12g#X/	2	.
.	.	.	.	12dd/J)	.	.
2r	.	2r	.	(12ff\L	.	.
.	.	.	.	12ee\	.	.
.	.	.	.	12dd\J	.	.
.	.	.	.	12ff\L	.	<
.	.	.	.	12gg#X\	.	.
.	.	.	.	12ddd\J)	.	.
*clefF4	*	*	*	*	*	*
=24	=24	=24	=24	=24	=24	=24
*	*	*	*	*^	*	*
1AA 1D#X 1A	.	(4f#X^/ 4cc	.	(12fff#X\L	4ryy	.	.
.	.	.	.	12ff#X\	.	.	.
.	.	.	.	12fff#\J)	.	.	.
.	.	4c/) 4a	.	4ddd#X/	4a\	.	.
.	.	(4ff#X^\ 4ccc	.	(12ddd#/L	4ff#\	.	.
.	.	.	.	12eee/	.	.	.
.	.	.	.	12eee#X/J)	.	.	.
.	.	4cc\) 4aa	.	4fff#X/	4a\	.	.
*	*	*	*	*v	*v	*	*
*clefG2	*	*	*	*	*	*
=25	=25	=25	=25	=25	=25	=25
4a\ 4dd#X	.	4ff#X\ 4ccc 4fff#X	.	(12f#X/L	.	.
.	.	.	.	12e/	.	.
.	.	.	.	12d#X/J	.	.
4r	.	4r	.	12f#/L	.	.
.	.	.	.	12a/	.	.
.	.	.	.	12dd#X/J)	.	.
2r	.	2r	.	(12ff#X\L	.	.
.	.	.	.	12ee\	.	.
.	.	.	.	12dd#\J	.	.
.	.	.	.	12ff#\L	.	.
.	.	.	.	12aa\	.	.
.	.	.	.	12ddd#X\J)	.	.
*clefF4	*	*	*	*	*	*
!LO:LB:g=original	!	!	!	!LO:LB:g=original	!	!
=26	=26	=26	=26	=26	=26	=26
*^	*	*	*	*^	*	*
2E/ 2G	1AA	.	(4cc#X^\ 4gg	.	(12ggg\L	4ryy	.	.
.	.	.	.	.	12gg\	.	.	.
.	.	.	.	.	12ggg\J)	.	.	.
.	.	.	4a\) 4ee	.	4eee/	4a\	.	.
2E#X/ 2G#X	.	.	(4dd^\ 4gg#X	.	(12ggg#X\L	4ryy	.	.
.	.	.	.	.	12gg#X\	.	.	.
.	.	.	.	.	12ggg#\J)	.	.	.
.	.	.	4bn\) 4ff	.	4fffn/	4a\	.	.
*v	*v	*	*	*	*v	*v	*	*
=27	=27	=27	=27	=27	=27	=27
4AA\ 4D 4F 4A	.	4a\ 4dd 4ff 4aa	f	(12aaa\L	.	ff
.	.	.	.	12aa\)	.	.
.	.	.	.	12aa'\J	.	.
4r	.	4r	.	(12ff\L	.	.
.	.	.	.	12fff\)	.	.
.	.	.	.	12fff'\J	.	.
2r	.	2r	.	(12ddd\L	.	.
.	.	.	.	12dd\)	.	.
.	.	.	.	12dd'\J	.	.
.	.	.	.	(12a\L	.	.
.	.	.	.	12aa\)	.	.
.	.	.	.	12aa'\J	.	.
=28	=28	=28	=28	=28	=28	=28
4GG/ 4BB- 4E-X 4G	.	4b-\ 4ee-X 4bb-	f	(12bb-\L	.	.
.	.	.	.	12b-\)	.	.
.	.	.	.	12b-'\J	.	.
4r	.	4r	.	(12g\L	.	.
.	.	.	.	12gg\)	.	.
.	.	.	.	12gg'\J	.	.
2r	.	2r	.	(12ee-X/L	.	.
.	.	.	.	12e-X/)	.	.
.	.	.	.	12e-'/J	.	.
.	.	.	.	(12B-/L	.	.
.	.	.	.	12b-/	.	.
.	.	.	.	12B-/J)	.	.
!	!	!	!	!LO:LB:g=original	!	!
=29	=29	=29	=29	=29	=29	=29
4AA\ 4D 4E 4A	.	4ee\ 4gg 4aa 4ddd	f	(12A/L	.	.
.	.	.	.	12d/	.	.
.	.	.	.	12g/J	.	.
4r	.	4r	.	12a\L	.	.
.	.	.	.	12dd\	.	.
.	.	.	.	12ee\J	.	.
2r	.	2r	.	12aa\L	.	.
.	.	.	.	12ee\	.	.
.	.	.	.	12dd\J	.	.
.	.	.	.	12a/L	.	.
.	.	.	.	12g/	.	.
.	.	.	.	12d/J)	.	.
!LO:PB:g=original	!	!	!	!	!	!
=30	=30	=30	=30	=30	=30	=30
4AA\ 4E 4G 4A	.	4cc#X\ 4gg 4aa 4ccc#X	f	(12A/L	.	.
.	.	.	.	12c#X/	.	.
.	.	.	.	12e/J	.	.
4r	.	4r	.	12a\L	.	.
.	.	.	.	12cc#X\	.	.
.	.	.	.	12ee\J	.	.
*	*	*8va	*	*	*	*
4AAA/ 4AA	.	4aa\ 4ccc# 4eee 4aaa	f	12aa\L	.	.
.	.	.	.	12ccc#X\	.	.
.	.	.	.	12eee\J	.	.
4r	.	4r	.	4aaa\)	.	.
!!LO:REH:t=B
=31	=31	=31	=31	=31	=31	=31
!!LO:TX:t=P:problem: rehersal mark without box	!	!	!	!	!
!LO:TX:a:t=P:problem:mixed beam	!	!	!	!	!	!
8DDD^/L 8DD	.	(4aa\ 4ddd 4fff [4aaa	f	4d\ 4dd 4ddd	.	.
8D'\ 8A	.	.	.	.	.	.
8A'\J 8f	.	12aaa\L]	.	4r	.	.
.	.	12bbbn\	.	.	.	.
8r	.	.	.	.	.	.
.	.	12cccc#X\J	.	.	.	.
8r	.	12dddd\L	.	2r	.	.
.	.	12cccc#\	.	.	.	.
8D'\L 8A	.	.	.	.	.	.
.	.	12bbb\J)	.	.	.	.
8A'\J 8f	.	8.aaa'\L	.	.	.	.
8r	.	.	.	.	.	.
.	.	16aaa'\Jk	.	.	.	.
=32	=32	=32	=32	=32	=32	=32
!	!	!	!	!LO:TX:a:t=3	!	!
8r	.	(4aaa^\	.	0r	.	.
8D'\L 8A	.	.	.	.	.	.
8A'\J 8f	.	8.fff\L)	.	.	.	.
8r	.	.	.	.	.	.
.	.	16fff'\Jk	.	.	.	.
8r	.	(4fff^\	.	.	.	.
8D'\L 8A	.	.	.	.	.	.
8A'\J 8f	.	8.ddd\L)	.	.	.	.
8r	.	.	.	.	.	.
.	.	16ddd'\Jk	.	.	.	.
=33	=33	=33	=33	=33	=33	=33
8r	.	([4ddd\	.	.	.	.
8D'\L 8B-	.	.	.	.	.	.
8B-'\J 8g	.	12ddd\L]	.	.	.	.
.	.	12eee\	.	.	.	.
8r	.	.	.	.	.	.
.	.	12fff\J	.	.	.	.
8r	.	12ggg\L	.	.	.	.
.	.	12fff\	.	.	.	.
8D'\L 8B-	.	.	.	.	.	.
.	.	12eee\J)	.	.	.	.
8B-'\J 8g	.	8.ddd'\L	.	.	.	.
8r	.	.	.	.	.	.
.	.	16ddd'\Jk	.	.	.	.
*	*	*X8va	*	*	*	*
=34	=34	=34	=34	=34	=34	=34
8r	.	(4ddd^\	.	1r	.	.
8D'\L 8A	.	.	.	.	.	.
8A'\J 8f	.	8.aa\L)	.	.	.	.
8r	.	.	.	.	.	.
.	.	16aa'\Jk	.	.	.	.
4r	.	4ee\	.	.	.	.
8BBn'\ 8F 8A-X 8d	.	8dd'\ 8ff 8aa-X 8ddd	f	.	.	.
8r	.	8r	.	.	.	.
!LO:LB:g=original	!	!	!	!	!	!
=35	=35	=35	=35	=35	=35	=35
!	!	!	!	!LO:TX:a:t=Solo.	!	!
8C'/	.	8r	p	4c^>/ 4g 4b- [4ee	.	sf
8r	.	8d'/L 8b-	.	.	.	.
8r	.	8B-'/J 8g	.	12ee\L]	.	.
.	.	.	.	12ff'\	.	.
8c'\L	.	8r	.	.	.	.
.	.	.	.	12gg'\J	.	.
8C'\J	.	8r	.	(12aa\L	.	.
.	.	.	.	12gg\	.	.
8r	.	8e'/L 8b-	.	.	.	.
.	.	.	.	12ff\J	.	.
8r	.	8B-'/J 8g	.	8.ee\L	.	.
8c'\L	.	8r	.	.	.	.
.	.	.	.	16ee\Jk)	.	.
!	!	!	!	!LO:LB:g=original	!	!
=36	=36	=36	=36	=36	=36	=36
8C'\J	.	8r	.	((4ff^\	.	.
8r	.	8c'/L 8a	.	.	.	.
8r	.	8A'/J 8f	.	8.cc\L)	.	.
8c'\L	.	8r	.	.	.	.
.	.	.	.	16cc'\Jk)	.	.
8C'\J	.	8r	.	((4dd^\	.	.
8r	.	8d'/L 8a	.	.	.	.
8r	.	8A'/J 8f#X	.	8.a/L)	.	.
8c'\L	.	8r	.	.	.	.
.	.	.	.	16a'>/Jk)	.	.
=37	=37	=37	=37	=37	=37	=37
8C'\J	.	8r	.	8b-'/L	.	.
8r	.	8d'/L 8b-	.	8f#X'/	.	.
8r	.	8B-'/J 8g	.	8g'/	.	.
8c'\L	.	8r	.	8b-'/J	.	.
8C'\J	.	8r	.	8ee'\L	.	.
8r	.	8f'/L 8bn	.	8a#X'\	.	.
8r	.	8d'/J 8g#X	.	8bn'\	.	.
8c'\	.	8r	.	8dd'\J	.	.
=38	=38	=38	=38	=38	=38	=38
*^	*	*	*	*	*	*
4r	1C	.	4r	.	(8cc\L	.	.
.	.	.	.	.	8a\)	.	.
(4A/	.	.	(4f/ 4cc	.	((8ee^v\	.	.
.	.	.	.	.	8ff\J)	.	.
4c/	.	.	4a\ 4ff	.	(8gg#X^\L	.	.
.	.	.	.	.	8aa\)	.	.
4A/)	.	.	4f/) 4cc	.	(8bbn^\	.	.
.	.	.	.	.	8ccc\J))	.	.
*v	*v	*	*	*	*	*	*
=39	=39	=39	=39	=39	=39	=39
8c'\	.	8r	.	4c^>/ 4g 4b- [4ee	.	.
8r	.	8d'/L 8b-	.	.	.	.
8r	.	8B-'/J 8g	.	12ee\L]	.	.
.	.	.	.	12ff'\	.	.
(8C'/L	.	8r	.	.	.	.
.	.	.	.	12gg'\J	.	.
8C#X'/J)	.	8r	.	(12aa\L	.	.
.	.	.	.	12gg\	.	.
8r	.	8e'/L 8a	.	.	.	.
.	.	.	.	12ff\J	.	.
8r	.	8A'/J 8g	.	8.ee\L	.	.
(8c#X'\L	.	8r	.	.	.	.
.	.	.	.	16ee'\Jk)	.	.
!LO:LB:g=original	!	!	!	!LO:LB:g=original	!	!
=40	=40	=40	=40	=40	=40	=40
8d'\J)	.	8r	.	((4ff^\	.	.
8r	.	8f'/L 8a	.	.	.	.
8r	.	8A'/J	.	8.dd\L)	.	.
8D'\L	.	8r	.	.	.	.
.	.	.	.	16dd'\Jk)	.	.
8d'\J	.	8r	.	(<(<4a^>/	.	.
8r	.	8f'/L 8bn	.	.	.	.
8r	.	8Bn'/J	.	8.bn/L)	.	.
*^	*	*	*	*	*	*
8E\	[8E/	.	8r	.	.	.	.
.	.	.	.	.	16b'/Jk)	.	.
*v	*v	*	*	*	*	*	*
=41	=41	=41	=41	=41	=41	=41
*^	*	*	*	*	*	*
(2e/	1E]	.	(>2a/ 2cc#X	.	8cc#X'/L	.	p
.	.	.	.	.	8e'/	.	.
.	.	.	.	.	8a'/	.	.
.	.	.	.	.	8cc#'/J	.	.
2d/	.	.	2e/ 2bn	.	8bn'/L	.	.
.	.	.	.	.	8e'/	.	.
.	.	.	.	.	8g#X'/	.	.
.	.	.	.	.	8b'/J	.	.
=42	=42	=42	=42	=42	=42	=42	=42
2c#X/	2..E\	.	2e/ 2a	<	8ee\L	.	4.ryy
.	.	.	.	.	8e\	.	.
.	.	.	.	.	8dd#X\	.	.
.	.	.	.	.	8ff#X\J	.	.
2Bn/) 2d	.	.	2e/) 2g#X	.	8ee\L	.	.
.	.	.	.	.	8ff#\	.	.
.	.	.	.	.	8gg#X\	.	.
.	[8E\	.	.	.	8bbn\J	.	.
=43	=43	=43	=43	=43	=43	=43	=43
(2c#X/ 2e	1E_	.	(2cc#X\ 2ee	mp	8ccc#X\L	.	mf
.	.	.	.	.	8ee\	.	.
.	.	.	.	.	8aa\	.	.
.	.	.	.	.	8ccc#\J	.	.
2Bn/ 2d	.	.	2bn\ 2dd	<	8bbn\L	.	.
.	.	.	.	.	8ee\	.	<
.	.	.	.	.	8gg#X\	.	.
.	.	.	.	.	8bb\J	.	.
!	!	!	!	!	!LO:LB:g=original	!	!
=44	=44	=44	=44	=44	=44	=44	=44
2A/ 2c#X	1E]	.	2a/ 2cc#X	.	8eee\L	.	.
.	.	.	.	.	8ee\	.	.
!	!	!	!	!	!LO:TX:t=P:problem: aplikatura zapisana ołówkiem	!	!
.	.	.	.	.	8ddd#X\	2	.
!	!	!	!	!	!LO:TX:t=P:problem: aplikatura zapisana ołówkiem	!	!
.	.	.	.	.	8fff#X\J	4	.
!	!	!	!	!	!LO:TX:t=P:problem: aplikatura zapisana ołówkiem	!	!
2G#X/) 2Bn	.	.	2g#X/) 2bn	.	8eee\L	1	.
.	.	.	.	.	8fff#\	.	.
.	.	.	.	.	8ggg#X\	.	.
.	.	.	.	.	8bbbn\J	.	.
!LO:LB:g=original	!	!	!	!	!	!	!
=45	=45	=45	=45	=45	=45	=45	=45
*	*	*	*^	*	*	*	*
[1AA [1F	2r	.	2r	[1cnX [1f [1ccnX	mf	8cccc^\L	.	f
.	.	.	.	.	.	8a\	.	.
.	.	.	.	.	.	8aaa^\	.	.
.	.	.	.	.	.	8a\J	.	.
.	4r	.	4r	.	.	8fff^\L	.	.
.	.	.	.	.	.	8a\	.	.
.	(4FF\	.	(4ccc/	.	.	8ccc^\	.	.
.	.	.	.	.	.	8a\J	.	.
=46	=46	=46	=46	=46	=46	=46	=46	=46
1AA] 1F]	4AA\	.	4aa/	1c] 1f] 1cc]	.	8fff^\L	.	.
.	.	.	.	.	.	8a\	.	.
.	4C\	.	4ff/	.	.	8ccc^\	.	.
.	.	.	.	.	.	8a\J	.	.
.	4F\	.	4cc/	.	.	8aa^\L	.	.
.	.	.	.	.	.	8a\	.	.
.	4A\)	.	4a/)	.	.	8ff^\	.	.
.	.	.	.	.	.	8a\J	.	.
*v	*v	*	*	*	*	*	*	*
*	*	*v	*v	*	*	*	*
=47	=47	=47	=47	=47	=47	=47
*	*	*	*	*^	*	*
2c#X\ 2e	.	2a\ 2ee	.	4ee/	(12cc#X^\L	.	.
.	.	.	.	.	12b#X\	.	.
.	.	.	.	.	12cc#\J)	.	.
.	.	.	.	4ee/	(12cc#^\L	.	.
.	.	.	.	.	12b#\	.	.
.	.	.	.	.	12cc#\J)	.	.
*clefG2	*	*	*	*	*	*	*
4.e'/	.	4.cc#X'\ 4.aa	.	4ee/	(12ee^\L	.	.
.	.	.	.	.	12dd#X\	.	.
.	.	.	.	.	12ee\J)	.	.
.	.	.	.	(12aa^\L	4ryy	.	.
.	.	.	.	12gg#X\	.	.	.
8a'/	.	8cc#'\ 8ccc#X	.	.	.	.	.
.	.	.	.	12aa\J)	.	.	.
*	*	*	*	*v	*v	*	*
!	!	!	!	!LO:LB:g=original	!	!
=48	=48	=48	=48	=48	=48	=48
4cc#X'\	.	4aa'\ 4eee	.	(12ccc#X\L	.	.
.	.	.	.	12bb#X\	.	.
.	.	.	.	12ccc#\J)	.	.
4r	.	4r	.	(12eee\L	.	.
.	.	.	.	12ddd#X\	.	.
.	.	.	.	12eee\J)	.	.
4ee'\	.	4ccc#X'\ 4ggg	.	(12aaa\L	.	.
.	.	.	.	12ggg#X\	.	.
.	.	.	.	12aaa\J)	.	.
*	*	*	*	*8va	*	*
4r	.	4r	.	8eeee\	.	.
*	*	*	*	*X8va	*	*
.	.	.	.	8r	.	.
*clefF4	*	*	*	*	*	*
=49	=49	=49	=49	=49	=49	=49
*^	*	*^	*	*	*	*
[1D [1F [1B- [1d	2r	.	2r	[1f [1b- [1ff	mf	8ff'\L 8fff	.	f
.	.	.	.	.	.	8d'\	.	.
.	.	.	.	.	.	8dd'\ 8ddd	.	.
.	.	.	.	.	.	8d'\J	.	.
.	4r	.	4r	.	.	8b-'\L 8bb-	.	.
.	.	.	.	.	.	8d'\	.	.
.	(4BB-\	.	(4ddd/	.	.	8b-'\ 8ff	.	.
.	.	.	.	.	.	8d'\J	.	.
!LO:LB:g=original	!	!	!	!	!	!	!	!
=50	=50	=50	=50	=50	=50	=50	=50	=50
1D] 1F] 1B-] 1d]	4D\	.	4bb-/	1f] 1b-] 1ff]	.	8dd'\L 8ddd	.	.
.	.	.	.	.	.	8d'\	.	.
.	4F\	.	4ff/	.	.	8b-'\ 8bb-	.	.
.	.	.	.	.	.	8d'\J	.	.
.	4B-\	.	4dd\	.	.	8b-'/L 8ff	.	.
.	.	.	.	.	.	8d'/	.	.
.	4d\)	.	4b-\)	.	.	8f'/ 8dd	.	.
.	.	.	.	.	.	8d'/J	.	.
*v	*v	*	*	*	*	*	*	*
*	*	*v	*v	*	*	*	*
=51	=51	=51	=51	=51	=51	=51
2f\	.	2b-\ 2dd	.	(12B-^>/L	.	.
.	.	.	.	12A/	.	.
.	.	.	.	12B-/J)	.	.
.	.	.	.	(12f^>/L	.	.
.	.	.	.	12e/	.	.
.	.	.	.	12f/J)	.	.
*clefG2	*	*	*	*	*	*
4.b-'\	.	4.dd'\ 4.ff	.	(12b-^>/L	.	.
.	.	.	.	12a/	.	.
.	.	.	.	12b-/J)	.	.
.	.	.	.	(12dd^>\L	.	.
.	.	.	.	12cc#X\	.	.
8dd\	.	8ff'\ 8bb-	.	.	.	.
.	.	.	.	12dd\J)	.	.
!	!	!	!	!LO:LB:g=original	!	!
=52	=52	=52	=52	=52	=52	=52
4ff'\	.	4bb-'\ 4ddd	.	(12ff\L	.	.
.	.	.	.	12ee\	.	.
.	.	.	.	12ff\J)	.	.
4r	.	4r	.	(12bb-\L	.	.
.	.	.	.	12aa\	.	.
.	.	.	.	12bb-\J)	.	.
4bb-'\	.	4ddd'\ 4fff	.	(12ddd\L	.	.
.	.	.	.	12ccc#X\	.	.
.	.	.	.	12ddd\J)	.	.
4r	.	4r	.	8fff\	.	.
.	.	.	.	8r	.	.
*clefF4	*	*	*	*	*	*
=53	=53	=53	=53	=53	=53	=53
*	*	*	*	*^	*	*
2BBn\ 2E 2G#X	.	2d/ 2e 2g#X 2dd 2ee	sf	8ee/	8ee\L	0	f
.	.	.	.	8ryy	8e'\ 8ee	.	.
.	.	.	.	8ryy	8f#X'\ 8ff#X	.	.
.	.	.	.	8ee/	8ff#'>\J	0	.
4.E\	.	4.e/ 4.ee	.	8ee/	8gg#X\L	.	.
.	.	.	.	8ryy	8g#X\ 8gg#	.	.
.	.	.	.	8ryy	8a\ 8aa	.	.
8E\	.	8e/ 8ee	<	8ee/	8aa\J	.	.
=54	=54	=54	=54	=54	=54	=54	=54
2E^\	.	2e^/ 2ee	.	8ee/	8bbn\L	.	.
.	.	.	.	8ryy	8bn\ 8bb	.	.
.	.	.	.	8ryy	8a\ 8aa	.	.
.	.	.	.	8ee/	8aa\J	.	.
2E^\	.	2e^/ 2ee	.	8ee/	8gg#X\L	.	.
.	.	.	.	8ryy	8g#X\ 8gg#	.	.
.	.	.	.	8ryy	8f#X\ 8ff#X	.	.
.	.	.	.	8ee'</	8ff#\J	.	.
!LO:PB:g=original	!	!	!	!LO:LB:g=original	!	!	!
=55	=55	=55	=55	=55	=55	=55	=55
2EE/ 2BBn 2D 2E	.	2dd\ 2ee 2gg#X 2ddd 2eee	.	8ee/	8gg#X\L	.	.
.	.	.	.	8ryy	8g#X\ 8gg#	.	.
.	.	.	.	8ryy	8a\ 8aa	.	.
.	.	.	.	8ee/	8aa\J	.	.
4.E\ 4.e	.	4.ee\ 4.eee	.	8ee/	8bbn\L	.	.
.	.	.	.	8ryy	8bn\ 8bb	.	.
.	.	.	.	8ryy	8cc#X\ 8ccc#X	.	.
8E\ 8e	.	8ee\ 8eee	.	8ee/	8ccc#\J	.	.
=56	=56	=56	=56	=56	=56	=56	=56
2E^\ 2e	.	2ee^\ 2eee	.	8ee/	8ddd\L	.	.
!	!	!	!	!	!LO:TX:b:i:t=poco ritenuto	!	!
.	.	.	.	8ryy	8dd\ 8ddd	.	.
.	.	.	.	8ryy	8ee\ 8eee	.	.
.	.	.	.	8ee/	8eee\J	.	.
2E^\ 2e	.	2ee^\ 2eee	.	8ee/	8fff#X\L	.	.
.	.	.	.	8ryy	8ff#X\ 8fff#	.	.
.	.	.	.	8ryy	8gg#X\ 8ggg#X	.	.
.	.	.	.	8ee/	8ggg#\J	.	.
*	*	*	*	*v	*v	*	*
!!LO:REH:t=C
=57	=57	=57	=57	=57	=57	=57
!!LO:TX:t=P:problem: rehersal mark without box	!	!	!	!	!
!	!	!LO:TX:a:t=a tempo [half] = 72.	!	!LO:TX:a:i:t=a tempo	!	!
!	!	!	!	!LO:TX:a:t=tutti	!	!
4AAA/ 4AA	.	(4ee^<\ 4aa 4ccc#X [4eee	ff	4A/ 4e 4cc#X 4aa	.	ff
*	*	*tuplet	*	*	*	*
!	!	!LO:TUP:b	!	!	!	!
4E\ 4A 4c#X	.	12eee\L]	.	4r	.	.
.	.	12fff#X\	.	.	.	.
.	.	12ggg#X\J	.	.	.	.
!	!	!LO:TUP:b	!	!	!	!
4A\ 4c# 4e	.	12aaa\L	.	2r	.	.
.	.	12ggg#\	.	.	.	.
.	.	12fff#\J	.	.	.	.
4c#\ 4e 4a	.	8.eee'\L	.	.	.	.
.	.	16eee'\Jk)	.	.	.	.
*clefG2	*	*	*	*	*	*
=58	=58	=58	=58	=58	=58	=58
!	!	!	!	!LO:TX:a:t=12	!	!
2.e/ 2.a 2.cc#X	.	4ee^\ 4eee	.	00r	.	.
.	.	8.aa'\L 8.ccc#X	.	.	.	.
.	.	16aa'\Jk 16ccc#	.	.	.	.
.	.	4ee^\ 4eee	.	.	.	.
4r	.	8.aa'\L 8.ccc#	.	.	.	.
.	.	16aa'\Jk 16ccc#	.	.	.	.
*clefF4	*	*	*	*	*	*
=59	=59	=59	=59	=59	=59	=59
4GGG/ 4GG	.	(4ee\ 4aa 4ccc#X [4eee	.	.	.	.
4E\ 4A 4c#X	.	12eee\L]	.	.	.	.
.	.	12fff#X\	.	.	.	.
.	.	12ggg#X\J	.	.	.	.
4A\ 4c# 4e	.	12aaa\L	.	.	.	.
.	.	12ggg#\	.	.	.	.
.	.	12fff#\J	.	.	.	.
4c#\ 4e 4a	.	8.eee'\L	.	.	.	.
.	.	16eee'\Jk)	.	.	.	.
!LO:LB:g=original	!	!	!	!	!	!
*clefG2	*	*	*	*	*	*
=60	=60	=60	=60	=60	=60	=60
2.e/ 2.a 2.cc#X	.	4ee^\ 4eee	.	.	.	.
.	.	8.aa'\L 8.ccc#X	.	.	.	.
.	.	16aa'\Jk 16ccc#	.	.	.	.
.	.	4ee^\ 4eee	.	.	.	.
4r	.	8.aa'\L 8.ccc#	.	.	.	.
.	.	16aa'\Jk 16ccc#	.	.	.	.
*clefF4	*	*	*	*	*	*
=61	=61	=61	=61	=61	=61	=61
*^	*	*	*	*	*	*
4r	4FFF#X\ 4FF#X	.	4ee^\ 4eee	.	.	.	.
8.c#X/L	2.F#X\ 2.A	.	8.aa'\L 8.ccc#X	.	.	.	.
16c#/Jk	.	.	16aa'\Jk 16ccc#	.	.	.	.
4d^/	.	.	4dd^\ 4ddd	.	.	.	.
8.Bn/L	.	.	8.aa'\L 8.bbn	.	.	.	.
16B/Jk	.	.	16aa'\Jk 16bb	.	.	.	.
=62	=62	=62	=62	=62	=62	=62	=62
4d^/	1E 1G	.	4dd^\ 4ddd	.	00r	.	.
8.Bn/L	.	.	8.gg'\L 8.bbn	.	.	.	.
16B/Jk	.	.	16gg'\Jk 16bb	.	.	.	.
4c#X^/	.	.	4cc#X^\ 4ccc#X	.	.	.	.
8.A#X/L	.	.	8.ff#X'\L 8.aa#X	.	.	.	.
16A#/Jk	.	.	16ff#'\Jk 16aa#	.	.	.	.
*v	*v	*	*	*	*	*	*
=63	=63	=63	=63	=63	=63	=63
*	*	*^	*	*	*	*
2.D\ 2.F#X 2.Bn	.	4bn^/ 4bbn	(>8b\L	.	.	.	.
.	.	.	8ff#X\)	.	.	.	.
.	.	4a#X^/ 4aa#X	(>8a#\	.	.	.	.
.	.	.	8ff#\J)	.	.	.	.
.	.	4b^/ 4bb	(>8b\L	.	.	.	.
.	.	.	8ff#\)	.	.	.	.
4D\ 4E 4G#X 4B	.	4ff#^/ 4fff#X	(>8ff#X\	.	.	.	.
.	.	.	8bb\J)	.	.	.	.
=64	=64	=64	=64	=64	=64	=64	=64
2.C#X\ 2.A 2.e	.	4ee^/ 4eee	(>8ee\L	.	.	.	.
.	.	.	8aa\)	.	.	.	.
.	.	4dd#X^/ 4ddd#X	(>8dd#\	.	.	.	.
.	.	.	8aa\J)	.	.	.	.
.	.	4ee^/ 4eee	(>8ee\L	.	.	.	.
.	.	.	8aa\)	.	.	.	.
4Cn:\ 4F: 4A: 4e-X:	.	4ccc^/ 4cccc	(>8ccc\	.	.	.	.
.	.	.	8eee-X\J)	.	.	.	.
!LO:LB:g=original	!	!	!	!	!	!	!
=65	=65	=65	=65	=65	=65	=65	=65
2.BBn:\ 2.E: 2.G#X: 2.d:	.	4gg#X^/ 4ggg#X	(>8gg#\L	.	.	.	.
.	.	.	8ddd\)	.	.	.	.
.	.	4aa^/ 4aaa	(>8aa\	.	.	.	.
.	.	.	8ddd\J)	.	.	.	.
.	.	4bbn^/ 4bbbn	(8bb\L	.	.	.	.
.	.	.	8ddd\)	.	.	.	.
4AA\ 4A	.	4ff#X^/ 4fff#X	(>8ff#\	.	.	.	.
.	.	.	8bb\J)	.	.	.	.
=66	=66	=66	=66	=66	=66	=66	=66
2.GG#X:\ 2.E: 2.Bn:	.	4ee^/ 4eee	(>8ee\L	.	00r	.	.
.	.	.	8bbn\)	.	.	.	.
.	.	4ff#X^/ 4fff#X	(>8ff#\	.	.	.	.
.	.	.	8bb\J)	.	.	.	.
.	.	4gg#X^/ 4ggg#X	(>8gg#\L	.	.	.	.
.	.	.	8bb\)	.	.	.	.
4EE/ 4E	.	4dd^/ 4ddd	(>8dd\	.	.	.	.
.	.	.	8gg#\J)	.	.	.	.
*	*	*v	*v	*	*	*	*
=67	=67	=67	=67	=67	=67	=67
4AAA/ 4AA	.	(4cc#X:\ 4aa: [4eee:	.	.	.	.
4E\ 4A 4c#X	.	12eee\L]	.	.	.	.
.	.	12fff#X\	.	.	.	.
.	.	12ggg#X\J	.	.	.	.
4A\ 4c# 4e	.	12aaa\L	.	.	.	.
.	.	12ggg#\	.	.	.	.
.	.	12fff#\J	.	.	.	.
4c#\ 4e 4a	.	8.eee'\L	.	.	.	.
.	.	16eee'\Jk)	.	.	.	.
*clefG2	*	*	*	*	*	*
=68	=68	=68	=68	=68	=68	=68
2.e/ 2.a 2.cc#X	.	4ee^\ 4eee	.	.	.	.
.	.	8.aa'\L 8.ccc#X	.	.	.	.
.	.	16aa'\Jk 16ccc#	.	.	.	.
.	.	4ee^\ 4eee	.	.	.	.
!	!	!	!LO:HP:t=dim.	!	!	!
4r	.	8.aa'\L 8.ccc#	>	.	.	.
.	.	16aa'\Jk 16ccc#	.	.	.	.
*clefF4	*	*	*	*	*	*
=69	=69	=69	=69	=69	=69	=69
4FFF#X/ 4FF#X	.	(4dd\ [4aa	.	.	.	.
4F#X\ 4A 4d	.	12aa\L]	.	.	.	.
.	.	12bbn\	.	.	.	.
.	.	12ccc#X\J	.	.	.	.
4A\ 4d 4f#X	.	12ddd\L	.	.	.	.
.	.	12ccc#\	.	.	.	.
.	.	12bb\J	.	.	.	.
8.a'\L	.	8.aa'\L	.	.	.	.
16a'\Jk	.	16aa'\Jk)	.	.	.	.
!LO:LB:g=original	!	!	!	!	!	!
=70	=70	=70	=70	=70	=70	=70
*	*	*	*	*^	*	*
*	*	*	*	*	*cue	*	*
!	!	!	!	!	!LO:TX:a:t=Piano	!	!
4f#X\	.	4ff#X\	.	1re	4ff#/	.	.
(8.d'\L	.	(8.dd'\L	.	.	8.dd/L	.	.
16d'\Jk)	.	16dd'\Jk)	.	.	16dd/J	.	.
4A\	.	4a/	.	.	4a/	.	.
4F\	.	4f/	.	.	4f/	.	.
*	*	*clefF4	*	*	*Xcue	*	*
*	*	*	*	*v	*v	*	*
!!LO:REH:t=D
!	!	!	!	!	!LO:PB:g=original	!
=71	=71	=71	=71	=71	=71	=71
*^	*	*	*	*	*	*
!!LO:TX:t=P:problem: rehersal mark without box	!	!	!	!	!	!
!	!	!	!LO:TX:b:i:t=leggiero	!	!LO:TX:a:t=Solo.	!	!
4.E/	1EE	.	4.A\ 4.c#X 4.e	p	8A'\L 8e 8cc#X 8aa	.	sf
.	.	.	.	.	(8gg#X'\	.	.
.	.	.	.	.	8ff#X'\	.	.
8E/	.	.	8A\ 8c# 8e	.	8ee'\J)	.	.
!	!	!	!	!	!LO:TX:t=P:problem: # przy 8cc# dopisany ołówkiem	!	!
4AA#X'/	.	.	4G'\ 4c#	.	8a#X'\L 8cc#X 8ff#	.	.
.	.	.	.	.	(8ee'\	.	.
4AA#'/	.	.	4G'\ 4c#	.	8dd'\	.	.
.	.	.	.	.	8cc#'\J)	.	.
=72	=72	=72	=72	=72	=72	=72	=72
*	*	*	*	*	*^	*	*
4.BBn/	1EE	.	4.F#X\ 4.Bn 4.d	.	8d'\L 8bn 8ff#X	2ryy	.	.
.	.	.	.	.	(8dd'\	.	.	.
.	.	.	.	.	8cc#X'\	.	.	.
8BB/	.	.	8F#\ 8B 8d	.	8b'\J)	.	.	.
4GG#X/	.	.	4E'\ 4B	.	8ee'/L	8e\L 8ee	.	.
.	.	.	.	.	8ee'/	8dd\	.	.
4GG#/	.	.	4E'\ 4B	.	8ee'/	8cc#\	.	.
.	.	.	.	.	8ee'/J	8b\J	.	.
*	*	*	*clefG2	*	*	*	*	*
*v	*v	*	*	*	*v	*v	*	*
=73	=73	=73	=73	=73	=73	=73
.	.	.	.	(>8qa/	.	.
4.C#X/	.	4.A/ 4.e	.	(16aa^\LL)	.	.
.	.	.	.	16bbn\	.	.
.	.	.	.	16ccc#X\	.	.
.	.	.	.	16bb\JJ	.	.
.	.	.	.	16aa\LL	.	.
.	.	.	.	16gg#X\	.	.
8C#/	.	8A/ 8e	.	16ff#X\	.	.
.	.	.	.	16ee\JJ)	.	.
4Cn'/	.	4A'/ 4d#X 4e#X	.	(16ffn^\LL	.	.
.	.	.	.	16ggn\	.	.
.	.	.	.	16ff\	.	.
.	.	.	.	16ee-X\JJ	.	.
4C'/	.	4A'/ 4d# 4e#	.	16dd^\LL	.	.
.	.	.	.	16ee-\	.	.
.	.	.	.	16dd\	.	.
.	.	.	.	16cc\JJ)	.	.
!	!	!	!	!LO:LB:g=original	!	!
=74	=74	=74	=74	=74	=74	=74
4.BBn/	.	4.A/ 4.d#X 4.f#X	.	(16ff#X^\LL	.	.
.	.	.	.	16gg#X\	.	.
.	.	.	.	16ff#\	.	.
.	.	.	.	16dd#X\JJ	.	.
.	.	.	.	16cc#X\LL	.	.
.	.	.	.	16dd#\	.	.
8BB/	.	8A/ 8d# 8f#	.	16cc#\	.	.
.	.	.	.	16bn\JJ)	.	.
4EE/ 4E	.	4Bn/ 4d# 4e 4g#X	.	(16een^\LL	.	.
.	.	.	.	16ff#\	.	.
.	.	.	.	16ee\	.	.
.	.	.	.	16ddn\JJ	.	.
4EE/ 4E	.	4B/ 4d# 4e 4g#	.	16cc#^\LL	.	.
.	.	.	.	16dd\	.	.
.	.	.	.	16cc#\	.	.
.	.	.	.	16b\JJ)	.	.
!LO:LB:g=original	!	!	!	!	!	!
=75	=75	=75	=75	=75	=75	=75
(4CC#X^>/ 4C#X	.	(4A^>/ 4e 4a	f	4a/	.	.
8.BBB#X/L) 8.BB#X	.	8.G#X/L) 8.e 8.g#X	.	4r	.	.
16BBB#'/Jk 16BB#	.	16G#/Jk 16e 16g#	.	.	.	.
(4CC#^>/ 4C#	.	(4A^>/ 4e 4a	.	2r	.	.
8.BBB#/L) 8.BB#	.	8.G#/L) 8.e 8.g#	.	.	.	.
16BBB#'/Jk 16BB#	.	16G#/Jk 16e 16g#	.	.	.	.
=76	=76	=76	=76	=76	=76	=76
*	*	*	*	*tuplet	*	*
4CC#X/ 4C#X	.	4A/ 4e 4a	.	(12B#X/L	.	f
.	.	.	.	12c#X/)	.	.
.	.	.	.	(12d#X/J	.	.
4r	.	4r	.	12e/L)	.	.
.	.	.	.	12g#X/	.	.
.	.	.	.	(12a/J	.	.
!	!	!	!	!LO:TUP:a	!	!
2r	.	2r	.	12b#X\L)	.	.
.	.	.	.	12cc#X\	.	.
.	.	.	.	(12dd#X\J	.	.
!	!	!	!	!LO:TUP:a	!	!
.	.	.	.	12ee\L)	.	.
.	.	.	.	12aa'\	.	.
.	.	.	.	12ccc#X'\J	.	.
=77	=77	=77	=77	=77	=77	=77
!	!	!	!	!LO:TX:a:t=1	!	!
(4DD^>/ 4D	.	(4B-^>/ 4f 4b-	f	1r	.	.
8.CC#X/L) 8.C#X	.	8.A/L) 8.f 8.a	.	.	.	.
16CC#'/Jk 16C#	.	16A'/Jk 16f 16a	.	.	.	.
(4DD^>/ 4D	.	(4B-^>/ 4f 4b-	.	.	.	.
8.CC#/L) 8.C#	.	8.A/L) 8.f 8.a	.	.	.	.
16CC#'/Jk 16C#	.	16A'/Jk 16f 16a	.	.	.	.
!	!	!	!	!LO:LB:g=original	!	!
=78	=78	=78	=78	=78	=78	=78
*	*	*	*	*Xtuplet	*	*
4DD/ 4D	.	4B-/ 4f 4b-	.	(12e/L	.	f
.	.	.	.	12f/)	.	.
.	.	.	.	(12a/J	.	.
4r	.	4r	.	12b-\L)	.	.
.	.	.	.	(12cc#X\	.	.
.	.	.	.	12dd\J)	.	.
2r	.	2r	.	(12ee\L	.	.
.	.	.	.	12ff\)	.	.
.	.	.	.	(12aa\J	.	.
.	.	.	.	12bb-\L)	.	.
.	.	.	.	12ddd'\	.	.
.	.	.	.	12eee'\J	.	.
!LO:PB:g=original	!	!	!	!	!	!
=79	=79	=79	=79	=79	=79	=79
*^	*	*	*	*	*	*
!	!	!	!LO:TX:b:i:t=leggiero	!	!	!	!
4.A/	1C	.	4.c/ 4.f 4.cc	p	8ff'\L 8fff	.	p
.	.	.	.	.	8eee'\	.	.
.	.	.	.	.	8ddd'\	.	.
8A/	.	.	8c/ 8f 8cc	.	8ccc'\J	.	.
4F#X'/	.	.	4e-X'/ 4a	.	8dd'\L 8ddd	.	.
.	.	.	.	.	8ccc'\	.	.
4F#'/	.	.	4e-'/ 4a	.	8bb-'\	.	.
.	.	.	.	.	8aa'\J	.	.
=80	=80	=80	=80	=80	=80	=80	=80
4.G/	1C	.	4.d/ 4.g 4.b-	.	8dd'\L 8ddd	.	.
!	!	!	!	!	!LO:TX:t=P:problem: aplikatura dopisana ołówkiem	!	!
.	.	.	.	.	8bb-'\	3	.
.	.	.	.	.	8aa'\	.	.
8G/	.	.	8d/ 8g 8b-	.	8gg'\J	.	.
4E'/	.	.	4c'/ 4g	.	8cc'\L 8ccc	.	.
.	.	.	.	.	8bb-'\	.	.
4E'/	.	.	4c'/ 4g	.	8aa'\	.	.
.	.	.	.	.	8gg'\J	.	.
*v	*v	*	*	*	*	*	*
=81	=81	=81	=81	=81	=81	=81
!	!	!LO:TX:b:i:t=leggiero	!	!	!	!
4.A\	.	4.f/ 4.cc	.	(16fff^\LL	.	.
.	.	.	.	16ggg\	.	.
.	.	.	.	16aaa\	.	.
.	.	.	.	16ggg\JJ	.	.
.	.	.	.	16fff\LL	.	.
.	.	.	.	16eee\	.	.
8A\	.	8f/ 8cc	.	16ddd\	.	.
.	.	.	.	16ccc\JJ)	.	.
4A-X'\	.	4f'/ 4cc-X 4dd-X	.	(16ddd-X^\LL	.	.
.	.	.	.	16eee-X\	.	.
.	.	.	.	16ddd-\	.	.
.	.	.	.	16ccc-X\JJ	.	.
4A-'\	.	4f'/ 4cc- 4dd-	.	16bb-\LL	.	.
.	.	.	.	16ccc-\	.	.
.	.	.	.	16bb-\	.	.
.	.	.	.	16aa-X\JJ)	.	.
!	!	!	!	!LO:LB:g=original	!	!
=82	=82	=82	=82	=82	=82	=82
4.G\	.	4.f/ 4.bn 4.dd	.	(16dddn\LL	.	.
.	.	.	.	16eeen\	.	.
.	.	.	.	16ddd\	.	.
.	.	.	.	16bbn\JJ	.	.
.	.	.	.	16aan\LL	.	.
.	.	.	.	16bb\	.	.
8G\	.	8f/ 8b 8dd	.	16aa\	.	.
.	.	.	.	16gg\JJ)	.	.
4C'\ 4c	.	4e'/ 4b-X 4cc 4ee	.	(16ccc^\LL	.	.
.	.	.	.	16ddd\	.	.
.	.	.	.	16ccc\	.	.
.	.	.	.	16bb-X\JJ	.	.
4C'\ 4c	.	4e'/ 4b- 4cc 4ee	.	16aa^\LL	.	.
.	.	.	.	16bb-\	.	.
.	.	.	.	16aa\	.	.
.	.	.	.	16gg\JJ)	.	.
*	*	*clefF4	*	*	*	*
!LO:LB:g=original	!	!	!	!	!	!
=83	=83	=83	=83	=83	=83	=83
4.AA/	.	4.F\ 4.c	.	(16ff\LL	.	.
.	.	.	.	16gg\	.	.
.	.	.	.	16aa\	.	.
.	.	.	.	16gg\JJ	.	.
.	.	.	.	16ff\LL	.	.
.	.	.	.	16ee\	.	.
8AA/	.	8F\ 8c	.	16dd\	.	.
.	.	.	.	16cc\JJ)	.	.
4AA-X'/	.	4F'\ 4c-X 4d-X	.	(16dd-X\LL	.	.
.	.	.	.	16ee-X\	.	.
.	.	.	.	16dd-\	.	.
.	.	.	.	16cc-X\JJ	.	.
4AA-'/	.	4F'\ 4c- 4d-	.	16b-\LL	.	.
.	.	.	.	16cc-\	.	.
.	.	.	.	16b-\	.	.
.	.	.	.	16a-X\JJ)	.	.
=84	=84	=84	=84	=84	=84	=84
4.GG/	.	4.F\ 4.Bn 4.d	.	(16ddn\LL	.	.
.	.	.	.	16een\	.	.
.	.	.	.	16dd\	.	.
.	.	.	.	16bn\JJ	.	.
.	.	.	.	16an/LL	.	.
.	.	.	.	16b/	.	.
8GG/	.	8F\ 8B 8d	.	16a/	.	.
.	.	.	.	16g/JJ)	.	.
4CC'/ 4C	.	4E'\ 4B-X 4c 4e	.	(16cc\LL	.	.
.	.	.	.	16dd\	.	.
.	.	.	.	16cc\	.	.
.	.	.	.	16b-X\JJ	.	.
4CC'/ 4C	.	4E'\ 4B- 4c 4e	.	16a/LL	.	.
.	.	.	.	16b-/	.	.
.	.	.	.	16a/	.	.
.	.	.	.	16g/JJ)	.	.
!!LO:REH:t=E
!	!	!	!	!LO:LB:g=original	!	!
*	*	*clefG2	*	*	*	*
=85	=85	=85	=85	=85	=85	=85
!!LO:TX:t=P:problem: rehersal mark without box	!	!	!	!	!
4.CC/ 4.C	.	(>4.B-~>/ 4.c 4.e 4.g	p	(16cc\LL	.	p
.	.	.	.	16dd\	.	.
.	.	.	.	16cc\	.	.
.	.	.	.	16b-\JJ)	.	.
.	.	.	.	(8a'/L	.	.
8CC/ 8C	.	8B-~>/) 8c 8e 8g	.	8g'/J)	.	.
!	!	!LO:TX:b:t=poco a poco cre-scen-do-:dur=7q7e:ext=cd:problem:text with extention lines	!	!LO:TX:b:t=poco	!	!
4.CC/ 4.C	.	(>4.A~>/ 4.d#X 4.f#X	<	(16dd\LL	.	.
.	.	.	.	16ee-X\	.	.
.	.	.	.	16dd\	.	.
.	.	.	.	16cc\JJ)	.	.
.	.	.	.	(8b-'/L	.	.
8CC/ 8C	.	8A~>/) 8d# 8f#	.	8a'/J)	.	.
=86	=86	=86	=86	=86	=86	=86
!	!	!	!	!LO:TX:b:t=a 	!	!
4.CC/ 4.C	.	4.B-/ 4.c 4.e 4.g	.	(16cc\LL	.	.
.	.	.	.	16dd\	.	.
.	.	.	.	16cc\	.	.
.	.	.	.	16b-\JJ)	.	.
!	!	!	!	!LO:TX:b:t=poco	!	!
.	.	.	.	(8a'/L	.	.
8CC/ 8C	.	8B-/ 8c 8e 8g	.	8g'/J)	.	.
4.CC/ 4.C	.	4.Bn/ 4.f 4.a-X	.	(16ff\LL	.	.
.	.	.	.	16gg\	.	.
.	.	.	.	16ff\	.	.
.	.	.	.	16dd\JJ)	.	.
.	.	.	.	(8cc'\L	.	<
8CC/ 8C	.	8B/ 8f 8a-	.	8bn'\J)	.	.
!LO:LB:g=original	!	!	!	!	!	!
=87	=87	=87	=87	=87	=87	=87
4.CC/ 4.C	.	4.c/ 4.f 4.g 4.cc	.	(16gg\LL	.	.
.	.	.	.	16aa\	.	.
.	.	.	.	16gg\	.	.
.	.	.	.	16ff\JJ)	.	.
.	.	.	.	(8dd'\L	.	.
8C\ 8G 8B-	.	8c/ 8f 8g 8cc	.	8cc'\J)	.	.
4.C\ 4.G 4.B-	.	4.c/ 4.f 4.g 4.cc	.	(16gg\LL	.	.
.	.	.	.	16aa\	.	.
.	.	.	.	16gg\	.	.
.	.	.	.	16ff\JJ)	.	.
.	.	.	.	(8dd'\L	.	.
8C\ 8G 8B-	.	8c/ 8f 8g 8cc	.	8cc'\J)	.	.
*clefG2	*	*	*	*	*	*
!	!	!	!	!LO:LB:g=original	!	!
=88	=88	=88	=88	=88	=88	=88
4.c/ 4.f 4.g 4.b-	.	4.cc\ 4.ff 4.gg 4.ccc	.	(16ccc\LL	.	.
.	.	.	.	16ddd\	.	.
.	.	.	.	16ccc\	.	.
.	.	.	.	16bb-\JJ)	.	.
.	.	.	.	(8gg'\L	.	.
8c/ 8f 8g 8b-	.	8cc\ 8ff 8gg 8ccc	.	8ff'\J)	.	.
4.c/ 4.f 4.g 4.b-	.	4.cc\ 4.ff 4.gg 4.ccc	.	(16ccc\LL	.	.
.	.	.	.	16ddd\	.	.
.	.	.	.	16ccc\	.	.
.	.	.	.	16bb-\JJ)	.	.
.	.	.	.	(8gg'\L	.	.
8c/ 8f 8g 8b-	.	8cc\ 8ff 8gg 8ccc	[[	8ff'\J)	.	.
=89	=89	=89	=89	=89	=89	=89
2.c/ 2.g 2.b-	.	2.cc\ 2.ee 2.aa 2.ccc	f	[1eeet	.	fff
*clefF4	*	*clefF4	*	*	*	*
[4CC/ [4C	.	[4E^\ [4B- [4c [4e	.	.	.	.
=90	=90	=90	=90	=90	=90	=90
4CC/] 4C]	.	4E\] 4B-] 4c] 4e]	.	1eeet]	.	.
*	*	*clefG2	*	*	*	*
2C\ 2G 2B-	.	2e^>/ 2b- 2cc 2ee	.	.	.	.
*clefG2	*	*	*	*	*	*
4c/ 4g 4b-	.	4ee^>\ 4bb- 4ccc 4eee	.	.	.	.
*clefF4	*	*	*	*	*	*
=91	=91	=91	=91	=91	=91	=91
!	!	!LO:TX:a:i:t=poco meno mosso	!	!LO:TX:b:t=tutti	!	!
!	!	!LO:TX:a:i:t=Tutti.	!	!LO:TX:a:i:t=Poco meno mosso [quarter] = 120.	!	!
8FFF/L 8FF	.	4ff^\ 4aa 4ccc 4fff	ff	4fff\	.	.
8C/ 8F 8A 8c	.	.	.	.	.	.
8C/ 8F 8A 8c	.	4a^\ 4cc 4ff 4aa	.	4r	.	.
8C/J 8F 8A 8c	.	.	.	.	.	.
8C\L 8F 8A 8c	.	4.b-^\ 4.ff 4.bb-	.	2r	.	.
8C\ 8F 8A 8c	.	.	.	.	.	.
8C\ 8F 8A 8c	.	.	.	.	.	.
8C\J 8F 8A 8c	.	8cc^\ 8ff 8ccc	.	.	.	.
!LO:LB:g=original	!	!	!	!	!	!
=92	=92	=92	=92	=92	=92	=92
!	!	!	!	!LO:TX:a:t=6	!	!
8FFF\L 8FF	.	4dd^\ 4gg 4bb- 4ddd	.	00r	.	.
8D\ 8G 8B- 8d	.	.	.	.	.	.
8D\ 8G 8B- 8d	.	4g^\ 4dd 4gg	.	.	.	.
8D\J 8G 8B- 8d	.	.	.	.	.	.
8D\L 8G 8B- 8d	.	4.a^\ 4.dd 4.aa	.	.	.	.
8D\ 8G 8B- 8d	.	.	.	.	.	.
8D\ 8G 8B- 8d	.	.	.	.	.	.
8D\J 8G 8B- 8d	.	8b-^\ 8dd 8bb-	.	.	.	.
=93	=93	=93	=93	=93	=93	=93
8FFF\L 8FF	.	4cc^\ 4ee 4gg 4ccc	.	.	.	.
8E\ 8B- 8c 8e	.	.	.	.	.	.
8E\ 8B- 8c 8e	.	4ee^\ 4gg 4ccc 4eee	.	.	.	.
8E\J 8B- 8c 8e	.	.	.	.	.	.
8E\L 8B- 8c 8e	.	4ff^\ 4bb- 4fff	<	.	.	.
8E\ 8B- 8c 8e	.	.	.	.	.	.
8E\ 8B- 8c 8e	.	4gg^\ 4bb- 4ggg	.	.	.	.
8E\J 8B- 8c 8e	.	.	.	.	.	.
=94	=94	=94	=94	=94	=94	=94
8FFF/L 8FF	.	4.gg#X^\ 4.bbn 4.ggg#X	sf	.	.	.
8C/ 8F 8A-X 8Bn	.	.	.	.	.	.
8C/ 8F 8A- 8B	.	.	.	.	.	.
8C/J 8F 8A- 8B	.	8aa\ 8ccc 8aaa	.	.	.	.
8C\L 8F 8An 8c	.	2aa^\ 2ccc 2aaa	ff	.	.	.
8C\ 8F 8A 8c	.	.	.	.	.	.
8C\ 8F 8A 8c	.	.	.	.	.	.
8C\J 8F 8A 8c	.	.	.	.	.	.
=95	=95	=95	=95	=95	=95	=95
8EEE/L 8EE	.	4gg#X^\ 4ggg#X	.	.	.	.
*clefG2	*	*	*	*	*	*
8A/ 8c#X 8g 8a	.	.	.	.	.	.
8A/ 8c# 8g 8a	.	4aa^\ 4aaa	.	.	.	.
8A/J 8c# 8g 8a	.	.	.	.	.	.
8A/L 8c# 8g 8a	.	4dd#X^\ 4ddd#X	.	.	.	.
8A/ 8c# 8g 8a	.	.	.	.	.	.
8A/ 8c# 8g 8a	.	4ee^\ 4eee	.	.	.	.
8A/J 8c# 8g 8a	.	.	.	.	.	.
*clefF4	*	*	*	*	*	*
!LO:LB:g=original	!	!	!	!	!	!
=96	=96	=96	=96	=96	=96	=96
8DDD/L 8DD	.	4ggnX^\ 4aanX 4ddd 4gggnX	.	0r	.	.
*clefG2	*	*	*	*	*	*
8A/ 8d 8f 8a	.	.	.	.	.	.
8A/ 8d 8f 8a	.	4ff^\ 4aa 4ddd 4fff	.	.	.	.
8A/J 8d 8f 8a	.	.	.	.	.	.
8A/L 8d 8f 8a	.	4ee^\ 4aa 4eee	.	.	.	.
8A/ 8d 8f 8a	.	.	.	.	.	.
8A/ 8d 8f 8a	.	4dd^\ 4aa 4ddd	.	.	.	.
8A/J 8d 8f 8a	.	.	.	.	.	.
*clefF4	*	*	*	*	*	*
=97	=97	=97	=97	=97	=97	=97
!	!	!LO:TX:b:Bi:t=cresc. -:problem:dynamics with line extensions	!	!	!	!
8DD/L 8D	.	4cc#X^\ 4gg 4bbn 4ccc#X	<	.	.	.
*clefG2	*	*	*	*	*	*
8G/ 8Bn 8f 8g	.	.	.	.	.	.
8G/ 8B 8f 8g	.	4dd^\ 4gg 4bb 4ddd	.	.	.	.
8G/J 8B 8f 8g	.	.	.	.	.	.
8G/L 8B 8f 8g	.	4ee^\ 4gg 4bb 4eee	.	.	.	.
8G/ 8B 8f 8g	.	.	.	.	.	.
8G/ 8B 8f 8g	.	4ff^\ 4gg 4bb 4fff	.	.	.	.
8G/J 8B 8f 8g	.	.	.	.	.	.
*clefF4	*	*	*	*	*	*
=98	=98	=98	=98	=98	=98	=98
!	!	!	!	!LO:TX:a:t=1	!	!
!	!	!	!	!LO:TX:a:i:t=rit.	!	!
8CC\L 8C	.	4..ff#X^\ 4..bb-X 4..cccn 4..fff#X	sf	1r	.	.
8E\ 8B- 8c 8e	.	.	.	.	.	.
8E\ 8B- 8c 8e	.	.	.	.	.	.
8E\J 8B- 8c 8e	.	.	.	.	.	.
.	.	16gg\ 16ggg	.	.	.	.
!	!	!LO:TX:b:i:t=rit.	!	!	!	!
8E\L 8B- 8c 8e	.	2gg:\ 2bb-: 2ccc: 2ggg:	ff	.	.	.
8E\ 8B- 8c 8e	.	.	.	.	.	.
8E\ 8B- 8c 8e	.	.	.	.	.	.
8E\J 8B- 8c 8e	.	.	.	.	.	.
!!LO:REH:t=F
!LO:PB:g=original	!	!	!	!	!	!
=99	=99	=99	=99	=99	=99	=99
!!LO:TX:t=P:problem: rehersal mark without box	!	!	!	!	!
!	!	!LO:TX:a:i:t=a tempo	!	!	!	!
!	!	!LO:TX:a:t=Solo.	!	!LO:TX:a:t=Solo.	!	!
8FFF/L 8FF	.	8ff\L 8aa 8ccc 8fff	mf	4ff\ 4fff	.	ff
8C/ 8F 8A	.	8c\ 8f 8a 8cc	.	.	.	.
8C/ 8F 8A	.	8c\ 8f 8a 8cc	.	4a^\ 4aa	.	.
8C/J 8F 8A	.	8c\J 8f 8a 8cc	.	.	.	.
8C\L 8F 8A	.	8c/L 8f 8a 8cc	.	4.b-^\ 4.bb-	.	.
8C\ 8F 8A	.	8c/ 8f 8a 8cc	.	.	.	.
8C\ 8F 8A	.	8c/ 8f 8a 8cc	.	.	.	.
8C\J 8F 8A	.	8c/J 8f 8a 8cc	.	8cc^\ 8ccc	.	.
!	!	!	!	!LO:LB:g=original	!	!
=100	=100	=100	=100	=100	=100	=100
8C\L 8F 8G 8B-	.	8d/L 8g 8b- 8dd	.	4dd^\ 4ddd	.	.
8C\ 8F 8G 8B-	.	8d/ 8g 8b- 8dd	.	.	.	.
8C\ 8F 8G 8B-	.	8d/ 8g 8b- 8dd	.	4g^\ 4gg	.	.
8C\J 8F 8G 8B-	.	8d/J 8g 8b- 8dd	.	.	.	.
8C\L 8F 8G 8B-	.	8d/L 8g 8b- 8dd	.	4.a^\ 4.aa	.	.
8C\ 8F 8G 8B-	.	8d/ 8g 8b- 8dd	.	.	.	.
8C\ 8F 8G 8B-	.	8d/ 8g 8b- 8dd	.	.	.	.
!	!	!	!	! 	!	!
8C\J 8F 8G 8B-	.	8d/J 8g 8b- 8dd	.	8b-^\ 8bb-	.	<
=101	=101	=101	=101	=101	=101	=101
!	!	!LO:TX:b:t=cre-scen-do-:dur=16e:ext=cd:problem:text with extention lines	!	!	!	!
8C\L 8G 8B-	.	8e\L 8g 8cc 8ee	<	4cc^\ 4ccc	.	.
8C\ 8G 8B-	.	8e\ 8g 8cc 8ee	.	.	.	.
8BB-\ 8C 8B-	.	8g\ 8cc 8ee 8gg	.	4ee^\ 4eee	.	.
8BB-\J 8C 8B-	.	8g\J 8cc 8ee 8gg	.	.	.	.
8AA\L 8C 8A	.	8f\L 8cc 8ff	.	4ff^\ 4fff	.	.
8AA\ 8C 8A	.	8f\ 8cc 8ff	.	.	.	.
8GG\ 8C 8B-	.	8e\ 8cc 8ee	.	4gg^\ 4ggg	.	.
8GG\J 8C 8B-	.	8e\J 8cc 8ee	.	.	.	.
=102	=102	=102	=102	=102	=102	=102
8FF\L 8C	.	8d/L 8g#X 8bn 8dd	.	4..gg#X\ 4..ggg#X	.	.
8D\ 8G#X 8Bn	.	8d/ 8g# 8b 8dd	.	.	.	.
8D\ 8G# 8B	.	8d/ 8g# 8b 8dd	.	.	.	.
8D\J 8G# 8B	.	8d/J 8g# 8b 8dd	.	.	.	.
.	.	.	.	16aa\ 16aaa	.	.
8C\L 8F 8A 8c	.	8f/L 8a 8cc	.	2aa\ 2aaa	.	.
8C\ 8F 8A 8c	.	8f/ 8a 8cc	.	.	.	.
8C\ 8F 8A 8c	.	8f/ 8a 8cc	.	.	.	.
8C\J 8F 8A 8c	.	8f/J 8a 8cc	[[	.	.	.
!LO:LB:g=original	!	!	!	!	!	!
=103	=103	=103	=103	=103	=103	=103
8DDD/L 8DD	.	8d/L 8f#X 8cc 8dd	f	4aa^\ 4aaa	.	ff
8D/ 8A 8c	.	8d/ 8f# 8cc 8dd	.	.	.	.
8D/ 8A 8c	.	8d/ 8f# 8cc 8dd	.	4ccc^\ 4cccc	.	.
8D/J 8A 8c	.	8d/J 8f# 8cc 8dd	.	.	.	.
8D\L 8A 8c 8d	.	8f#\L 8cc 8dd 8ff#X	.	4bb-^\ 4bbb-	.	.
8D\ 8A 8c 8d	.	8f#\ 8cc 8dd 8ff#	.	.	.	.
8D\ 8A 8c 8d	.	8f#\ 8cc 8dd 8ff#	.	4aa^\ 4aaa	.	.
8D\J 8A 8c 8d	.	8f#\J 8cc 8dd 8ff#	.	.	.	.
=104	=104	=104	=104	=104	=104	=104
8BB-\L 8D 8B-	.	8g\L 8dd 8gg	.	4gg^\ 4ggg	.	.
8BB-\ 8D 8B-	.	8g\ 8dd 8gg	.	.	.	.
8BB-\ 8D 8B-	.	8g\ 8dd 8gg	.	4ff^\ 4fff	.	.
8BB-\J 8D 8B-	.	8g\J 8dd 8gg	.	.	.	.
8BBn\L 8D 8Bn	.	8g#X\L 8dd 8gg#X	.	4ee^>\ 4eee	.	.
8BB\ 8D 8B	.	8g#\ 8dd 8gg#	.	.	.	.
8BB\ 8D 8B	.	8g#\ 8dd 8gg#	.	4dd^>\ 4ddd	.	.
8BB\J 8D 8B	.	8g#\J 8dd 8gg#	.	.	.	.
=105	=105	=105	=105	=105	=105	=105
(>8qCC/	.	.	.	.	.	.
8C\L) 8F 8A 8c	.	8a\L 8cc 8ff 8aa	.	4cc^\ 4ccc	.	.
8C\ 8F 8A 8c	.	8a\ 8cc 8ff 8aa	.	.	.	.
8C\ 8F 8A 8c	.	8a\ 8cc 8ff 8aa	.	4ee^\ 4eee	.	sf
8C\J 8F 8A 8c	.	8a\J 8cc 8ff 8aa	.	.	.	.
8C\L 8F 8A 8c	.	8cc\L 8ff 8aa 8ccc	.	4dd^\ 4ddd	.	.
8C\ 8F 8A 8c	.	8cc\ 8ff 8aa 8ccc	.	.	.	.
8C\ 8F 8A 8c	.	8cc\ 8ff 8aa 8ccc	.	4cc^\ 4ccc	.	.
8C\J 8F 8A 8c	.	8cc\J 8ff 8aa 8ccc	.	.	.	.
!LO:LB:g=original	!	!	!	!LO:LB:g=original	!	!
=106	=106	=106	=106	=106	=106	=106
8C\L 8F#X 8A 8d	.	8dd\L 8ff#X 8aa 8ddd	.	4b-^\ 4bb-	.	.
8C\ 8F# 8A 8d	.	8dd\ 8ff# 8aa 8ddd	.	.	.	.
8C\ 8F# 8A 8d	.	8dd\ 8ff# 8aa 8ddd	.	4a^\ 4aa	.	.
8C\J 8F# 8A 8d	.	8dd\J 8ff# 8aa 8ddd	.	.	.	.
8C\L 8F# 8A 8d	.	8dd\L 8ff# 8aa 8ddd	.	4g^\ 4gg	.	.
8C\ 8F# 8A 8d	.	8dd\ 8ff# 8aa 8ddd	.	.	.	.
8C\ 8F# 8A 8d	.	8dd\ 8ff# 8aa 8ddd	.	4f#X^\ 4ff#X	.	.
8C\J 8F# 8A 8d	.	8dd\J 8ff# 8aa 8ddd	.	.	.	.
=107	=107	=107	=107	=107	=107	=107
4C\ 4G 4B- 4d	.	4dd\ 4gg 4bb- 4ddd	f	4g\ 4gg	.	.
4r	.	4r	.	4b-^\ 4bb-	.	sf
2r	.	2r	.	4a\ 4aa	.	.
.	.	.	.	4g^\ 4gg	.	.
*clefG2	*	*	*	*	*	*
=108	=108	=108	=108	=108	=108	=108
*	*	*^	*	*	*	*
!	!	!LO:TX:a:i:t=m.g.	!	!	!	!	!
4G::/ 4d:: 4f::	.	4bb-::/ 4ddd::	4b-:\ 4dd: 4gg:	p	4r	.	.
!	!	!	!	!	!LO:TX:a:t=sul G	!	!
4r	.	4r	4ryy	.	4b-^\	.	sf
2r	.	2r	2ryy	.	4a^>/	.	.
.	.	.	.	.	4g^>/	.	.
*	*	*v	*v	*	*	*	*
*clefF4	*	*	*	*	*	*
=109	=109	=109	=109	=109	=109	=109
2C\ 2G 2B-	.	2e/ 2b- 2cc 2ee	.	[1b-	.	>
[2g\	.	[2gg\	>	.	.	.
=110	=110	=110	=110	=110	=110	=110
4g\]	.	4gg\]	.	2b-\]	.	.
2g\	.	2gg\	.	.	.	.
.	.	.	.	2a/	.	]]
4f\	.	4ff\	]	.	.	.
!LO:LB:g=original	!	!	!	!	!	!
=111	=111	=111	=111	=111	=111	=111
!	!	!LO:TX:a:i:t=espressivo  tranquillo	!	!	!	!
4FF::/ 4C:: 4A::	.	(4f::\ 4a:: 4cc:: 4ff::	p	(16a\LL	.	p
.	.	.	.	16ee\	.	.
.	.	.	.	16ff\	.	.
.	.	.	.	16gg\JJ	.	.
!	!	!LO:TX:b:i:t=dolce	!	!LO:TX:b:i:t=leggiero	!	!
(4f\	.	4a/	.	16aa\LL	.	.
.	.	.	.	16ff\	.	.
.	.	.	.	16gg\	.	.
.	.	.	.	16aa\JJ)	.	.
4e\	.	4b-\	.	((16bb-\LL	.	.
.	.	.	.	16aa\	.	.
.	.	.	.	16bb-\)	.	.
.	.	.	.	16bb-'\JJ)	.	.
4e-X\	.	4g/) 4cc	.	((16ccc\LL	.	.
.	.	.	.	16bbn\	.	.
.	.	.	.	16ccc\)	.	.
.	.	.	.	16ccc'\JJ)	.	.
!	!	!	!	!LO:LB:g=original	!	!
=112	=112	=112	=112	=112	=112	=112
*	*	*^	*	*	*	*
*	*	*	*	*	*tuplet	*	*
!	!	!	!	!	!LO:TUP:b	!	!
4d\	.	(4.cc#X/	4f#X\ 4a	.	(12ccc#X^\L	.	f
.	.	.	.	.	12ddd\	.	.
.	.	.	.	.	12aa\J)	.	.
!	!	!	!	!	!LO:TUP:b	!	!
4cn\	.	.	4d\ 4f#	.	(12ff#X'\L	.	.
.	.	.	.	.	12dd'\	.	.
.	.	8dd/)	.	.	.	.	.
.	.	.	.	.	12a'\J)	.	.
!	!	!	!	!	!LO:TUP:b	!	!
4B-\ 4d	.	[2dd/	4e\ 4g	.	(12cc#X\L	.	.
.	.	.	.	.	12dd\	.	.
.	.	.	.	.	12g\J)	.	.
!	!	!	!	!	!LO:TUP:a	!	!
4A\ 4c	.	.	4f#\ 4a	.	(12f#X'/L	.	.
.	.	.	.	.	12d'/	.	.
.	.	.	.	.	12A'/J)	.	.
=113	=113	=113	=113	=113	=113	=113	=113
4G\) 4B-	.	(4bb-/	4g\ 4b- 4dd]	.	(16b-\LL	.	.
.	.	.	.	.	16dd\	.	.
.	.	.	.	.	16ee\	.	.
.	.	.	.	.	16ff#X\JJ	.	.
(4a\	.	4dd/	2.b-\ 2.dd	.	16gg\LL	.	.
.	.	.	.	.	16bb-\	.	.
.	.	.	.	.	16ccc\	.	.
.	.	.	.	.	16ddd\JJ)	.	.
4g\	.	4ee/	.	.	((16eee\LL	.	.
.	.	.	.	.	16ddd\	.	.
.	.	.	.	.	16eee\)	.	.
.	.	.	.	.	16eee'\JJ)	.	.
4f\	.	4ff/)	.	.	((16fff\LL	.	.
.	.	.	.	.	16eee\	.	.
.	.	.	.	.	16fff\)	.	.
.	.	.	.	.	16fff'\JJ)	.	.
=114	=114	=114	=114	=114	=114	=114	=114
!	!	!	!	!	!LO:TUP:b	!	!
4e\	.	(4.ff#X/	1b- 1cc	.	(12fff#X\L	.	.
.	.	.	.	.	12ggg\	.	.
.	.	.	.	.	12eee\J)	.	.
!	!	!	!	!	!LO:TUP:b	!	!
4c\	.	.	.	.	(12ddd'\L	.	.
.	.	.	.	.	12ccc'\	.	.
.	.	8gg/)	.	.	.	.	.
.	.	.	.	.	12gg'\J)	.	.
!	!	!	!	!	!LO:TUP:b	!	!
4d\	.	2gg/	.	.	(12ff#X\L	.	.
.	.	.	.	.	12gg\	.	.
.	.	.	.	.	12ee\J)	.	.
!	!	!	!	!	!LO:TUP:b	!	!
4e\)	.	.	.	.	(12dd'\L	.	.
.	.	.	.	.	12cc'\	.	.
.	.	.	.	.	12g'\J)	.	.
*	*	*v	*v	*	*	*	*
!LO:LB:g=original	!	!	!	!LO:LB:g=original	!	!
=115	=115	=115	=115	=115	=115	=115
!	!	!	!	!LO:TUP:b	!	!
(4FF:/ 4C: 4A:	.	(4f/ 4a	.	(12fn^>/L	.	.
.	.	.	.	12g/	.	.
.	.	.	.	12a/J)	.	.
!	!	!	!	!LO:TUP:b	!	!
4G\ 4B-	.	4g/ 4b-	.	(12g^>/L	.	.
.	.	.	.	12a/	.	.
.	.	.	.	12b-/J)	.	.
!	!	!	!	!LO:TUP:b	!	!
4A\ 4c	.	4a\ 4cc	.	(<12a^>/L	.	.
.	.	.	.	12b-/	.	.
.	.	.	.	12cc/J)	.	.
!	!	!	!	!LO:TUP:a	!	!
4d\ 4f	.	4dd\ 4ff	.	(12ff^\L	.	.
.	.	.	.	12ee\	.	.
.	.	.	.	12dd\J)	.	.
=116	=116	=116	=116	=116	=116	=116
*	*	*	*	*Xtuplet	*	*
4c\ 4e	.	4cc\ 4ee	<	(12ee^\L	.	.
.	.	.	.	12dd\	.	.
.	.	.	.	12cc\J)	.	.
4A\ 4c	.	4a\ 4cc	.	(12a\L	.	<
.	.	.	.	12b-\	.	.
.	.	.	.	12cc\J	.	.
4G\ 4B-	.	4g/ 4b-	.	12dd\L	.	.
.	.	.	.	12ee\	.	.
.	.	.	.	12ff\J	.	.
4B-\ 4d	.	4b-\ 4dd	.	12gg\L	.	.
.	.	.	.	12aa\	.	.
.	.	.	.	12bb-\J)	.	.
=117	=117	=117	=117	=117	=117	=117
*^	*	*^	*	*	*	*
4A\ 4c	4ryy	.	4a\ 4cc	4ryy	mf	(12ccc^\L	.	mf
.	.	.	.	.	.	12ddd\	.	.
.	.	.	.	.	.	12ccc\J)	.	.
4F\ 4A	4ryy	.	4f/ 4a	4ryy	.	(12aa^\L	.	.
.	.	.	.	.	.	12bb-\	.	.
.	.	.	.	.	.	12aa\J)	.	.
4A/	2D\	.	4f/	2Bn\ 2f	.	(12ff^\L	.	.
.	.	.	.	.	.	12gg\	.	.
.	.	.	.	.	.	12ff\J)	.	.
4G/)	.	.	4a/)	.	.	(12aa^\L	.	.
.	.	.	.	.	.	12bbn\	.	.
.	.	.	.	.	.	12aa\J)	.	.
*v	*v	*	*	*	*	*	*	*
*	*	*v	*v	*	*	*	*
!	!	!	!	!LO:LB:g=original	!	!
=118	=118	=118	=118	=118	=118	=118
2.CC/ 2.GG 2.E	.	2.c/ 2.g 2.cc	.	12ccc'\L	.	.
.	.	.	.	12ccc'\	.	.
.	.	.	.	12ddd'\J	.	.
.	.	.	.	12ccc^<T\L	.	.
.	.	.	.	12gg'\	.	.
.	.	.	.	12ee'\J	.	.
.	.	.	.	12gg'\L	.	.
.	.	.	.	12gg'\	.	.
.	.	.	.	12aa'\J	.	.
4r	.	4r	.	12gg^<T\L	.	.
.	.	.	.	12ee'\	.	.
.	.	.	.	12cc'\J	.	.
!!LO:REH:t=G
!LO:PB:g=original	!	!	!	!	!	!
=119	=119	=119	=119	=119	=119	=119
*^	*	*^	*	*	*	*
!!LO:TX:t=P:problem: rehersal mark without box	!	!	!	!	!	!	!
!	!	!	!LO:TX:b:i:t=dolce	!	!	!	!	!
2c/ 2e-X	1E-X	.	(4aa-X/	2a-X\	p	(<16e-X/LL	.	p
.	.	.	.	.	.	16a-X/	.	.
.	.	.	.	.	.	16b-/	.	.
.	.	.	.	.	.	16bn/JJ	.	.
.	.	.	4cc/	.	.	16cc\LL	.	.
.	.	.	.	.	.	16a-/	.	.
.	.	.	.	.	.	16b/	.	.
.	.	.	.	.	.	16cc/JJ)	.	.
4B-/ 4d-X	.	.	4dd-X/	4g\	.	((16dd-X\LL	.	.
.	.	.	.	.	.	16cc\	.	.
.	.	.	.	.	.	16dd-\)	.	.
.	.	.	.	.	.	16dd-'\JJ)	.	.
4A-X/ 4c	.	.	4ee-X/)	4g-X\	.	((16ee\LL	.	.
.	.	.	.	.	.	16ddn\	.	.
.	.	.	.	.	.	16ee\)	.	.
.	.	.	.	.	.	16ee'\JJ)	.	.
=120	=120	=120	=120	=120	=120	=120	=120	=120
*	*	*	*	*	*	*tuplet	*	*
!	!	!	!	!	!	!LO:TUP:a	!	!
4An/ 4c	1E-X	.	4.een/	2f\	.	(12een\L	.	.
.	.	.	.	.	.	12ff\	.	.
.	.	.	.	.	.	12cc\J)	.	.
*	*	*	*	*	*	*Xtuplet	*	*
(4A/ 4c	.	.	.	.	.	(12a'/L	.	.
.	.	.	.	.	.	12f'/	.	.
.	.	.	8ff/	.	.	.	.	.
.	.	.	.	.	.	12c'/J)	.	.
4B-/ 4d-X	.	.	2ff/	4gn\	.	(12bbn^\L	.	.
.	.	.	.	.	.	12ccc\	.	.
.	.	.	.	.	.	12aa\J)	.	.
4c/) 4e-X	.	.	.	4an\	.	(12ff'\L	.	.
.	.	.	.	.	.	12cc'\	.	.
.	.	.	.	.	.	12a'\J)	.	.
!	!	!	!	!	!	!LO:LB:g=original	!	!
=121	=121	=121	=121	=121	=121	=121	=121	=121
2B-::/ 2d-X:: 2f::	1E-X::	.	(4dd-X::/ 4ddd-X::	2ff::\	.	(16b-X\LL	.	.
.	.	.	.	.	.	16cc\	.	.
.	.	.	.	.	.	16dd-X\	.	.
.	.	.	.	.	.	16ee-X\JJ	.	.
.	.	.	4f/ 4ff	.	.	16ff\LL	.	.
.	.	.	.	.	.	16dd-\	.	.
.	.	.	.	.	.	16ee-\	.	.
.	.	.	.	.	.	16ff\JJ)	.	.
4B-/ [4d-	.	.	4g/ 4gg	2dd-\ 2ff	.	((16gg\LL	.	.
.	.	.	.	.	.	16ff\	.	.
.	.	.	.	.	.	16gg\)	.	.
.	.	.	.	.	.	16gg'\JJ)	.	.
4A-X/ 4d-]	.	.	4a-X/) 4aa-X	.	.	((16aa-X\LL	.	.
.	.	.	.	.	.	16gg\	.	.
.	.	.	.	.	.	16aa-\)	.	.
.	.	.	.	.	.	16aa-'\JJ)	.	.
=122	=122	=122	=122	=122	=122	=122	=122	=122
*	*^	*	*	*	*	*	*	*
.	.	(<8qEE-X/	.	.	.	.	.	.	.
2d-X/	4G\	2EE-\)	.	(4.an/ 4.aan	2dd-X\ 2ff	.	(12aan^\L	.	.
.	.	.	.	.	.	.	12bb-\	.	.
.	.	.	.	.	.	.	12gg\J)	.	.
.	4E-X\	.	.	.	.	.	(12ff'\L	.	.
.	.	.	.	.	.	.	12ee-X'\	.	.
.	.	.	.	8b-/) 8bb-	.	.	.	.	.
.	.	.	.	.	.	.	12b-'\J)	.	.
4F/	2d-\	2ryy	.	2b-/ 2dd- 2bb-	4ff\	.	(12ddd^\L	.	.
.	.	.	.	.	.	.	12eee-X\	.	.
.	.	.	.	.	.	.	12ccc\J)	.	.
4G/	.	.	.	.	4ee-X\	.	(12bb-'\L	.	.
.	.	.	.	.	.	.	12gg'\	.	.
.	.	.	.	.	.	.	12ee-'\J)	.	.
*v	*v	*v	*	*	*	*	*	*	*
*	*	*v	*v	*	*	*	*
!LO:LB:g=original	!	!	!	!	!	!
=123	=123	=123	=123	=123	=123	=123
(4AA-X\ 4E-X 4A-X	.	(4c/ 4a-X 4cc	.	(12a-X^\L	.	.
.	.	.	.	12b-\	.	.
.	.	.	.	12cc\J)	.	.
4B-\ 4d-X	.	4b-\ 4dd-X	.	(12b-^\L	.	.
.	.	.	.	12cc\	.	.
.	.	.	.	12dd-X\J)	.	.
4c\ 4e-X	.	4cc\ 4ee-X	.	(12cc^\L	.	.
.	.	.	.	12dd-\	.	.
.	.	.	.	12ee-X\J)	.	.
4f\ 4a-X	.	4ff\ 4aa-X	.	(12aa-X^\L	.	.
.	.	.	.	12gg\	.	.
.	.	.	.	12ff\J)	.	.
!	!	!	!	!LO:PB:g=original	!	!
=124	=124	=124	=124	=124	=124	=124
4e-X\ 4g	.	4ee-X\ 4gg	<	(12gg^>\L	.	.
.	.	.	.	12ff\	.	.
.	.	.	.	12ee-X\J)	.	.
4c\ 4e-	.	4cc\ 4ee-	.	(12cc\L	.	<
.	.	.	.	12dd-X\	.	.
.	.	.	.	12ee-\J	.	.
4B-\ 4d-X	.	4b-\ 4dd-X	.	12ff\L	.	.
.	.	.	.	12gg\	.	.
.	.	.	.	12aa-X\J	.	.
4d-\ 4f	.	4dd-\ 4ff	.	12bb-\L	.	.
.	.	.	.	12ccc\	.	.
.	.	.	.	12ddd-X\J)	.	.
=125	=125	=125	=125	=125	=125	=125
*^	*	*^	*	*	*	*
!	!	!	!	!	!	!LO:TUP:a	!	!
4c\ 4e-X	4ryy	.	4cc\ 4ee-X	4ryy	mf	(12eee-X^\L	.	mf
.	.	.	.	.	.	12fff\	.	.
.	.	.	.	.	.	12eee-\J)	.	.
!	!	!	!	!	!	!LO:TUP:a	!	!
4A-X\ 4c	4ryy	.	4a-X\ 4cc	4ryy	.	(12ccc^\L	.	.
.	.	.	.	.	.	12ddd-X\	.	.
.	.	.	.	.	.	12ccc\J)	.	.
4c/	2F\	.	4a-/	2dn\ 2a-	.	(12aa-X\L	.	.
.	.	.	.	.	.	12bb-\	.	.
.	.	.	.	.	.	12aa-\J)	.	.
4B-/)	.	.	4cc/)	.	.	(12ccc^\L	.	.
.	.	.	.	.	.	12dddn\	.	.
.	.	.	.	.	.	12ccc\J)	.	.
*v	*v	*	*	*	*	*	*	*
*	*	*v	*v	*	*	*	*
=126	=126	=126	=126	=126	=126	=126
1EE-X: 1BB-: 1G:	.	1e-X 1b- 1ee-X	.	12eee-X'\L	.	.
.	.	.	.	12eee-'\	.	.
.	.	.	.	12fff'\J	.	.
.	.	.	.	12eee-^>T\L	.	.
.	.	.	.	12bb-'\	.	.
.	.	.	.	12gg'\J	.	.
.	.	.	.	12bb-'\L	.	.
.	.	.	.	12bb-'\	.	.
.	.	.	.	12ccc'\J	.	.
.	.	.	.	12bb-^>T\L	.	.
.	.	.	.	12gg'\	.	.
.	.	.	.	12ee-X'\J	.	.
!LO:LB:g=original	!	!	!	!LO:LB:g=original	!	!
=127	=127	=127	=127	=127	=127	=127
4D\ 4E 4G#X 4Bn	.	4en/ 4g#X 4bn 4een	p	12een'\L	.	.
.	.	.	.	12ee'\	.	.
.	.	.	.	12ff#X'\J	.	.
2D^\ 2E 2G# 2B	.	2e^>/ 2g# 2b 2ee	.	12ee^>T\L	.	.
.	.	.	.	12bn'\	.	.
.	.	.	.	12g#X'\J	.	.
.	.	.	.	12b'\L	.	.
.	.	.	.	12b'\	.	.
.	.	.	.	12cc#X'\J	.	.
4D\ 4E 4G# 4B	.	4e/ 4g# 4b 4ee	.	12b^>T/L	.	.
.	.	.	.	12g#'/	.	.
.	.	.	.	12e'/J	.	.
=128	=128	=128	=128	=128	=128	=128
4C#X\ 4E 4A	.	(4e/ 4a [4ee	.	8c#X'</ 8e 8a	.	f
.	.	.	.	4c#^>/ 4e 4a	.	.
*	*	*Xtuplet	*	*	*	*
4E\ 4A 4c#X	.	12ee\L]	.	.	.	.
.	.	12ff#X\	.	.	.	.
.	.	.	.	8B#X'/ 8d#X 8a	.	.
.	.	12gg#X\J	.	.	.	.
4A\ 4c# 4e	.	12aa\L	.	8c#'\L 8e 8a	.	.
.	.	12gg#\	.	.	.	.
.	.	.	.	8e'\J 8cc#X 8aa	.	.
.	.	12ff#\J	.	.	.	.
4c#\ 4e 4a	.	4ee\)	.	4a^\ 4ccc#X	.	.
*clefG2	*	*	*	*	*	*
=129	=129	=129	=129	=129	=129	=129
4d/ 4e 4g#X 4bn	.	4ee\ 4gg#X 4bbn 4eee	.	12eee'\L	.	mf
.	.	.	.	12eee'\	.	.
.	.	.	.	12fff#X'\J	.	.
2d^>/ 2e 2g# 2b	.	2ee^\ 2gg# 2bb 2eee	.	12eee^>T\L	.	.
.	.	.	.	12bbn'\	.	.
.	.	.	.	12gg#X'\J	.	.
.	.	.	.	12bb'\L	.	.
.	.	.	.	12bb'\	.	.
.	.	.	.	12ccc#X'\J	.	.
4d/ 4e 4g# 4b	.	4ee\ 4gg# 4bb 4eee	.	12bbT^>\L	.	.
.	.	.	.	12gg#'\	.	.
.	.	.	.	12ee'\J	.	.
!	!	!	!	!LO:LB:g=original	!	!
=130	=130	=130	=130	=130	=130	=130
4c#X/ 4e 4a	.	(4ee\ 4aa [4eee	.	8cc#X'\ 8ee 8aa	.	f
.	.	.	.	4cc#^\ 4ee 4aa	.	.
4e/ 4a 4cc#X	.	12eee\L]	.	.	.	.
.	.	12fff#X\	.	.	.	.
.	.	.	.	8b#X'\ 8dd#X 8gg#X	.	.
.	.	12ggg#X\J	.	.	.	.
4a\ 4cc# 4ee	.	12aaa\L	.	8cc#'\L 8ee 8aa	.	.
.	.	12ggg#\	.	.	.	.
.	.	.	.	8a'\J 8ccc#X	.	.
.	.	12fff#\J	.	.	.	.
4cc#\ 4ee 4aa	.	4eee\)	.	4aa^\ 4eee	.	.
*clefF4	*	*	*	*	*	*
=131	=131	=131	=131	=131	=131	=131
4E-X\ 4Fn 4A 4c	.	4f\ 4a 4cc 4ffn	p	12ffn'\L	.	mf
.	.	.	.	12ff'\	.	.
.	.	.	.	12gg'\J	.	.
2E-^\ 2F 2A 2c	.	2f^\ 2a 2cc 2ff	.	12ff^T\L	.	.
.	.	.	.	12cc'\	.	.
.	.	.	.	12a'\J	.	.
!	!	!	!	!LO:TX:b:t=poco	!	!
.	.	.	.	12cc'\L	.	.
.	.	.	.	12cc'\	.	.
.	.	.	.	12dd'\J	.	.
4E-\ 4F 4A 4c	.	4f\ 4a 4cc 4ff	.	12cc^>T/L	.	.
.	.	.	.	12a'/	.	.
.	.	.	.	12f'/J	.	.
!LO:LB:g=original	!	!	!	!	!	!
=132	=132	=132	=132	=132	=132	=132
4D\ 4F 4B-	.	(4f\ 4b- [4ff	mf	8d/ 8f 8b-	.	< f
.	.	.	.	4d^>/ 4f 4b-	.	.
4F\ 4B- 4d	.	12ff\L]	<	.	.	.
.	.	12gg\	.	.	.	.
.	.	.	.	8c#X/ 8f 8a	.	.
.	.	12aa\J	.	.	.	.
4B-\ 4d 4f	.	12bb-\L	.	8d/L 8f 8b-	.	.
.	.	12aa\	.	.	.	.
.	.	.	.	8B-/J 8f 8dd	.	.
.	.	12gg\J	.	.	.	.
4d\ 4f 4b-	.	4ff\)	.	4d^>/ 4b- 4ff	.	.
*clefG2	*	*	*	*	*	*
=133	=133	=133	=133	=133	=133	=133
4e-X/ 4f 4a 4cc	.	4ff\ 4aa 4ccc 4fff	p	12fff'\L	.	mf
.	.	.	.	12fff'\	.	.
.	.	.	.	12ggg'\J	.	.
2e-^>/ 2f 2a 2cc	.	2ff^\ 2aa 2ccc 2fff	.	12fff^T\L	.	.
.	.	.	.	12ccc'\	.	.
.	.	.	.	12aa'\J	.	.
.	.	.	.	12ccc'\L	.	.
.	.	.	.	12ccc'\	.	.
.	.	.	.	12ddd'\J	.	.
4e-/ 4f 4a 4cc	.	4ff\ 4aa 4ccc 4fff	.	12ccc^T\L	.	.
.	.	.	.	12aa'\	.	.
.	.	.	.	12ff'\J	.	.
!	!	!	!	!LO:LB:g=original	!	!
=134	=134	=134	=134	=134	=134	=134
4d/ 4f 4b-	.	(4ff\ 4bb- [4fff	f	8dd\ 8ff 8bb-	.	f
.	.	.	.	4dd^\ 4ff 4bb-	.	.
4f/ 4b- 4dd	.	12fff\L]	.	.	.	.
.	.	12ggg\	.	.	.	.
.	.	.	.	8cc#X\ 8ee 8aa	.	.
.	.	12aaa\J	.	.	.	.
4b-\ 4dd 4ff	.	12bbb-\L	.	8dd\L 8ff 8bb-	.	.
.	.	12aaa\	.	.	.	.
.	.	.	.	8b-\J 8ff 8ddd	.	.
.	.	12ggg\J	.	.	.	.
4dd\ 4ff 4bb-	.	4fff\)	.	4dd^\ 4fff	.	.
*clefF4	*	*	*	*	*	*
=135	=135	=135	=135	=135	=135	=135
4D-X\ 4F 4B-	.	([4f/	ff	([4ff\	.	ff
2D-^\ 2F 2B-	.	12f/L]	.	12ff\L]	.	.
.	.	12g/	.	12gg\	.	.
.	.	12a-X/J	.	12aa-X\J	.	.
.	.	12b-/L	.	12bb-\L	.	.
.	.	12a-/	.	12aa-\	.	.
.	.	12g/J	.	12gg\J	.	.
4D-\ 4F 4B-	.	4f/)	.	4ff\)	.	.
!LO:LB:g=original	!	!	!	!	!	!
=136	=136	=136	=136	=136	=136	=136
4D-X\ 4F 4Bn	.	([4f/	.	([4ff\	.	.
2D-^\ 2F 2B	.	12f/L]	.	12ff\L]	.	.
.	.	12g/	.	12gg\	.	.
.	.	12a-X/J	.	12aa-X\J	.	.
.	.	12b-/L	.	12bb-\L	.	.
.	.	12a-/	.	12aa-\	.	.
.	.	12g/J	.	12gg\J	.	.
4D-\ 4F 4B	.	4f/)	.	4ff\)	.	.
!!LO:REH:t=H
=137	=137	=137	=137	=137	=137	=137
!!LO:TX:t=P:problem: rehersal mark without box	!	!	!	!	!
!	!	!LO:TX:a:t=Tempo I. [half] = 72.	!	!LO:TX:a:t=Tempo I. [half] = 72.	!	!
8r	.	(4.c/ 4.f 4.a-X 4.cc	f	4ccc\	.	.
(8A-X\L	.	.	.	.	.	.
8C\J)	.	.	.	4r	.	.
8r	.	8Bn/ 8f 8a- 8bn	.	.	.	.
8r	.	4c/) 4f 4a- 4cc	.	2r	.	.
(4A-^\	.	.	.	.	.	.
.	.	4F'/ 4f	.	.	.	.
8C/)	.	.	.	.	.	.
=138	=138	=138	=138	=138	=138	=138
!	!	!	!	!LO:TX:a:t=11	!	!
8r	.	(4.F/ 4.B-X 4.d-X 4.f	sf	00r	.	.
(8BB-/L	.	.	.	.	.	.
8BBB-/J)	.	.	.	.	.	.
8r	.	8E/) 8B- 8d- 8e	.	.	.	.
8r	.	4G'/ 4c 4g	.	.	.	.
(4AA-X/	.	.	.	.	.	.
.	.	4F'/ 4c 4f	.	.	.	.
8AAA-X/)	.	.	.	.	.	.
=139	=139	=139	=139	=139	=139	=139
8r	.	(4.c/ 4.f 4.a-X 4.cc	.	.	.	.
(8A-X\L	.	.	.	.	.	.
8C\J)	.	.	.	.	.	.
8r	.	8Bn/ 8f 8a- 8bn	.	.	.	.
8r	.	4c/) 4f 4a- 4cc	.	.	.	.
(4A-^\	.	.	.	.	.	.
.	.	4F'/ 4f	.	.	.	.
8C/)	.	.	.	.	.	.
=140	=140	=140	=140	=140	=140	=140
8r	.	(4.F/ 4.B- 4.d-X 4.f	sf	.	.	.
(8BB-/L	.	.	.	.	.	.
8BBB-/J)	.	.	.	.	.	.
8r	.	8E/) 8B- 8d- 8e	.	.	.	.
8r	.	4G'/ 4c 4g	.	.	.	.
(4AA-X^>/	.	.	.	.	.	.
.	.	4F'/ 4c 4f	.	.	.	.
8AAA-X/)	.	.	.	.	.	.
!LO:PB:g=original	!	!	!	!	!	!
=141	=141	=141	=141	=141	=141	=141
8r	.	(4.A-X/ 4.c 4.e 4.a-X	.	.	.	.
(8B-\L	.	.	.	.	.	.
8C\J)	.	.	.	.	.	.
8r	.	8G/) 8c 8e 8g	.	.	.	.
8r	.	4d-X/ 4f 4dd-X	.	.	.	.
(4A-X^\	.	.	.	.	.	.
.	.	4c/ 4f 4cc	.	.	.	.
8C/)	.	.	.	.	.	.
=142	=142	=142	=142	=142	=142	=142
8r	.	4.f\ 4.an 4.cc 4.ff	sf	00r	.	.
(8e-X\L	.	.	.	.	.	.
8F\J)	.	.	.	.	.	.
8r	.	8A/ 8f 8a	.	.	.	.
8r	.	4c/ 4f 4cc	.	.	.	.
(4d-X^\	.	.	.	.	.	.
.	.	4B-/ 4f 4b-	.	.	.	.
8BB-/)	.	.	.	.	.	.
=143	=143	=143	=143	=143	=143	=143
8r	.	(4.cc\ 4.ff 4.aa-X 4.ccc	f	.	.	.
(8FF/L 8C	.	.	.	.	.	.
8F/	.	.	.	.	.	.
8A-X/J	.	8bn\ 8ff 8aa- 8bbn	.	.	.	.
8c\L	.	4cc\) 4ff 4aa- 4ccc	.	.	.	.
8f\	.	.	.	.	.	.
8a-X\J)	.	4f\ 4ff	.	.	.	.
8r	.	.	.	.	.	.
=144	=144	=144	=144	=144	=144	=144
8r	.	(4.f\ 4.b-X 4.dd-X 4.ff	.	.	.	.
(8d-X\L	.	.	.	.	.	.
8F\	.	.	.	.	.	.
8BB-\J)	.	8e/) 8b- 8dd- 8ee	.	.	.	.
8r	.	4g'\ 4cc 4gg	.	.	.	.
(8c\L	.	.	.	.	.	.
8F\	.	4f'\ 4cc 4ff	.	.	.	.
8AA-X\J)	.	.	.	.	.	.
=145	=145	=145	=145	=145	=145	=145
8r	.	(4.dd-X\ 4.ff 4.bb- 4.ddd-X	.	.	.	.
(8BB-\L	.	.	.	.	.	.
8F\	.	.	.	.	.	.
8d-X\J)	.	8cc\ 8ff 8bb- 8ccc	.	.	.	.
8r	.	4dd-\) 4ff 4bb- 4ddd-	.	.	.	.
(8f\L	.	.	.	.	.	.
!	!	!LO:TX:b:t=cre-scen-do:dur=11q2e:ext=cd:problem:text with extention lines	!	!	!	!
8d-\	.	4b-'\ 4ff 4bb-	<	.	.	.
8B-\J)	.	.	.	.	.	.
!LO:LB:g=original	!	!	!	!	!	!
=146	=146	=146	=146	=146	=146	=146
8r	.	(4.ddn\ 4.gg#X 4.bbn 4.dddn	.	0r	.	.
(8BBn\L	.	.	.	.	.	.
8G#X\	.	.	.	.	.	.
8d\J)	.	8cc#X\ 8gg# 8bb 8ccc#X	.	.	.	.
8r	.	4dd\) 4gg# 4bb 4ddd	.	.	.	.
(8f\L	.	.	.	.	.	.
8d\	.	4b-\ 4ff 4bb	.	.	.	.
8Bn\J)	.	.	.	.	.	.
=147	=147	=147	=147	=147	=147	=147
8r	.	(4.ff\ 4.bbn 4.ddd 4.fff	.	.	.	.
(8D\L	.	.	.	.	.	.
8Bn\	.	.	.	.	.	.
8g#X\J)	.	8ee\ 8bb 8ddd 8eee	.	.	.	.
*clefG2	*	*	*	*	*	*
8r	.	4ff\) 4bb 4ddd 4fff	.	.	.	.
(8bn/L	.	.	.	.	.	.
8f/	.	4dd\ 4gg#X 4bb 4ddd	.	.	.	.
8d/J)	.	.	.	.	.	.
=148	=148	=148	=148	=148	=148	=148
8r	.	4gg#X'\ 4ddd 4fff 4ggg#X	.	1r	.	.
(8dd\L	.	.	.	.	.	.
8bn\	.	4ff'\ 4bbn 4ddd 4fff	.	.	.	.
8g#X\J)	.	.	.	.	.	.
8r	.	4bb'\ 4ddd 4fff 4bbbn	.	.	.	.
(8ff\L	.	.	.	.	.	.
8dd\	.	4gg#'\ 4ddd 4fff 4ggg#	[[	.	.	.
8b\J)	.	.	.	.	.	.
*clefF4	*	*	*	*	*	*
!	!	!	!	!LO:LB:g=original	!	!
=149	=149	=149	=149	=149	=149	=149
!	!	!LO:TX:a:t=Solo.	!	!LO:TX:a:t=Solo.	!	!
2AA\ 2D 2F 2A	.	2aa\ 2ddd 2fff 2aaa	fp	(4.fff\	.	ff
.	.	.	.	8eee\)	.	.
[2A\ [2d [2f	.	[2a\ [2dd [2ff [2aa	.	4fff~\	.	.
.	.	.	.	4ccc#X~\	.	.
=150	=150	=150	=150	=150	=150	=150
2A\] 2d] 2f]	.	2a\] 2dd] 2ff] 2aa]	.	4eee~\	.	.
.	.	.	.	4ddd~\	.	.
2G::\ 2d:: 2e::	.	2b-::\ 2dd:: 2gg:: 2bb-::	.	4ccc~\	.	.
.	.	.	.	4bb-~\	.	.
=151	=151	=151	=151	=151	=151	=151
1D:: 1A:: 1f::	.	1a:: 1dd:: 1ff:: 1aa::	.	(4.aa\	.	.
.	.	.	.	8gg#X\)	.	.
.	.	.	.	4aa~\	.	.
.	.	.	.	[4dd\	.	.
!LO:LB:g=original	!	!	!	!	!	!
=152	=152	=152	=152	=152	=152	=152
1BB- 1F 1B-	.	1d 1f 1b- 1dd	.	4dd\]	.	.
.	.	.	.	2ff\	.	.
.	.	.	.	4dd\	.	.
=153	=153	=153	=153	=153	=153	=153
[1AA [1D [1F [1A	.	[1f [1a [1dd [1ff	sf	4r	.	.
.	.	.	.	4dd^\	.	.
.	.	.	.	4a^>/	.	.
.	.	.	.	4f^>/	.	.
=154	=154	=154	=154	=154	=154	=154
1AA] 1D] 1F] 1A]	.	1f] 1a] 1dd] 1ff]	.	4e^>/	.	.
.	.	.	.	4f^>/	.	.
.	.	.	.	(4..g^>/	.	.
.	.	.	.	16a/)	.	.
=155	=155	=155	=155	=155	=155	=155
1AA:: 1E:: 1G:: 1A::	.	1d:: 1e:: 1a:: 1dd:: 1ee::	sf	[1a	.	ff
!	!	!	!	!LO:LB:g=original	!	!
=156	=156	=156	=156	=156	=156	=156
!	!	!LO:TX:b:i:t=poco rit.	!	!	!	!
2.AA:\ 2.E: 2.G:	.	2.c#X/ 2.g 2.a 2.cc#X 2.ee	.	4a/]	.	.
!	!	!	!	!LO:TX:a:i:t=poco rit.	!	!
.	.	.	.	8g'\L 8a	.	.
.	.	.	.	8a'\J 8ee	.	.
.	.	.	.	8dd'\L 8aa	.	.
.	.	.	.	8f'\J 8dd	.	.
4r	.	4r	.	8f'\L 8cc#X	.	.
.	.	.	.	8cc#'\J 8aa	.	.
!!LO:REH:t=I
=157	=157	=157	=157	=157	=157	=157
!!LO:TX:t=P:problem: rehersal mark without box	!	!	!	!	!	!
!	!	!LO:TX:a:t=a tempo [half] = 72.	!	!LO:TX:a:i:t=a tempo	!	!
8DD/ 8D	.	8r	mf	4d^\ 4ff [4aa	.	f
8r	.	8A'/L 8f	.	.	.	.
*	*	*	*	*tuplet	*	*
!	!	!	!	!LO:TUP:b	!	!
8r	.	8d'/J 8a	.	12aa\L]	.	.
.	.	.	.	12bbn'\	.	.
8AAA'/L 8AA	.	8r	.	.	.	.
.	.	.	.	12ccc#X'\J	.	.
!	!	!	!	!LO:TUP:a	!	!
8DD'^/J 8D	.	8r	.	(12ddd\L	.	.
.	.	.	.	12ccc#\	.	.
8r	.	8A'/L 8f	.	.	.	.
.	.	.	.	12bb\J	.	.
8r	.	8d'/J 8a	.	8.aa'\L	.	.
8AAA'/L 8AA	.	8r	.	.	.	.
.	.	.	.	16ff'\Jk) 16aa	.	.
=158	=158	=158	=158	=158	=158	=158
8DD'^/J 8D	.	8r	.	((4ff^\ 4aa	.	.
8r	.	8A'/L 8f	.	.	.	.
8r	.	8d'/J 8a	.	8.dd\L) 8.ff	.	.
8AAA'/L 8AA	.	8r	.	.	.	.
.	.	.	.	16dd'\Jk) 16ff	.	.
8DD'^/J 8D	.	8r	.	((4dd^\ 4ff	.	.
8r	.	8A'/L 8f	.	.	.	.
8r	.	8d'/J 8a	.	8.a\L) 8.dd	.	.
8AAA'/L 8AA	.	8r	.	.	.	.
.	.	.	.	16a'\Jk) 16dd	.	.
!LO:LB:g=original	!	!	!	!	!	!
=159	=159	=159	=159	=159	=159	=159
8BBB-'^/J 8BB-	.	8r	.	4G/ 4b- [4dd	.	.
8r	.	8G'/L 8d	.	.	.	.
*	*	*	*	*Xtuplet	*	*
8r	.	8B-'/J 8g	.	12dd\L]	.	.
.	.	.	.	12ee'\	.	.
8GGG'/L 8GG	.	8r	.	.	.	.
.	.	.	.	12ff'\J	.	.
*	*	*	*	*tuplet	*	*
!	!	!	!	!LO:TUP:a	!	!
8BBB-'^/J 8BB-	.	8r	.	(12gg\L	.	.
.	.	.	.	12ff\	.	.
8r	.	8B-'/L 8g	.	.	.	.
.	.	.	.	12ee\J	.	.
8r	.	8d'/J 8b-	.	8.dd\L	.	.
8GGG'/L 8GG	.	8r	.	.	.	.
.	.	.	.	16b-'\Jk) 16dd	.	.
!	!	!	!	!LO:LB:g=original	!	!
=160	=160	=160	=160	=160	=160	=160
8AAA'^/J 8AA	.	8r	.	((4a^>/ 4dd	.	.
8r	.	8A'/L 8f	.	.	.	.
8r	.	8d'/J 8a	.	8.f/L) 8.a	.	.
8FFF'/L 8FF	.	8r	.	.	.	.
.	.	.	.	16f'</Jk) 16a	.	.
8DD'/J 8D	.	8r	.	((4f^>/ 4a	.	.
8r	.	8d'/L 8a	.	.	.	.
8r	.	8f'/J 8dd	.	8.d/L) 8.f	.	.
8FFF/ 8FF	.	8r	.	.	.	.
.	.	.	.	16d'/Jk) 16f	.	.
=161	=161	=161	=161	=161	=161	=161
!	!	!	!	!LO:TUP:A	!	!
8EEE/ 8EE	.	4r	.	(12g/L 12b-	.	.
.	.	.	.	12c#X/ 12g	.	.
8r	.	.	.	.	.	.
.	.	.	.	12g/J 12b-)	.	.
*	*	*	*	*^	*	*
8AAA/ 8AA	.	4G/ 4A 4c#X	.	4g/ 4a	4ayy\	.	.
8r	.	.	.	.	.	.	.
*	*	*	*	*	*	*^	*
*	*	*	*	*	*	*above	*below	*
8DD/ 8D	.	4r	.	4a/	(>16a\LL	0	4	.
*	*	*	*	*	*	*v	*v	*
.	.	.	.	.	16g\	.	.
8r	.	.	.	.	16f\	.	.
.	.	.	.	.	16e\JJ)	.	.
*	*	*	*	*Xtuplet	*	*	*
8FF/ 8F	.	4A/ 4d	.	12f'/L 12dd	4ryy	.	.
.	.	.	.	12A'/ 12f	.	.	.
8r	.	.	.	.	.	.	.
.	.	.	.	12f'/J 12dd	.	.	.
*	*	*	*	*v	*v	*	*
=162	=162	=162	=162	=162	=162	=162
*	*	*	*	*tuplet	*	*
!	!	!	!	!LO:TUP:a	!	!
8AA/	.	4r	.	(12cc#X\L 12bb-	.	.
.	.	.	.	12e\	.	.
8r	.	.	.	.	.	.
.	.	.	.	12cc#\J 12bb-)	.	.
*	*	*	*	*^	*	*
8C#X/	.	8A/ 8e	.	4cc#\ 4aa	4ryy	.	.
8r	.	8r	.	.	.	.	.
8D\	.	8A/ 8d 8f	.	4aayy	(>16aa\LL	4 1	.
.	.	.	.	.	16gg\	.	.
8r	.	8r	.	.	16ff\	.	.
.	.	.	.	.	16ee\JJ)	.	.
*	*	*	*	*Xtuplet	*	*	*
8F\	.	8d/ 8a 8dd	.	(12ff'\L 12ddd	4ryy	.	.
.	.	.	.	12d'\ 12ff	.	.	.
8r	.	8r	.	.	.	.	.
.	.	.	.	12ff'\J 12ddd)	.	.	.
*	*	*	*	*v	*v	*	*
!LO:LB:g=original	!	!	!	!	!	!
=163	=163	=163	=163	=163	=163	=163
1AA 1D 1G#X	.	(4f^>/ 4bn	.	(12fff\L	.	.
.	.	.	.	12ff\	.	.
.	.	.	.	12fff\J)	.	.
.	.	4Bn/) 4g#X	.	4ddd'^\	.	.
.	.	(4ff^>\ 4bbn	.	(12ddd\L	.	.
.	.	.	.	12eee-X\	.	.
.	.	.	.	12eeen\J)	.	.
.	.	4b\) 4gg#X	.	4fff^\	.	.
*clefG2	*	*	*	*	*	*
!	!	!	!	!LO:LB:g=original	!	!
=164	=164	=164	=164	=164	=164	=164
4g#X\ 4dd	.	4ff\ 4bbn 4fff	.	(12f/L	.	.
.	.	.	.	12e/	.	.
.	.	.	.	12d/J	.	.
4r	.	4r	.	12f/L	.	.
.	.	.	.	12a-X/	.	.
.	.	.	.	12dd/J)	.	.
2r	.	2r	.	(12ff\L	.	.
.	.	.	.	12ee\	.	.
.	.	.	.	12dd\J	.	.
.	.	.	.	12ff\L	.	.
.	.	.	.	12aa-X\	.	.
.	.	.	.	12fff\J)	.	.
*clefF4	*	*	*	*	*	*
=165	=165	=165	=165	=165	=165	=165
1AA-X 1BB-X 1A-X	.	(4d^>/ 4b-X	p	(>12fff\L	.	mp
.	.	.	.	12ff\	.	.
.	.	.	.	12fff\J)	.	.
.	.	4B-/) 4f	.	4ddd'^\	.	.
.	.	(4dd^>\ 4bb-	.	(12ddd\L	.	.
.	.	.	.	12eee-X\	.	.
.	.	.	.	12eeen\J)	.	.
.	.	4b-\) 4ff	.	4fff'^\	.	.
*clefG2	*	*	*	*	*	*
=166	=166	=166	=166	=166	=166	=166
4a-X\ 4dd	.	4ff\ 4bb- 4fff	.	(12f/L	.	.
.	.	.	.	12e-X/	.	.
.	.	.	.	12d/J	.	.
4r	.	4r	.	12f/L	.	.
.	.	.	.	12a-X/	.	.
.	.	.	.	12dd/J)	.	.
2r	.	2r	.	(12ff\L	.	.
.	.	.	.	12ee-X\	.	.
.	.	.	.	12dd\J	.	.
.	.	.	.	12ff\L	.	.
.	.	.	.	12aa-X\	.	.
.	.	.	.	12ddd\J)	.	.
*clefF4	*	*	*	*	*	*
!LO:PB:g=original	!	!	!	!LO:LB:g=original	!	!
=167	=167	=167	=167	=167	=167	=167
*	*	*	*	*tuplet	*	*
!	!	!	!	!LO:TUP:a	!	!
2.G\ 2.B-	.	2.e-X/ 2.b- 2.ee-X	.	(12eee-X\L	.	.
.	.	.	.	12ee-X\	.	.
.	.	.	.	12eee-\J)	.	.
.	.	.	.	4bb-'^\	.	.
!	!	!	!	!LO:TUP:a	!	!
.	.	.	.	(12ccc\L	.	.
.	.	.	.	12ccc#X\	.	.
.	.	.	.	12ddd\J)	.	.
4G\ 4B-	.	4e-/ 4b- 4ee-	.	4eee-'^\	.	.
=168	=168	=168	=168	=168	=168	=168
*	*	*	*	*Xtuplet	*	*
1F#X 1A	.	1d 1a 1dd	.	(12ddd\L	.	<
.	.	.	.	12ccc#X\	.	.
.	.	.	.	12ddd\J	.	.
.	.	.	.	12aaa^\L)	.	[ >
.	.	.	.	(12fff#X'\	.	.
.	.	.	.	12ddd'\J	.	.
.	.	.	.	12aa'\L	.	.
.	.	.	.	12ff#X'\	.	.
.	.	.	.	12dd'\J	.	.
.	.	.	.	12a'/L	.	.
.	.	.	.	12f#X'/	.	.
.	.	.	.	12d'/J)	.	]]
=169	=169	=169	=169	=169	=169	=169
2.F\ 2.Bn	.	2.d/ 2.a-X 2.dd	.	(12ddd\L	.	.
.	.	.	.	12dd\	.	.
.	.	.	.	12ddd\J)	.	.
.	.	.	.	4aa-X'^\	.	.
.	.	.	.	(12bbn\L	.	.
.	.	.	.	12ccc\	.	.
.	.	.	.	12ccc#X\J)	.	.
4F\ 4B	.	4d/ 4a- 4dd	.	4ddd'^\	.	.
!	!	!	!	!LO:LB:g=original	!	!
=170	=170	=170	=170	=170	=170	=170
1E 1c	.	1g 1cc	.	(12ccc\L	.	<
.	.	.	.	12bbn\	.	.
.	.	.	.	12ccc\J	.	.
.	.	.	.	12ggg^\L)	.	[ >
.	.	.	.	(12eee'\	.	.
.	.	.	.	12ccc'\J	.	.
.	.	.	.	12gg'\L	.	.
.	.	.	.	12ee'\	.	.
.	.	.	.	12cc'\J	.	.
.	.	.	.	12g'/L	.	.
.	.	.	.	12e'/	.	.
.	.	.	.	12c'/J)	.	]]
=171	=171	=171	=171	=171	=171	=171
2.E-X\ 2.A	.	2.c/ 2.g-X 2.cc	.	(12ccc\L	.	.
.	.	.	.	12cc\	.	.
.	.	.	.	12ccc\J)	.	.
.	.	.	.	4gg-X\	.	.
.	.	.	.	(12aa\L	.	.
.	.	.	.	12bb-\	.	.
.	.	.	.	12bbn\J)	.	.
4E-\ 4A	.	4c/ 4g- 4cc	.	(8.ccc\L	.	.
.	.	.	.	16ccc'\Jk)	.	.
!LO:LB:g=original	!	!	!	!	!	!
=172	=172	=172	=172	=172	=172	=172
4.D\ 4.B-	.	4.f/ 4.b-	.	((4bb-^\	.	.
.	.	.	.	8.ff\L)	.	.
8r	.	8r	.	.	.	.
.	.	.	.	16ff'\Jk)	.	.
4.F\	.	4.d/ 4.g 4.bn	.	((4gg^\	.	.
.	.	.	.	8.dd\L)	.	.
8r	.	8r	.	.	.	.
.	.	.	.	16dd'\Jk)	.	.
=173	=173	=173	=173	=173	=173	=173
4.E-X\	.	4.c/ 4.g 4.cc	.	8ee-X'\L	.	.
.	.	.	.	8f#X'\	.	.
.	.	.	.	8g'\	.	.
8r	.	8r	.	8cc'\J	.	.
4.FF/ 4.A	.	4.e-X/ 4.f 4.cc	.	8ff'\L	.	.
.	.	.	.	8bn'\	.	.
.	.	.	.	8cc'\	.	.
8r	.	8r	.	8cc#X'\J	.	.
!	!	!	!	!LO:LB:g=original	!	!
=174	=174	=174	=174	=174	=174	=174
4BB-\ 4F	.	4d/ 4f 4b-	.	(8dd\L	.	.
.	.	.	.	8ee-X\)	.	.
(4B-\	.	(4f/ 4dd	.	((8een^\	.	.
.	.	.	.	8ff\J)	.	.
4d\	.	4b-\ 4ff	.	(8aa^\L	.	.
.	.	.	.	8bb-X\J)	.	.
4B-\)	.	4f/) 4dd	.	(8ccc#X^\L	.	.
.	.	.	.	8ddd\J))	.	.
=175	=175	=175	=175	=175	=175	=175
4F\ 4A 4e-X	.	2.f\ 2.a 2.cc 2.ff	mf	12cccn'\L	.	mf
.	.	.	.	12ff'\	.	.
.	.	.	.	12ccc'\J	.	.
2FFF^>/ 2FF	.	.	.	12fff'\L	.	.
.	.	.	.	12ddd'\	.	.
.	.	.	.	12ccc'\J	.	.
.	.	.	.	12aa'\L	.	.
.	.	.	.	12gg'\	.	.
.	.	.	.	12ff'\J	.	.
4F\ 4A 4e-	.	4f\ 4a 4cc 4ff	.	12aa'\L	.	.
.	.	.	.	12bb-'\	.	.
.	.	.	.	12ccc'\J	.	.
=176	=176	=176	=176	=176	=176	=176
4F\ 4B- 4d	.	2.f\ 2.b- 2.dd 2.ff	.	((4bb-\	.	.
2FFF^>/ 2FF	.	.	.	8.ff\L)	.	.
.	.	.	.	16ff'\Jk)	.	.
.	.	.	.	((4gg^\	.	.
4F\ 4G 4Bn 4d	.	4bn\ 4dd 4gg	.	8.dd\L)	.	.
.	.	.	.	16dd'\Jk)	.	.
!LO:LB:g=original	!	!	!	!	!	!
=177	=177	=177	=177	=177	=177	=177
!	!	!	!	!LO:TX:a:i:t=spiccato	!	!
4F'\ 4G 4c	.	2.e-X/ 2.g 2.cc	.	8ee-X'\L	.	.
.	.	.	.	8f#X'\	.	.
2FFF^>/ 2FF	.	.	.	8g'\	.	.
.	.	.	.	8cc'\J	.	.
.	.	.	.	8ff'\L	.	.
.	.	.	.	8bn'\	.	.
4F\ 4e-X	.	4f'/ 4a 4cc	.	8cc'\	.	.
.	.	.	.	8cc#X'\J	.	.
!	!	!	!	!LO:LB:g=original	!	!
=178	=178	=178	=178	=178	=178	=178
!	!	!LO:TX:b:Bi:t=cresc._ :problem:dynamics with line extensions	!	!	!	!
4F'\ 4d	.	4f'/ 4b- 4dd	<	8dd\L	.	<
.	.	.	.	8b-X\	.	.
2FFF^>/ 2FF	.	4f'/ 4b- 4dd	.	8dd\	.	.
.	.	.	.	8ff\J	.	.
.	.	4r	.	8gg\L	.	.
.	.	.	.	8bn\	.	.
4F\ 4d	.	4f'/ 4bn 4dd	.	8dd\	.	.
.	.	.	.	8ff\J	.	.
=179	=179	=179	=179	=179	=179	=179
4F\ 4c 4e-X	.	4g'\ 4cc 4ee-X	.	8ee-X\L	.	.
.	.	.	.	8cc\	.	.
2FFF^>/ 2FF	.	4g'\ 4cc 4ee-	.	8ee-\	.	.
.	.	.	.	8gg\J	.	.
.	.	4r	.	8aa\L	.	.
.	.	.	.	8cc#X\	.	.
4F\ 4c#X 4en	.	4g'\ 4cc#X 4een	.	8ee-\	.	.
.	.	.	.	8gg\J	.	.
=180	=180	=180	=180	=180	=180	=180
4F\ 4d	.	4f'\ 4dd 4ff	.	8ff\L	.	.
.	.	.	.	8dd\	.	.
2FFF^>/ 2FF	.	4f'\ 4dd 4ff	.	8ff\	.	.
.	.	.	.	8bb-\J	.	.
.	.	4r	.	8ccc\L	.	.
.	.	.	.	8cc\	.	.
4F\ 4c#X 4e	.	4b-\ 4ee 4bb-	[[	8ee\	.	.
.	.	.	.	8bb-\J	.	.
=181	=181	=181	=181	=181	=181	=181
(4F^\ 4d 4f	.	(4b-^\ 4ff 4bb-	f	8bb-\	.	.
.	.	.	.	8r	.	.
8.F\L) 8.c#X 8.e	.	8.b-\L) 8.ee 8.gg	.	4r	.	.
16F\Jk 16c# 16e	.	16b-\Jk 16ee 16gg	.	.	.	.
(4F^\ 4d 4f	.	(4b-^\ 4ff 4bb-	.	2r	.	.
8.F\L) 8.c# 8.e	.	8.b-\L) 8.ee 8.gg	.	.	.	.
16F\Jk 16c# 16e	.	16b-\Jk 16ee 16gg	.	.	.	.
!	!	!	!	!LO:PB:g=original	!	!
=182	=182	=182	=182	=182	=182	=182
8F\ 8d 8f	.	8b-\ 8ff 8bb-	.	(12A/L	.	f
.	.	.	.	12B-/)	.	.
8r	.	8r	.	.	.	.
.	.	.	.	(12c#X/J	.	.
4r	.	4r	.	12d/L)	.	.
.	.	.	.	(12e/	.	.
.	.	.	.	12f/J)	.	.
2r	.	2r	.	(12a\L	.	.
.	.	.	.	12b-\)	.	.
.	.	.	.	(12cc#X\J	.	.
.	.	.	.	12dd\L)	.	.
.	.	.	.	12ff'\	.	.
.	.	.	.	12bb-'\J	.	.
!LO:LB:g=original	!	!	!	!	!	!
=183	=183	=183	=183	=183	=183	=183
!	!	!	!	!LO:TX:a:t=1	!	!
4FFF/ 4FF	.	4ff\ 4aa 4ccc 4fff	ff	1r	.	.
4E-X\ 4A	.	8.een\L 8.aa 8.ccc 8.eeen	.	.	.	.
.	.	16ee\Jk 16aa 16ccc 16eee	.	.	.	.
4F\ 4A 4e-X	.	4ff\ 4aa 4ccc 4fff	.	.	.	.
4A\ 4e- 4f	.	8.ee\L 8.aa 8.ccc 8.eee	.	.	.	.
.	.	16ee\Jk 16aa 16ccc 16eee	.	.	.	.
=184	=184	=184	=184	=184	=184	=184
4A:\ 4e-X: 4f: 4cc:	.	4ff\ 4aa 4ccc 4fff	.	(12f\L	.	ff
.	.	.	.	12ff\)	.	.
.	.	.	.	(12a\J	.	.
4r	.	4r	.	12aa\L)	.	.
.	.	.	.	(12cc\	.	.
.	.	.	.	12ccc\J)	.	.
2r	.	2r	.	(12ee-X\L	.	.
.	.	.	.	12eee-X\)	.	.
.	.	.	.	(12ff\J	.	.
.	.	.	.	12fff\L)	.	.
.	.	.	.	(12aa\	.	.
.	.	.	.	12aaa\J)	.	.
!!LO:REH:t=K
!	!	!	!	!LO:LB:g=original	!	!
=185	=185	=185	=185	=185	=185	=185
*8ba	*	*	*	*	*	*
!!LO:TX:t=P:problem: rehersal mark without box	!	!	!	!	!
!	!	!LO:TX:a:i:t=poco meno mosso [quarter] = 120	!	!LO:TX:b:t=tutti	!	!
!	!	!LO:TX:a:t=Tutti.	!	!LO:TX:a:t=Poco meno mosso. [quarter] = 120.	!	!
8BBBB-^\L 8BBB-	.	4bb-^\ 4ddd 4fff 4bbb-	ff	4bb-\ 4bbb-	.	.
*X8ba	*	*	*	*	*	*
8d^\ 8dd	.	.	.	.	.	.
8B-^\ 8b-	.	4dd\ 4ff 4bb- 4ddd	.	4r	.	.
8A^\J 8a	.	.	.	.	.	.
8G^\L 8g	.	4.ee-X\ 4.gg 4.bb- 4.eee-X	.	2r	.	.
8F^\ 8f	.	.	.	.	.	.
8E-X^\ 8e-X	.	.	.	.	.	.
8D^\J 8d	.	8ff\ 8bb- 8fff	.	.	.	.
=186	=186	=186	=186	=186	=186	=186
*8ba	*	*	*	*	*	*
!	!	!	!	!LO:TX:a:t=3	!	!
8BBBB-^\L 8BBB-	.	4gg^\ 4ccc 4eee-X 4ggg	.	0r	.	.
*X8ba	*	*	*	*	*	*
8D^\ 8d	.	.	.	.	.	.
8E-X^\ 8e-X	.	4cc^\ 4gg 4bb- 4ccc	.	.	.	.
8G^\J 8g	.	.	.	.	.	.
8c^\L 8cc	.	4.dd^\ 4.gg 4.bb- 4.ddd	.	.	.	.
8B-^\ 8b-	.	.	.	.	.	.
8A^\ 8a	.	.	.	.	.	.
8G^\J 8g	.	8ee-X\ 8gg 8bb- 8eee-	.	.	.	.
!LO:PB:g=original	!	!	!	!	!	!
=187	=187	=187	=187	=187	=187	=187
*8ba	*	*	*	*	*	*
8BBBB-^\L 8BBB-	.	4ff^\ 4aa 4ccc 4fff	.	.	.	.
*X8ba	*	*	*	*	*	*
8G^\ 8g	.	.	.	.	.	.
8F^\ 8f	.	4a^\ 4cc 4ff 4aa	.	.	.	.
8E-X^\J 8e-X	.	.	.	.	.	.
8D^\L 8d	.	4b-^\ 4dd 4ff 4bb-	.	.	.	.
8C^\ 8c	.	.	.	.	.	.
8BB-^\ 8B-	.	4cc^\ 4ff 4aa 4ccc	.	.	.	.
8AA^\J 8A	.	.	.	.	.	.
=188	=188	=188	=188	=188	=188	=188
8GG^\L 8G	.	4..cc#X\ 4..aa 4..ccc#X	.	1r	.	.
8FF#X^\ 8F#X	.	.	.	.	.	.
8AA^\ 8A	.	.	.	.	.	.
8D^\J 8d	.	.	.	.	.	.
.	.	16dd\ 16aa 16ddd	.	.	.	.
8E#X^\L 8e#X	.	2dd^\ 2aa 2ddd	.	.	.	.
8F#^\ 8f#X	.	.	.	.	.	.
8G#X^\ 8g#X	.	.	.	.	.	.
8A^\J 8a	.	.	.	.	.	.
=189	=189	=189	=189	=189	=189	=189
*	*	*tuplet	*	*	*	*
*	*	*Xbrackettup	*	*	*	*
!	!	!LO:TX:a:t=Solo.	!	!LO:TX:a:t=Solo.	!	!
!	!	!LO:TUP:b	!	!	!	!
4GG/	.	12r	f	4bb-\	.	ff
.	.	(12d/L 12g 12b-	.	.	.	.
.	.	12B-/J)	.	.	.	.
!	!	!LO:TUP:b	!	!	!	!
4AA/	.	12r	.	4aa\	.	.
.	.	(12d/L 12f#X 12a	.	.	.	.
.	.	12A/J)	.	.	.	.
!	!	!LO:TUP:b	!	!	!	!
4BB-/	.	12r	.	4gg\	.	.
.	.	(12d/L 12g	.	.	.	.
.	.	12G/J)	.	.	.	.
!	!	!LO:TUP:b	!	!	!	!
4BBn/	.	12r	.	4ff\	.	.
.	.	(12d/L 12fn	.	.	.	.
.	.	12A-X/J)	.	.	.	.
=190	=190	=190	=190	=190	=190	=190
*	*	*	*	*tuplet	*	*
*	*	*	*	*Xbrackettup	*	*
!	!	!	!	!LO:TUP:b:problem:klamra łukowa	!	!
!	!	!LO:TUP:b	!	!	!	!
1CC 1C	.	12r	.	(6dd^\	.	<
.	.	(12G/L	<	.	.	.
.	.	12c/J	.	6ee-X^\	.	.
!	!	!LO:TUP:b	!	!	!	!
.	.	12e-X/L	.	.	.	.
.	.	12g/	.	6gg^\)	.	.
.	.	12cc/J	.	.	.	.
!	!	!LO:TUP:a	!	!	!	!
.	.	12gg\L	[ >	4eee-X\	.	[ sf >
.	.	12ee-X\	.	.	.	.
.	.	12cc\J	.	.	.	.
!	!	!LO:TUP:b	!	!	!	!
.	.	12g/L	.	4ccc\	.	.
.	.	12e-/	.	.	.	.
.	.	12c/J)	]]	.	.	]]
!LO:LB:g=original	!	!	!	!	!	!
=191	=191	=191	=191	=191	=191	=191
!	!	!LO:TUP:b	!	!	!	!
4CC/ 4C	.	12r	.	4eee-X\	.	.
.	.	(12g/L 12ee-X	.	.	.	.
.	.	12e-X/J)	.	.	.	.
!	!	!LO:TUP:b	!	!	!	!
4DD/ 4D	.	12r	.	4ddd\	.	.
.	.	(12g/L 12dd	.	.	.	.
.	.	12d/J)	.	.	.	.
!	!	!LO:TUP:b	!	!	!	!
4EE-X/ 4E-X	.	12r	.	4ccc\	.	.
.	.	(12g/L 12cc	.	.	.	.
.	.	12c/J)	.	.	.	.
!	!	!LO:TUP:b	!	!	!	!
4EEn/ 4En	.	12r	.	4bb-\	.	.
.	.	(12g/L 12b-	.	.	.	.
.	.	12c/J)	.	.	.	.
!	!	!	!	!LO:LB:g=original	!	!
=192	=192	=192	=192	=192	=192	=192
!	!	!LO:TUP:b	!	!LO:TUP:b:problem:klamra łukowa	!	!
1FF 1F	.	12r	.	(6gg#X^\	.	<
.	.	(12A/L	<	.	.	.
.	.	12e-X/J	.	6aa^\	.	.
!	!	!LO:TUP:a	!	!	!	!
.	.	12g\L	.	.	.	.
.	.	12a\	.	6ccc^\)	.	.
.	.	12ee-X\J	.	.	.	.
!	!	!LO:TUP:a	!	!	!	!
.	.	12aa\L	[ >	4ggg\	.	[ sf >
.	.	12gg\	.	.	.	.
.	.	12ee-\J	.	.	.	.
!	!	!LO:TUP:b	!	!	!	!
.	.	12a/L	.	4fff\	.	.
.	.	12g/	.	.	.	.
.	.	12e-/J)	]]	.	.	]]
=193	=193	=193	=193	=193	=193	=193
*ped	*	*	*	*	*	*
!	!	!LO:TUP:b	!	!	!	!
1BB- 1A-X	.	12r	.	4fff\	.	.
.	.	(12B-/L	.	.	.	.
.	.	12d/J	.	.	.	.
!	!	!LO:TUP:b	!	!	!	!
.	.	12f/L	.	4ddd\	.	.
.	.	12b-/	.	.	.	.
.	.	12dd/J	.	.	.	.
!	!	!LO:TUP:a	!	!	!	!
.	.	12ff\L	.	4bb-\	.	.
.	.	12dd\	.	.	.	.
.	.	12b-\J	.	.	.	.
!	!	!LO:TUP:a	!	!	!	!
.	.	12f#X</L	.	(4ff#X\	.	.
.	.	12d</	.	.	.	.
.	.	12B-</J)	.	.	.	.
*Xped	*	*	*	*	*	*
=194	=194	=194	=194	=194	=194	=194
*^	*	*	*	*	*	*
*	*ped	*	*Xtuplet	*	*	*	*
1G	(2.BB-\	.	12r	.	4ddd\)	.	.
.	.	.	(12B-/L	.	.	.	.
.	.	.	12d/J	.	.	.	.
.	.	.	12g\L	.	4bb-\	.	.
.	.	.	12b-\	.	.	.	.
.	.	.	12dd\J	.	.	.	.
.	.	.	12gg\L	.	4gg\	.	.
.	.	.	12dd\	.	.	.	.
.	.	.	12b-\J	.	.	.	.
*	*Xped	*	*	*	*	*	*
.	4BBn\)	.	12g/L	.	(4dd\	.	.
.	.	.	12f/	.	.	.	.
.	.	.	12d/J)	.	.	.	.
*v	*v	*	*	*	*	*	*
!LO:LB:g=original	!	!	!	!	!	!
=195	=195	=195	=195	=195	=195	=195
*Xtuplet	*	*	*	*	*	*
*ped	*	*	*	*	*	*
N(12C\L	.	4ryy	.	4ff\)	.	.
12G\	.	.	.	.	.	.
12e-X\J	.	.	.	.	.	.
*Xped	*	*	*	*	*	*
4ryy	.	12g\L	.	2ee-X\	.	.
.	.	12cc\	.	.	.	.
.	.	12gg\JN)	.	.	.	.
*ped	*	*	*	*	*	*
N(12D\L	.	4ryy	.	.	.	.
12Bn\	.	.	.	.	.	.
12f\J	.	.	.	.	.	.
*Xped	*	*	*	*	*	*
4ryy	.	12g\L	.	[4dd\	.	.
.	.	12bn\	.	.	.	.
.	.	12gg\JN)	.	.	.	.
=196	=196	=196	=196	=196	=196	=196
*ped	*	*	*	*	*	*
N(12EnX\L	.	4ryy	.	4dd\]	.	.
12B-\	.	.	.	.	.	.
12g\J	.	.	.	.	.	.
*Xped	*	*	*	*	*	*
4ryy	.	12cc\L	.	(2cc\	.	<
.	.	12gg\	.	.	.	.
.	.	12ccc\JN)	.	.	.	.
*ped	*	*	*	*	*	*
N(12En\L	.	4ryy	.	.	.	.
12c\	.	.	.	.	.	.
12b-X\J	.	.	.	.	.	.
*Xped	*	*	*	*	*	*
4ryy	.	12cc\L	.	4bb-\)	.	[[
.	.	12gg\	.	.	.	.
.	.	12ccc\JN)	.	.	.	.
!	!	!	!	!LO:LB:g=original	!	!
=197	=197	=197	=197	=197	=197	=197
*	*	*tremolo	*	*	*	*
1F: 1d: 1b-:	.	32ff\LLL 32bb- 32ddd	p	4bb-\	.	mf
.	.	32dd\	.	.	.	.
.	.	32ff\ 32bb- 32ddd	.	.	.	.
.	.	32dd\	.	.	.	.
.	.	32ff\ 32bb- 32ddd	.	.	.	.
.	.	32dd\	.	.	.	.
.	.	32ff\ 32bb- 32ddd	.	.	.	.
.	.	32dd\	.	.	.	.
.	.	32ff\ 32bb- 32ddd	.	4dd\	.	.
.	.	32dd\	.	.	.	.
.	.	32ff\ 32bb- 32ddd	.	.	.	.
.	.	32dd\	.	.	.	.
.	.	32ff\ 32bb- 32ddd	.	.	.	.
.	.	32dd\	.	.	.	.
.	.	32ff\ 32bb- 32ddd	.	.	.	.
.	.	32dd\JJJ	.	.	.	.
.	.	32ff\LLL 32bb- 32ddd	.	4ee-X\	.	.
.	.	32dd\	.	.	.	.
.	.	32ff\ 32bb- 32ddd	.	.	.	.
.	.	32dd\	.	.	.	.
.	.	32ff\ 32bb- 32ddd	.	.	.	.
.	.	32dd\	.	.	.	.
.	.	32ff\ 32bb- 32ddd	.	.	.	.
.	.	32dd\	.	.	.	.
.	.	32ff\ 32bb- 32ddd	.	4ff\	.	.
.	.	32dd\	.	.	.	.
.	.	32ff\ 32bb- 32ddd	.	.	.	.
.	.	32dd\	.	.	.	.
.	.	32ff\ 32bb- 32ddd	.	.	.	.
.	.	32dd\	.	.	.	.
.	.	32ff\ 32bb- 32ddd	.	.	.	.
.	.	32dd\JJJ	.	.	.	.
=198	=198	=198	=198	=198	=198	=198
*^	*	*	*	*	*	*
(4Bn/	1F	<	32gg\LLL 32bbn 32ddd	.	(4.ff#X\	.	sf
.	.	.	32dd\	.	.	.	.
.	.	.	32gg\ 32bb 32ddd	.	.	.	.
.	.	.	32dd\	.	.	.	.
.	.	.	32gg\ 32bb 32ddd	.	.	.	.
.	.	.	32dd\	.	.	.	.
.	.	.	32gg\ 32bb 32ddd	.	.	.	.
.	.	.	32dd\	.	.	.	.
4d/	.	.	32gg\ 32bb 32ddd	.	.	.	.
.	.	.	32dd\	.	.	.	.
.	.	.	32gg\ 32bb 32ddd	.	.	.	.
.	.	.	32dd\	.	.	.	.
!	!	!	!	!	!LO:TX:b:t=poco-	!	!
.	.	.	32gg\ 32bb 32ddd	.	8gg'\)	.	.
.	.	.	32dd\	.	.	.	.
.	.	.	32gg\ 32bb 32ddd	.	.	.	.
.	.	.	32dd\JJJ	.	.	.	.
4g/	.	.	32gg\LLL 32bb 32ddd	.	2gg\	.	.
.	.	.	32dd\	.	.	.	.
.	.	.	32gg\ 32bb 32ddd	.	.	.	.
.	.	.	32dd\	.	.	.	.
.	.	.	32gg\ 32bb 32ddd	.	.	.	.
.	.	.	32dd\	.	.	.	.
.	.	.	32gg\ 32bb 32ddd	.	.	.	.
.	.	.	32dd\	.	.	.	.
4bn/)	.	[[	32gg\ 32bb 32ddd	.	.	.	.
.	.	.	32dd\	.	.	.	.
.	.	.	32gg\ 32bb 32ddd	.	.	.	.
.	.	.	32dd\	.	.	.	.
.	.	.	32gg\ 32bb 32ddd	.	.	.	.
.	.	.	32dd\	.	.	.	.
.	.	.	32gg\ 32bb 32ddd	.	.	.	.
.	.	.	32dd\JJJ	.	.	.	.
*v	*v	*	*	*	*	*	*
=199	=199	=199	=199	=199	=199	=199
!	!	!	!	!LO:TX:b:t=a-	!	!
(4.cc^\	sf	32gg\LLL 32ccc 32eee-X	.	4ccc\	.	.
.	.	32ee\	.	.	.	.
.	.	32gg\ 32ccc 32eee-	.	.	.	.
.	.	32ee\	.	.	.	.
.	.	32gg\ 32ccc 32eee-	.	.	.	.
.	.	32ee\	.	.	.	.
.	.	32gg\ 32ccc 32eee-	.	.	.	.
.	.	32ee\	.	.	.	.
.	.	32gg\ 32ccc 32eee-	.	4ee-X\	.	.
.	.	32ee\	.	.	.	.
.	.	32gg\ 32ccc 32eee-	.	.	.	.
.	.	32ee\	.	.	.	.
8c\)	.	32gg\ 32ccc 32eee-	.	.	.	.
.	.	32ee\	.	.	.	.
.	.	32gg\ 32ccc 32eee-	.	.	.	.
.	.	32ee\JJJ	.	.	.	.
!	!	!	!	!LO:TX:b:t=poco-	!	!
2c^\	.	32gg\LLL 32ccc 32eee-	.	4ff\	.	.
.	.	32ee\	.	.	.	.
.	.	32gg\ 32ccc 32eee-	.	.	.	.
.	.	32ee\	.	.	.	.
.	.	32gg\ 32ccc 32eee-	.	.	.	.
.	.	32ee\	.	.	.	.
.	.	32gg\ 32ccc 32eee-	.	.	.	.
.	.	32ee\	.	.	.	.
.	.	32gg\ 32ccc 32eee-	.	4gg\	.	.
.	.	32ee\	.	.	.	.
.	.	32gg\ 32ccc 32eee-	.	.	.	.
.	.	32ee\	.	.	.	.
.	.	32gg\ 32ccc 32eee-	.	.	.	.
.	.	32ee\	.	.	.	.
.	.	32gg\ 32ccc 32eee-	.	.	.	.
.	.	32ee\JJJ	.	.	.	.
!LO:LB:g=original	!	!	!	!	!	!
=200	=200	=200	=200	=200	=200	=200
*^	*	*	*	*	*	*
*	*	*	*	*	*	*	*^
!	!	!	!LO:TX:b:t=cre-scen-do:dur=6h:ext=cd:problem:text with extention lines	!	!	!	!	!
(4c#X/	1F	<	32aa\LLL 32ccc#X 32eee	<	(4.gg#X\	.	.	sf
*	*	*	*	*	*	*	*v	*v
.	.	.	32ee\	.	.	.	.
.	.	.	32aa\ 32ccc# 32eee	.	.	.	.
.	.	.	32ee\	.	.	.	.
.	.	.	32aa\ 32ccc# 32eee	.	.	.	.
.	.	.	32ee\	.	.	.	.
.	.	.	32aa\ 32ccc# 32eee	.	.	.	.
.	.	.	32ee\	.	.	.	.
4e/	.	.	32aa\ 32ccc# 32eee	.	.	.	.
.	.	.	32ee\	.	.	.	.
.	.	.	32aa\ 32ccc# 32eee	.	.	.	.
.	.	.	32ee\	.	.	.	.
.	.	.	32aa\ 32ccc# 32eee	.	8aa'\)	.	<
.	.	.	32ee\	.	.	.	.
.	.	.	32aa\ 32ccc# 32eee	.	.	.	.
.	.	.	32ee\JJJ	.	.	.	.
4a/	.	.	32aa\LLL 32ccc# 32eee	.	2aa\	.	.
.	.	.	32ee\	.	.	.	.
.	.	.	32aa\ 32ccc# 32eee	.	.	.	.
.	.	.	32ee\	.	.	.	.
.	.	.	32aa\ 32ccc# 32eee	.	.	.	.
.	.	.	32ee\	.	.	.	.
.	.	.	32aa\ 32ccc# 32eee	.	.	.	.
.	.	.	32ee\	.	.	.	.
4cc#X/)	.	[[	32aa\ 32ccc# 32eee	.	.	.	.
.	.	.	32ee\	.	.	.	.
.	.	.	32aa\ 32ccc# 32eee	.	.	.	.
.	.	.	32ee\	.	.	.	.
.	.	.	32aa\ 32ccc# 32eee	.	.	.	.
.	.	.	32ee\	.	.	.	.
.	.	.	32aa\ 32ccc# 32eee	.	.	.	.
.	.	.	32ee\JJJ	.	.	.	.
*v	*v	*	*	*	*	*	*
*clefG2	*	*	*	*	*	*
=201	=201	=201	=201	=201	=201	=201
(4.dd^\	sf	32aa\LLL 32ddd 32fff	.	4ddd\	.	.
.	.	32ff\	.	.	.	.
.	.	32aa\ 32ddd 32fff	.	.	.	.
.	.	32ff\	.	.	.	.
.	.	32aa\ 32ddd 32fff	.	.	.	.
.	.	32ff\	.	.	.	.
.	.	32aa\ 32ddd 32fff	.	.	.	.
.	.	32ff\	.	.	.	.
.	.	32aa\ 32ddd 32fff	.	4ff\	.	.
.	.	32ff\	.	.	.	.
.	.	32aa\ 32ddd 32fff	.	.	.	.
.	.	32ff\	.	.	.	.
8d/)	.	32aa\ 32ddd 32fff	.	.	.	.
.	.	32ff\	.	.	.	.
.	.	32aa\ 32ddd 32fff	.	.	.	.
.	.	32ff\JJJ	.	.	.	.
2d/	.	32aa\LLL 32ddd 32fff	.	4gg\	.	.
.	.	32ff\	.	.	.	.
.	.	32aa\ 32ddd 32fff	.	.	.	.
.	.	32ff\	.	.	.	.
.	.	32aa\ 32ddd 32fff	.	.	.	.
.	.	32ff\	.	.	.	.
.	.	32aa\ 32ddd 32fff	.	.	.	.
.	.	32ff\	.	.	.	.
.	.	32aa\ 32ddd 32fff	.	[4aa\	.	.
.	.	32ff\	.	.	.	.
.	.	32aa\ 32ddd 32fff	.	.	.	.
.	.	32ff\	.	.	.	.
.	.	32aa\ 32ddd 32fff	.	.	.	.
.	.	32ff\	.	.	.	.
.	.	32aa\ 32ddd 32fff	.	.	.	.
.	.	32ff\JJJ	.	.	.	.
!	!	!	!	!LO:LB:g=original	!	!
=202	=202	=202	=202	=202	=202	=202
4.d/ 4.a-X 4.b- 4.dd	.	32bb-\LLL 32ddd 32fff	.	8aa\]	.	.
.	.	32ff\	.	.	.	.
.	.	32bb-\ 32ddd 32fff	.	.	.	.
.	.	32ff\	.	.	.	.
.	.	32bb-\ 32ddd 32fff	.	4ddd^\	.	.
.	.	32ff\	.	.	.	.
.	.	32bb-\ 32ddd 32fff	.	.	.	.
.	.	32ff\	.	.	.	.
.	.	32bb-\ 32ddd 32fff	.	.	.	.
.	.	32ff\	.	.	.	.
.	.	32bb-\ 32ddd 32fff	.	.	.	.
.	.	32ff\	.	.	.	.
8B-/ 8b-	.	32bb-\ 32ddd 32fff	.	4bb-^\	.	.
.	.	32ff\	.	.	.	.
.	.	32bb-\ 32ddd 32fff	.	.	.	.
.	.	32ff\JJJ	.	.	.	.
2B-/ 2b-	.	32bb-\LLL 32ddd 32fff	.	.	.	.
.	.	32ff\	.	.	.	.
.	.	32bb-\ 32ddd 32fff	.	.	.	.
.	.	32ff\	.	.	.	.
.	.	32bb-\ 32ddd 32fff	.	4ccc^\	.	.
.	.	32ff\	.	.	.	.
.	.	32bb-\ 32ddd 32fff	.	.	.	.
.	.	32ff\	.	.	.	.
.	.	32bb-\ 32ddd 32fff	.	.	.	.
.	.	32ff\	.	.	.	.
.	.	32bb-\ 32ddd 32fff	.	.	.	.
.	.	32ff\	.	.	.	.
.	.	32bb-\ 32ddd 32fff	.	8ddd\	.	.
.	.	32ff\	.	.	.	.
.	.	32bb-\ 32ddd 32fff	.	.	.	.
.	.	32ff\JJJ	[[	.	.	.
*clefF4	*	*	*	*	*	*
=203	=203	=203	=203	=203	=203	=203
4EEE-X/ 4EE-X	.	4gg'\ 4bb- 4ddd 4ggg	ff	4.ggg\	.	.
8.G'\L 8.B- 8.d 8.g	.	8.gg'\L 8.bb- 8.ddd 8.ggg	.	.	.	.
.	.	.	.	8ggg\	.	.
16G'\Jk 16B- 16d 16g	.	16gg'\Jk 16bb- 16ddd 16ggg	.	.	.	.
4G'\ 4B- 4d 4g	.	4gg'\ 4bb- 4ddd 4ggg	.	[2ggg\	.	.
8.G'\L 8.B- 8.d 8.g	.	8.gg'\L 8.bb- 8.ddd 8.ggg	.	.	.	.
16G'\Jk 16B- 16d 16g	.	16gg'\Jk 16bb- 16ddd 16ggg	.	.	.	.
=204	=204	=204	=204	=204	=204	=204
4G'\ 4d-X 4e-X 4g	.	4gg'\ 4ddd-X 4eee-X 4ggg	.	4ggg\]	.	.
4r	.	4r	.	(4bbb-\	.	>
2r	.	2r	.	4gg\)	.	.
.	.	.	.	4gg\	.	]]
!LO:PB:g=original	!	!	!	!	!	!
=205	=205	=205	=205	=205	=205	=205
!	!	!LO:TX:b:i:t=e tranquillo	!	!	!	!
2.Dn\ 2.Bn 2.dn	.	(4g\ 4ddn 4gg	p	(16bn\LL	.	p
.	.	.	.	16ff#X\	.	.
.	.	.	.	16gg\	.	.
.	.	.	.	16aa\JJ	.	.
.	.	4bn\	.	16bbn\LL	.	.
.	.	.	.	16gg\	.	.
.	.	.	.	16aa\	.	.
.	.	.	.	16bb\JJ)	.	.
.	.	4cc\	.	((16ccc\LL	.	.
.	.	.	.	16bb\	.	.
.	.	.	.	16ccc\)	.	.
.	.	.	.	16ccc'\JJ)	.	.
4BBn\ 4G	.	4d/) 4g 4dd	.	((16ddd\LL	.	.
.	.	.	.	16ccc#X\	.	.
.	.	.	.	16ddd\)	.	.
.	.	.	.	16ddd'\JJ)	.	.
!	!	!	!	!LO:LB:g=original	!	!
=206	=206	=206	=206	=206	=206	=206
*^	*	*	*	*	*	*
!	!	!	!	!	!LO:TUP:b	!	!
(4G/	1C	.	(4.d#X^>/ 4.g 4.bn 4.dd#X	.	(12ddd^\L	.	.
.	.	.	.	.	12eee-X\	.	.
.	.	.	.	.	12bbn\J)	.	.
*	*	*	*	*	*Xtuplet	*	*
4Bn/	.	.	.	.	(12gg'\L	.	.
.	.	.	.	.	12ee-X'\	.	.
.	.	.	8ee'\)	.	.	.	.
.	.	.	.	.	12bn'\J)	.	.
4c/	.	.	2g\ 2cc 2ee	.	(12dd#X^>\L	.	.
.	.	.	.	.	12een\	.	.
.	.	.	.	.	12cc\J)	.	.
4B/)	.	.	.	.	(12g'/L	.	.
.	.	.	.	.	12en'/	.	.
.	.	.	.	.	12c'/J)	.	.
*v	*v	*	*	*	*	*	*
=207	=207	=207	=207	=207	=207	=207
4.A\	.	(>4c/ 4e 4a 4cc	.	(16cc\LL	.	.
.	.	.	.	16ee\	.	.
.	.	.	.	16ff#X\	.	.
.	.	.	.	16gg#X\JJ	.	.
.	.	4e/	.	16aa\LL	.	.
.	.	.	.	16ccc\	.	.
8C/	.	.	.	16ddd\	.	.
.	.	.	.	16eee\JJ)	.	.
2C^>/	.	4f#X/	.	((16fff#X\LL	.	.
.	.	.	.	16eee\	.	.
.	.	.	.	16fff#\)	.	.
.	.	.	.	16fff#'\JJ)	.	.
.	.	4g/)	.	((16ggg\LL	.	.
.	.	.	.	16fff#\	.	.
.	.	.	.	16ggg\)	.	.
.	.	.	.	16ggg'\JJ)	.	.
!	!	!	!	!LO:LB:g=original	!	!
=208	=208	=208	=208	=208	=208	=208
*^	*	*	*	*	*	*
*	*	*	*	*	*tuplet	*	*
!	!	!	!	!	!LO:TUP:b	!	!
(4D/	1DD	.	(4.c/ 4.f#X 4.g#X	.	(12ggg#X^\L	.	.
.	.	.	.	.	12aaa\	.	.
.	.	.	.	.	12fff#X\J)	.	.
*	*	*	*	*	*Xtuplet	*	*
4A/	.	.	.	.	(12eee'\L	.	.
.	.	.	.	.	12ddd'\	.	.
.	.	.	8a'/)	.	.	.	.
.	.	.	.	.	12aa'\J)	.	.
4d/	.	.	2a/	.	(12gg#X\L	.	.
.	.	.	.	.	12aa\	.	.
.	.	.	.	.	12ff#X\J)	.	.
4f#X/)	.	.	.	.	(12ee'\L	.	.
.	.	.	.	.	12dd'\	.	.
.	.	.	.	.	12a'\J)	.	.
*v	*v	*	*	*	*	*	*
!LO:LB:g=original	!	!	!	!	!	!
=209	=209	=209	=209	=209	=209	=209
*	*	*	*	*tuplet	*	*
!	!	!	!	!LO:TUP:a	!	!
(4GG\ 4D 4Bn	.	(4g/ 4bn	.	(12g^>/L	.	.
.	.	.	.	12a/	.	.
.	.	.	.	12bn/J)	.	.
*	*	*	*	*Xtuplet	*	*
4A\ 4c	.	4a\ 4cc	.	(12a^>/L	.	.
.	.	.	.	12b/	.	.
.	.	.	.	12cc/J)	.	.
4B\ 4d	.	4b\ 4dd	.	(12b^\L	.	.
.	.	.	.	12cc\	.	.
.	.	.	.	12dd\J)	.	.
4e\ 4g	.	4ee\ 4gg	.	(12gg^\L	.	.
.	.	.	.	12ff#X\	.	.
.	.	.	.	12ee\J)	.	.
=210	=210	=210	=210	=210	=210	=210
4d\ 4f#X	.	4dd\ 4ff#X	.	(12ff#X^\L	.	.
.	.	.	.	12ee\	.	.
.	.	.	.	12dd\J)	.	.
4Bn\ 4d	.	4bn\ 4dd	.	(12bn\L	.	<
.	.	.	.	12cc\	.	.
.	.	.	.	12dd\J	.	.
4A\ 4c	.	4a\ 4cc	<	12ee\L	.	.
.	.	.	.	12ff#\	.	.
.	.	.	.	12gg\J	.	.
4c\ 4e	.	4cc\ 4ee	.	12aa\L	.	.
.	.	.	.	12bbn\	.	.
.	.	.	.	12ccc\J)	.	.
!	!	!	!	!LO:LB:g=original	!	!
=211	=211	=211	=211	=211	=211	=211
*^	*	*^	*	*	*	*
4B-\ 4d	4ryy	.	4b-\ 4dd	2ryy	mf	(12ddd^\L	.	mf
.	.	.	.	.	.	12eee\	.	.
.	.	.	.	.	.	12ddd\J)	.	.
4G\ 4B-	4ryy	.	4g/ 4bn	.	.	(12bbn^\L	.	.
.	.	.	.	.	.	12ccc\	.	.
.	.	.	.	.	.	12bb\J)	.	.
4Bn/	2E\	.	4g/	2c#X\	.	(12gg^\L	.	.
.	.	.	.	.	.	12aa\	.	.
.	.	.	.	.	.	12gg\J)	.	.
4A/)	.	.	4b/)	.	.	(12bb^\L	.	.
.	.	.	.	.	.	12ccc\	.	.
.	.	.	.	.	.	12bb\J)	.	.
*v	*v	*	*	*	*	*	*	*
*	*	*v	*v	*	*	*	*
=212	=212	=212	=212	=212	=212	=212
1D 1A	.	1f#X 1dd	.	12ddd'\L	.	.
.	.	.	.	12ddd'\	.	.
.	.	.	.	12eee'\J	.	.
.	.	.	.	12ddd^T\L	.	.
.	.	.	.	12aa'\	.	.
.	.	.	.	12ff#X'\J	.	.
.	.	.	.	12aa'\L	.	.
.	.	.	.	12aa'\	.	.
.	.	.	.	12bbn'\J	.	.
.	.	.	.	12aa^T\L	.	.
.	.	.	.	12ff#'\	.	.
.	.	.	.	12dd'\J	.	.
!!LO:REH:t=L
!LO:LB:g=original	!	!	!	!	!	!
=213	=213	=213	=213	=213	=213	=213
*	*	*Xtremolo	*	*	*	*
!!LO:TX:t=P:problem: rehersal mark without box	!	!	!	!	!
1D-X 1E-X 1G 1B-	.	12ee-X'\L	mf	4e-XTT</ 4ee-X	.	.
.	.	12ee-'\	.	.	.	.
.	.	12ff'\J	.	.	.	.
.	.	12ee-^T\L	.	2g^TT<\ 2gg	.	.
.	.	12b-'\	.	.	.	.
.	.	12g'\J	.	.	.	.
.	.	12b-'\L	.	.	.	.
.	.	12b-'\	.	.	.	.
.	.	12cc'\J	.	.	.	.
.	.	12b-^T/L	.	4b-TT<\ 4bb-	.	.
.	.	12g'/	.	.	.	.
.	.	12e-X'/J	.	.	.	.
=214	=214	=214	=214	=214	=214	=214
8C'\ 8A-X	.	8e-X'/ 8a-X	.	4a-XTT<\ 4aa-X	.	.
4C^\ 4A-	.	4e-^/ 4a-	.	.	.	.
.	.	.	.	2.a-TT\ 2.ee-X	.	.
8Bn'\	.	8d'/ 8g	.	.	.	.
8c'\L	.	8e-'/L 8a-	.	.	.	.
8e-X'\J	.	8a-'/J 8cc	.	.	.	.
4a-X^\	.	4cc^\ 4ee-X	.	.	.	.
*clefG2	*	*	*	*	*	*
!	!	!	!	!LO:LB:g=original	!	!
=215	=215	=215	=215	=215	=215	=215
1d-X 1e-X 1g 1b-	.	12eee-X'\L	.	4ee-XTT<\ 4eee-X	.	.
.	.	12eee-'\	.	.	.	.
.	.	12fff'\J	.	.	.	.
.	.	12eee-^T\L	.	2gg^TT<\ 2ggg	.	.
.	.	12bb-'\	.	.	.	.
.	.	12gg'\J	.	.	.	.
.	.	12bb-'\L	.	.	.	.
.	.	12bb-'\	.	.	.	.
.	.	12ccc'\J	.	.	.	.
.	.	12bb-^T\L	.	4bb-TT<\ 4bbb-	.	.
.	.	12gg'\	.	.	.	.
.	.	12ee-X'\J	.	.	.	.
=216	=216	=216	=216	=216	=216	=216
8c'/ 8e-X 8a-X	.	8ee-X'\ 8aa-X	.	4aa-XTT<\ 4aaa-X	.	.
4c^/ 4e- 4a-	.	4ee-^\ 4aa-	.	.	.	.
.	.	.	.	2.aa-T\ 2.eee-X	.	.
8bn'\	.	8dd'\ 8gg	.	.	.	.
8cc'\L	.	8ee-'\L 8aa-	.	.	.	.
8ee-X'\J	.	8aa-'\J 8ccc	.	.	.	.
4aa-X^\	.	4ccc^\ 4eee-X	.	.	.	.
*clefF4	*	*	*	*	*	*
!LO:LB:g=original	!	!	!	!	!	!
=217	=217	=217	=217	=217	=217	=217
8BBn'\ 8En 8G#X	.	8d'/ 8en 8g#X	.	2.bnt\ 2.gg#X	.	<
4BB^\ 4E 4G#	.	4d^>/ 4e 4g#	.	.	.	.
!	!	!LO:TX:b:t=cre-scen-do-:dur=15e7q:ext=cd:problem:text with extention lines	!	!	!	!
8F##X'\	.	8f##X'/	<	.	.	.
8G#\L	.	8g#/L	.	.	.	.
8Bn\J	.	8bn/J	.	.	.	.
4e\	.	4ee\	.	4ddT\ 4bbn	.	.
=218	=218	=218	=218	=218	=218	=218
8E\ 8Bn 8d 8e	.	8g#X\ 8dd 8ee 8gg#X	.	2.gg#Xt\ 2.eee	.	.
4E\ 4B 4d 4e	.	4g#\ 4dd 4ee 4gg#	.	.	.	.
*clefG2	*	*	*	*	*	*
8f##X/	.	8ff##X\	.	.	.	.
8g/L	.	8gg#\L	.	.	.	.
8bn/J	.	8bbn\J	.	.	.	.
4ee\	.	4eee\	.	4bbnt\ 4ggg#X	.	.
*clefF4	*	*	*	*	*	*
=219	=219	=219	=219	=219	=219	=219
8AA'\ 8E 8Gn 8A	.	8c#X/ 8gnX 8a 8cc#X	.	2.at\ 2.ggn	.	.
4AA^\ 4E 4G 4A	.	4c#^</ 4g 4a 4cc#	.	.	.	.
8B#X'\	.	8b#X'\	.	.	.	.
8c#X'\L	.	8cc#'\L	.	.	.	.
8e'\J	.	8ee'\J	.	.	.	.
4a^\	.	4aa^\	.	4at\ 4ccc#X	.	.
*clefG2	*	*	*	*	*	*
=220	=220	=220	=220	=220	=220	=220
8A'/ 8e 8g 8a	.	8cc#X'\ 8gg 8aa 8ccc#X	.	2.at\ 2.ggg	.	.
4A^/ 4e 4g 4a	.	4cc#^\ 4gg 4aa 4ccc#	.	.	.	.
8b#X\	.	8bb#X\	.	.	.	.
8cc#X'\L	.	8ccc#'\L	.	.	.	.
8ee'\J	.	8eee'\J	.	.	.	.
4aa^\	.	4aaa^\	[[	4a\ 4aaa	.	.
*clefF4	*	*	*	*	*	*
*kcancel	*	*	*	*kcancel	*	*
!LO:PB:g=original	!	!	!	!LO:LB:g=original	!	!
=221||	=221||	=221||	=221||	=221||	=221||	=221||
*k[f#c#]	*	*k[f#c#]	*	*k[f#c#]	*	*
!	!	!LO:TX:a:B:t=Allegro molto. [half] = 80.	!	!LO:TX:a:B:t=Allegro molto. [half] = 80.	!	!
4DD'/ 4AA 4D	.	4A'/ 4d 4f# 4a	f	4dd\ 4aa [4aaa	0 0	f
2DD^/ 2AA 2D	.	2A^/ 2d 2f# 2a	.	12aaa\L]	.	.
.	.	.	.	(12bbb\	.	.
.	.	.	.	12cccc#\J	.	.
.	.	.	.	12dddd\L	.	.
.	.	.	.	12cccc#\	.	.
.	.	.	.	12bbb\J	.	.
4DD'/ 4AA 4D	.	4A'/ 4d 4f# 4a	.	8.aaa\L	.	.
.	.	.	.	16aaa'\Jk)	.	.
=222	=222	=222	=222	=222	=222	=222
4DD'/ 4BB 4D	.	4B'/ 4d 4f# 4b	.	4..fff#\	.	.
2DD^/ 2BB 2D	.	2B^/ 2d 2f# 2b	.	.	.	.
.	.	.	.	(48fff#\LLL	.	.
.	.	.	.	48ggg\	.	.
.	.	.	.	48aaa\JJJ	.	.
.	.	.	.	4.bbb\	.	sf
4DD'/ 4BB 4D	.	4B'/ 4d 4f# 4b	.	.	.	.
.	.	.	.	8aaa\)	.	.
=223	=223	=223	=223	=223	=223	=223
!	!	!	!	!LO:TX:t=P:problem:aplikatura zapisana ołówkiem	!	!
4DD'/ 4BB 4E	.	4B'/ 4e 4g 4b	.	8eee'\L 8ggg	4 2	.
!	!	!	!	!LO:TX:t=P:problem:aplikatura zapisana ołówkiem	!	!
.	.	.	.	8bb'\ 8fff#	1 1	.
2DD^/ 2BB 2E	.	2B^/ 2e 2g 2b	.	8eee'\ 8ggg	.	.
.	.	.	.	8bb'\J 8fff#	.	.
.	.	.	.	8ccc#'\L 8eee	.	.
.	.	.	.	8bb'\ 8ddd	.	.
4DD'/ 4BB 4E	.	4B'/ 4e 4g 4b	.	8ccc#'\ 8eee	.	.
.	.	.	.	8bb'\J 8ddd	.	.
=224	=224	=224	=224	=224	=224	=224
!	!	!	!	!LO:TX:t=P:problem:aplikatura zapisana ołówkiem	!	!
4DD'/ 4AA 4E	.	4c#'/ 4g 4a 4cc#	.	8aa'\L 8ccc#	4 2	.
!	!	!	!	!LO:TX:t=P:problem:aplikatura zapisana ołówkiem	!	!
.	.	.	.	8ee'\ 8bb	1 1	.
2DD^/ 2AA 2E	.	2c#^/ 2g 2a 2cc#	.	8aa'\ 8ccc#	.	.
.	.	.	.	8ee'\J 8bb	.	.
.	.	.	.	8cc#'\L 8aa	.	.
.	.	.	.	8b#X'\ 8ee	.	.
4DD'/ 4AA 4E	.	4c#'/ 4g 4a 4cc#	.	8cc#'\ 8aa	.	.
.	.	.	.	8ee'\J 8gg	.	.
!	!	!	!	!LO:PB:g=original	!	!
=225	=225	=225	=225	=225	=225	=225
*	*	*	*	*^	*	*
4DD':/ 4AA: 4F#:	.	4d'/ 4f# 4a 4dd	.	4dd'\ 4ff#	4ryy	.	.
*	*	*	*	*tuplet	*	*	*
4r	.	4r	.	(12cccn/L	4dd\	.	.
.	.	.	.	12ddd/	.	.	.
.	.	.	.	12ccc/J)	.	.	.
4r	.	4r	.	(12bb/L	4dd#X\	.	>
.	.	.	.	12ccc/	.	.	.
.	.	.	.	12bb/J)	.	.	.
4d'\	.	4b'\ 4ff# 4bb	sf	(12ff#/L	4bn\	.	.
.	.	.	.	12gg/	.	.	.
.	.	.	.	12ff#/J)	.	.	.
!LO:LB:g=original	!	!	!	!	!	!	!
=226	=226	=226	=226	=226	=226	=226	=226
4e'\	.	4b'\ 4ee 4gg	sf	4ee\ 4gg	4ryy	.	.
*	*	*	*	*Xtuplet	*	*	*
4r	.	4r	.	(12bb-X/L	4ddn\	.	.
.	.	.	.	12cccn/	.	.	.
.	.	.	.	12bb-/J)	.	.	.
4r	.	4r	.	(12aa/L	4cc#X\	.	.
.	.	.	.	12bb-/	.	.	.
.	.	.	.	12aa/J)	.	.	.
4c#'\	.	4a'\ 4ee 4aa	sf	(12ee/L	4a\	.	.
.	.	.	.	12ff#/	.	.	.
.	.	.	.	12ee/J)	.	.	]]
*	*	*	*	*v	*v	*	*
=227	=227	=227	=227	=227	=227	=227
4d\ 4f#	.	4a\ 4dd 4ff# 4aa	.	4d\ 4ff# [4aa	.	f
2DD^/ 2AA 2D	.	2A^/ 2d 2f# 2a	.	12aa\L]	.	.
.	.	.	.	(12bb\	.	.
.	.	.	.	12ccc#\J	.	.
.	.	.	.	12ddd\L	.	.
.	.	.	.	12ccc#\	.	.
.	.	.	.	12bb\J	.	.
4DD/ 4AA 4D	.	4A/ 4d 4f# 4a	.	8.aa\L	.	.
.	.	.	.	16aa'\Jk)	.	.
!	!	!	!	!LO:LB:g=original	!	!
=228	=228	=228	=228	=228	=228	=228
4DD/ 4BB 4D	.	4B/ 4d 4f# 4b	.	4..ff#\	.	.
2A^\ 2d 2f#	.	2b^\ 2dd 2ff# 2bb	.	.	.	.
.	.	.	.	(48ff#\LLL	.	.
.	.	.	.	48gg\	.	.
.	.	.	.	48aa\JJJ	.	.
.	.	.	.	4.bb\	.	.
4B\ 4d 4f#	.	4b\ 4dd 4ff# 4bb	.	.	.	.
.	.	.	.	8aa;\)	.	.
=229	=229	=229	=229	=229	=229	=229
4B\ 4e 4g	.	4b\ 4ee 4gg 4bb	.	8ee'\L 8gg	.	.
.	.	.	.	8b'\ 8ff#	.	.
2DD^/ 2BB 2E	.	2B^/ 2e 2g 2b	.	8ee'\ 8gg	.	.
.	.	.	.	8b'\J 8ff#	.	.
.	.	.	.	8cc#'\L 8ee	.	.
.	.	.	.	8b'\ 8dd	.	.
4DD/ 4BB 4E	.	4B/ 4e 4g 4b	.	8cc#'\ 8ee	.	.
.	.	.	.	8b'\J 8dd	.	.
=230	=230	=230	=230	=230	=230	=230
4DD/ 4AA 4E	.	4c#/ 4g 4a 4cc#	.	8a'/L 8cc#	.	.
.	.	.	.	8e'/ 8b	.	.
2A\ 2e 2g	.	2cc#\ 2gg 2aa 2ccc#	.	8a'/ 8cc#	.	.
.	.	.	.	8e'/J 8b	.	.
.	.	.	.	8f#'/L 8a	.	.
.	.	.	.	8e#X'/ 8g#X	.	.
4A\ 4e 4g	.	4cc#\ 4gg 4aa 4ccc#	.	8f#'/ 8a	.	.
.	.	.	.	8en'/J 8gn	.	.
!LO:LB:g=original	!	!	!	!LO:LB:g=original	!	!
=231	=231	=231	=231	=231	=231	=231
*	*	*	*	*^	*	*
4D:\ 4A: 4f#:	.	4dd\ 4ff# 4aa 4ddd	.	4d/ 4f#	4ryy	.	.
*	*	*	*	*tuplet	*	*	*
!	!	!	!	!LO:TUP:b	!	!	!
4r	.	4r	.	(12f#/L	4ryy	.	.
.	.	.	.	12g/	.	.	.
.	.	.	.	12a/J)	.	.	.
4r	.	4r	.	4b'\	4ryy	.	.
*	*	*	*	*Xtuplet	*	*	*
4D#X\ 4A	.	4B/ 4f# 4b	sf	(12b/L	4d#X\	.	.
.	.	.	.	12ccn/	.	.	.
.	.	.	.	12b/J)	.	.	.
=232	=232	=232	=232	=232	=232	=232	=232
*^	*	*^	*	*	*	*	*
4E'\ 4G	4ryy	.	4B'/ 4g 4b	4ryy	.	4b'>/	4e\	.	.
4cn\ 4e	4ryy	.	(4gg/	4g\	p	(16g\LL	4ryy	.	p
.	.	.	.	.	.	16ee\	.	.	.
.	.	.	.	.	.	16gg\	.	.	.
.	.	.	.	.	.	16ee\JJ)	.	.	.
2d/	4B\	.	4dd/	2f#\	.	(16f#\LL	4ryy	.	.
.	.	.	.	.	.	16dd\	.	.	.
.	.	.	.	.	.	16ff#\	.	.	.
.	.	.	.	.	.	16dd\JJ)	.	.	.
.	4A\	.	4ccn/)	.	.	(16d/LL	4ryy	.	.
.	.	.	.	.	.	16ccn/	.	.	.
.	.	.	.	.	.	16dd/	.	.	.
.	.	.	.	.	.	16cc/JJ)	.	.	.
*v	*v	*	*	*	*	*v	*v	*	*
*	*	*v	*v	*	*	*	*
=233	=233	=233	=233	=233	=233	=233
4G'\ 4d	.	4g'/ 4b	.	4g'>\ 4b	.	.
4r	.	4r	.	(12b\L	.	f
.	.	.	.	12ccn\	.	.
.	.	.	.	12cc#X\J)	.	.
4r	.	4r	.	4dd'\	.	.
4G'\ 4d	.	4g'/ 4b	sf	(12dd\L	.	.
.	.	.	.	12ee\	.	.
.	.	.	.	12ee#X\J)	.	.
!	!	!	!	!LO:LB:g=original	!	!
=234	=234	=234	=234	=234	=234	=234
*^	*	*^	*	*	*	*
4F#'\ 4d	4ryy	.	4b'\ 4dd	4ryy	.	4ff#\	.	.
4d/	2.F#^<\	.	(4b/	4f#\	.	(16dd\LL	.	p
.	.	.	.	.	.	16bb\	.	.
.	.	.	.	.	.	16ddd\	.	.
.	.	.	.	.	.	16bb\JJ)	.	.
4c#/	.	.	4a#X/	2e\	.	(16cc#\LL	.	.
.	.	.	.	.	.	16aa#X\	.	.
.	.	.	.	.	.	16ccc#\	.	.
.	.	.	.	.	.	16aa#\JJ)	.	.
4A#X/	.	.	4g/)	.	.	(16a#X\LL	.	.
.	.	.	.	.	.	16gg\	.	.
.	.	.	.	.	.	16aan\	.	.
.	.	.	.	.	.	16gg\JJ)	.	.
*	*	*	*v	*v	*	*	*	*
!LO:DY:a	!	!	!	!	!	!	!
=235	=235	=235	=235	=235	=235	=235	=235
4B/	[1F#	.	4d/ 4f#	.	4b'\ 4ff#	.	.
4d/	.	.	(4f#/ 4b	.	(16dd\LL	.	.
.	.	.	.	.	16bb\	.	.
.	.	.	.	.	16ccc#\	.	.
.	.	.	.	.	16bb\JJ)	.	.
4c#/	.	.	4e/ 4a#X	.	(16cc#\LL	.	.
.	.	.	.	.	16aa#X\	.	.
.	.	.	.	.	16bb\	.	.
.	.	.	.	.	16aa#\JJ)	.	.
4e/	.	.	4g/) 4cc#	.	(16ee\LL	.	.
.	.	.	.	.	16ccc#\	.	.
.	.	.	.	.	16ddd\	.	.
.	.	.	.	.	16ccc#\JJ)	.	.
=236	=236	=236	=236	=236	=236	=236	=236
4d/	1F#_	.	4f#/ 4b	.	4dd'\ 4bb	.	.
4f#/	.	.	(4b\ 4dd	<	(16ff#\LL	.	.
.	.	.	.	.	16ddd\	.	.
.	.	.	.	.	16eee\	.	.
.	.	.	.	.	16ddd\JJ)	.	.
4e/	.	.	4g/ 4cc#	.	(16ee\LL	.	<
.	.	.	.	.	16ccc#\	.	.
.	.	.	.	.	16ddd\	.	.
.	.	.	.	.	16ccc#\JJ)	.	.
4g/	.	.	4b\) 4ee	.	(16gg\LL	.	.
.	.	.	.	.	16eee\	.	.
.	.	.	.	.	16fff#\	.	.
.	.	.	.	.	16eee\JJ)	.	.
!	!	!	!	!	!LO:LB:g=original	!	!
=237	=237	=237	=237	=237	=237	=237	=237
4f#'/	4F#\]	.	4b'\ 4dd	.	4ff#\ 4ddd	.	f
4r	4ryy	.	4r	.	(8ff#'\L 8fff#	.	.
.	.	.	.	.	8ff#'\J) 8fff#	.	.
4r	2ryy	.	4r	.	(8aa#X^\L 8aaa#X	.	.
.	.	.	.	.	8bb\J) 8bbb	.	.
4D'\ 4F# 4B	.	.	4b'\ 4ff# 4bb	sf	(8dd'\L 8ddd	.	.
.	.	.	.	.	8dd'\J) 8ddd	.	.
*v	*v	*	*	*	*	*	*
=238	=238	=238	=238	=238	=238	=238
2r	.	2r	.	(8ee#X^\L 8eee#X	.	.
.	.	.	.	8ff#\J) 8fff#	.	.
.	.	.	.	(8b'\L 8bb	.	.
.	.	.	.	8b'\J) 8bb	.	.
4r	.	4r	.	(8cc#^\L 8ccc#	.	.
.	.	.	.	8dd\J) 8ddd	.	.
4D'\ 4F# 4B	.	4b'\ 4ff# 4bb	sf	(8f#'\L 8ff#	.	.
.	.	.	.	8f#'\J) 8ff#	.	.
=239	=239	=239	=239	=239	=239	=239
4E'\ 4G 4B	.	4b'\ 4ee 4gg 4bb	f	4e'\ 4b 4gg	.	.
4r	.	4r	.	(16ev/LL	.	.
.	.	.	.	16f#/	.	.
.	.	.	.	16g/	.	.
.	.	.	.	16b/JJ	.	.
2r	.	2r	.	16ee\LL	1	.
.	.	.	.	16ff#\	.	.
.	.	.	.	16gg\	.	.
.	.	.	.	16bb\JJ	.	.
.	.	.	.	16eee\LL	1	.
.	.	.	.	16fff#\	.	.
.	.	.	.	16ggg\	.	.
.	.	.	.	16bbb\JJ	.	.
!LO:PB:g=original	!	!	!	!LO:LB:g=original	!	!
=240	=240	=240	=240	=240	=240	=240
4r	.	4r	.	8eeee\)	0	.
.	.	.	.	8r	.	.
*	*	*	*	*tuplet	*	*
!	!	!	!	!LO:TUP:a	!	!
4E\ 4B 4d	.	(4g\ 4b 4gg	p	(12dd\L 12gg	.	.
.	.	.	.	12e\	.	.
.	.	.	.	12dd\J) 12gg	.	.
!	!	!	!	!LO:TUP:a	!	!
4F#\ 4B 4d	.	4f#\ 4b 4ff#	.	(12dd\L 12ff#	.	.
.	.	.	.	12g\	.	.
.	.	.	.	12dd\J) 12ff#	.	.
!	!	!	!	!LO:TUP:a	!	!
4G\ 4B 4d	.	4e/) 4b 4ee	.	(12dd\L 12ee	.	.
.	.	.	.	12g\	.	.
.	.	.	.	12dd\J) 12ee	.	.
=241	=241	=241	=241	=241	=241	=241
4A\ 4e	.	4g\ 4a 4cc# 4aa	.	4A/ 4e 4cc# 4aa	.	f
4r	.	4r	.	(16Au/LL	.	.
.	.	.	.	16c#/	.	.
.	.	.	.	16e/	.	.
.	.	.	.	16a/JJ	.	.
2r	.	2r	.	16cc#\LL	.	.
.	.	.	.	16ee\	.	.
.	.	.	.	16aa\	.	.
.	.	.	.	16ccc#\JJ	.	.
!	!	!	!	!LO:TX:t=P:problem: błąd wyświetlania VHV - gdy ukrywa się dźwięk najniżzy znika cała grupa	!	!
!	!	!	!	!LO:N:n=2:vis=2:notehead=rhombus	!	!
.	.	.	.	16eee\LL 16eer 16br	.	.
!	!	!	!	!LO:N:n=2:vis=2:notehead=rhombus	!	!
.	.	.	.	16fff#\ 16ddr 16ar	.	.
!	!	!	!	!LO:N:n=2:vis=2:notehead=rhombus	!	!
.	.	.	.	16aaa\ 16ff#r 16cc#r	.	.
!	!	!	!	!LO:N:n=2:vis=2:notehead=rhombus	!	!
.	.	.	.	16cccc#\JJ) 16aar 16eer	.	.
=242	=242	=242	=242	=242	=242	=242
!	!	!	!	!LO:N:n=2:vis=2:notehead=rhombus	!	!
4r	.	4r	.	8aarv\ 8ddd'r 8aaayy	.	.
.	.	.	.	8r	.	.
!	!	!	!	!LO:TUP:a	!	!
2AAA/ 2AA	.	2A/ 2c# 2g 2a	<	(12aau\L	.	.
.	.	.	.	12a\	.	<
.	.	.	.	12aa\J)	.	.
*	*	*	*	*Xtuplet	*	*
.	.	.	.	((12bbv\L	.	.
.	.	.	.	12b\	.	.
.	.	.	.	12bb\J)	.	.
4AAA/ 4AA	.	4A/ 4c# 4g 4a	.	(12ccc#\L	.	.
.	.	.	.	12cc#\	.	.
.	.	.	.	12ccc#\J))	.	.
!!LO:REH:t=M
!	!	!	!	!LO:LB:g=original	!	!
=243	=243	=243	=243	=243	=243	=243
!!LO:TX:t=P:problem: rehersal mark without box	!	!	!	!	!
4DDD'/ 4DD	.	4A'/ 4d 4f# 4a	f	4d^\ 4dd [4ddd	.	ff
4AA'/ 4D 4F#	.	4A'/ 4d 4f# 4a	.	16ddd\LL]	.	.
.	.	.	.	(16aa\	.	.
.	.	.	.	16bb\	.	.
.	.	.	.	16ccc#\JJ	.	.
4r	.	4r	.	12ddd\L	.	.
.	.	.	.	12ccc#\	.	.
.	.	.	.	12bb\J	.	.
4AA'\ 4D 4F# 4A	.	4d'/ 4f# 4a 4dd	.	8.aa\L	.	.
.	.	.	.	16aa'\Jk)	.	.
!LO:LB:g=original	!	!	!	!	!	!
=244	=244	=244	=244	=244	=244	=244
4r	.	4r	.	[4ff#^\	.	.
4D'\ 4F# 4A 4d	.	4f#'\ 4a 4dd 4ff#	.	16ff#\LL]	.	.
.	.	.	.	(16ff#\	.	.
.	.	.	.	16gg\	.	.
.	.	.	.	16aa\JJ	.	.
4r	.	4r	.	12bb\L	.	.
.	.	.	.	12aa\	.	.
.	.	.	.	12gg\J	.	.
4A'\ 4d 4f#	.	4dd'\ 4ff# 4aa	.	8.ff#\L	.	.
.	.	.	.	16ff#'\Jk)	.	.
*clefG2	*	*	*	*	*	*
=245	=245	=245	=245	=245	=245	=245
4r	.	4r	.	[4dd^\	.	.
4A'/ 4d 4f# 4a	.	4dd'\ 4ff# 4aa 4ddd	.	16dd\LL]	.	.
.	.	.	.	(16dd\	.	.
.	.	.	.	16ee\	.	.
.	.	.	.	16ff#\JJ	.	.
4r	.	4r	.	12gg\L	.	.
.	.	.	.	12ff#\	.	.
.	.	.	.	12ee\J	.	.
4A'/ 4d 4f# 4a	.	4ff#'\ 4aa 4ddd 4fff#	.	8.dd\L	.	.
.	.	.	.	16dd'\Jk)	.	.
*clefF4	*	*	*	*	*	*
!	!	!	!	!LO:LB:g=original	!	!
=246	=246	=246	=246	=246s	=246	=246
2r	.	2r	.	(16a^\LL	.	.
.	.	.	.	16b\	.	.
.	.	.	.	16cc#\	.	.
.	.	.	.	16dd\JJ	.	.
.	.	.	.	16ee^\LL	.	.
.	.	.	.	16dd\	.	.
.	.	.	.	16cc#\	.	.
.	.	.	.	16b\JJ	.	.
4r	.	4r	.	16a^>/LL	.	.
.	.	.	.	16b/	.	.
.	.	.	.	16a/	.	.
.	.	.	.	16g/JJ	.	.
4AA'\ 4G 4A	.	4cc#'\ 4gg 4aa 4ccc#	.	16f#^>/LL	.	.
.	.	.	.	16g/	.	.
.	.	.	.	16f#/	.	.
.	.	.	.	16e/JJ	.	.
=247	=247	=247	=247	=247	=247	=247
*	*	*	*	*tuplet	*	*
!	!	!	!	!LO:TUP:b	!	!
4DD'/ 4AA 4F#	.	4dd'\ 4ff# 4aa 4ddd	.	12d/L)	.	.
.	.	.	.	(12f#/	.	.
.	.	.	.	12g/J	.	.
*	*	*	*	*Xtuplet	*	*
4r	.	4r	.	12a\L	.	.
.	.	.	.	12b\	.	.
.	.	.	.	12cc#\J	.	.
4r	.	4r	.	12dd\L)	.	.
.	.	.	.	(12a^\	.	.
.	.	.	.	12b\J	.	.
4A'\ 4c#	.	4e'/ 4a 4cc# 4ee	.	12cc#\L	.	.
.	.	.	.	12dd\	.	.
.	.	.	.	12ee\J	.	.
!LO:LB:g=original	!	!	!	!	!	!
=248	=248	=248	=248	=248	=248	=248
4D'\ 4A 4d	.	4f#'\ 4a 4dd 4ff#	.	12ff#\L)	.	.
.	.	.	.	(12ff#^\	.	.
.	.	.	.	12gg\J	.	.
4r	.	4r	.	12aa\L	.	.
.	.	.	.	12bb\	.	.
.	.	.	.	12ccc#\J	.	.
4r	.	4r	.	12ddd\L)	.	.
.	.	.	.	(12aa^\	.	.
.	.	.	.	12bb\J	.	.
4AA'\ 4E 4G 4A	.	4c#'/ 4g 4a 4cc#	.	12ccc#\L	.	.
.	.	.	.	12ddd\	.	.
.	.	.	.	12eee\J	.	.
!	!	!	!	!LO:LB:g=original	!	!
=249	=249	=249	=249	=249	=249	=249
4DD'/ 4AA 4F#	.	4d'/ 4f# 4a 4dd	.	8fff#^\L)	.	.
.	.	.	.	8a'\	.	.
4AA'/ 4C# 4E#X	.	4A'/ 4c# 4e#X	.	8eee#X'^\	.	.
.	.	.	.	8a'\J	.	.
4AA'/ 4D 4F#	.	4A'/ 4d 4f#	.	8fff#'\L	.	.
.	.	.	.	8a'\	.	.
4AA'/ 4C# 4E#	.	4A'/ 4c# 4e#	sf	8aaa'^\	.	sf
.	.	.	.	8a'\J	.	.
=250	=250	=250	=250	=250	=250	=250
4AA'/ 4D 4F#	.	4A'/ 4d 4f#	.	8fff#'^\L	.	.
.	.	.	.	8a'\	.	.
4A'\ 4c# 4e#X	.	4a'\ 4cc# 4ee#X	.	8eee#X'^\	.	.
.	.	.	.	8a'\J	.	.
4A'\ 4d 4f#	.	4a'\ 4dd 4ff#	.	8fff#'^\L	.	.
.	.	.	.	8a'\	.	.
4A'\ 4c# 4e#	.	4a'\ 4cc# 4ee# 4aa	sf	8aaa'^\	.	sf
.	.	.	.	8a'\J	.	.
=251	=251	=251	=251	=251	=251	=251
4D'\ 4A 4f#	.	4dd'\ 4ff# 4aa 4ddd	f	4dddd^\	.	ff
*	*	*	*	*tuplet	*	*
!	!	!	!	!LO:TUP:b	!	!
4r	.	4r	.	(12aaa^\L	.	.
.	.	.	.	12dddd\	.	.
.	.	.	.	12aaa\J)	.	.
*	*	*	*	*Xtuplet	*	*
2r	.	2r	.	(12fff#^\L	.	.
.	.	.	.	12aaa\	.	.
.	.	.	.	12fff#\J)	.	.
.	.	.	.	(12ddd^\L	.	.
.	.	.	.	12fff#\	.	.
.	.	.	.	12ddd\J)	.	.
!LO:LB:g=original	!	!	!	!LO:LB:g=original	!	!
=252	=252	=252	=252	=252	=252	=252
1r	.	1r	.	(12aa^\L	.	.
.	.	.	.	12ddd\	.	.
.	.	.	.	12aa\J)	.	.
.	.	.	.	(12ff#^\L	.	.
.	.	.	.	12aa\	.	.
.	.	.	.	12ff#\J)	.	.
.	.	.	.	(12dd^\L	.	.
.	.	.	.	12ff#\	.	.
.	.	.	.	12dd\J)	.	.
.	.	.	.	(12a^>/L	.	.
.	.	.	.	12f#/	.	.
.	.	.	.	12e/J	.	.
=253	=253	=253	=253	=253	=253	=253
1r	.	1r	.	4d/)	.	.
.	.	.	.	4Au/ 4e 4a 4ee	.	f
.	.	.	.	4du/ 4a 4ff#	.	.
.	.	.	.	4Au/ 4e 4a 4ee	.	.
=254	=254	=254	=254	=254	=254	=254
4r	.	4r	.	4du\ 4a 4ff#	.	.
4A\ 4e	.	4a\ 4ee	ff	4du\ 4ee 4aa	.	ff
4d\ 4f#	.	4dd\ 4ff#	.	4du\ 4ff# 4ddd	.	.
4AAA'/ 4AA	.	4a'\ 4cc# 4ee 4aa	.	4du\ 4ee 4aa	.	.
=255	=255	=255	=255	=255	=255	=255
4DDD'/ 4DD	.	4dd'\ 4ff# 4aa 4ddd	.	4du\ 4ff# 4ddd	.	.
4r	.	4r	.	4r	.	.
4AA'\ 4D 4F# 4A	.	4ff#'\ 4aa 4ddd 4fff#	ff	4du\ 4dd 4fff#	.	ff
4r	.	4r	.	4r	.	.
=256	=256	=256	=256	=256	=256	=256
4F#\ 4A 4d	.	4dd\ 4ff# 4aa 4ddd	ff	4du\ 4ff# 4ddd	.	ff
4r	.	4r	.	4r	.	.
*clefG2	*	*	*	*	*	*
.	.	.	.	8qa	.	ff
!	!	!	!	!LO:N:n=2:vis=2..:notehead=rhombus	!	!
4..A/ 4..d 4..f# 4..a	.	4..dd\ 4..ff# 4..aa 4..ddd	ff	4..aarv\ 4..dddr 4aaayy	.	.
*	*	*	*	*^	*	*
*clefF4	*	*clefF4	*	*	*	*	*
16DDD/ 16DD	.	16D\	.	16d/	16d\	.	.
*	*	*	*	*v	*v	*	*
=257	=257	=257	=257	=257	=257	=257
*	*	*	*	*^	*	*
1DDD; 1DD	.	1D;	.	1d;	1d	.	.
*	*	*	*	*v	*v	*	*
==	==	==	==	==	==	==
*-	*-	*-	*-	*-	*-	*-
!!!system-decoration: s1{(s2,s3)}
!!!RDF**kern: > = above
!!!RDF**kern: < = below
!!!RDF**kern: N = linked
!!!ENC: Berenika Jozajtis
!!!END: 2022-11-30
!!!ENC: Jan Barakat
!!!END: 2023-07-18
!!!YEC: Copyright 2022 Narodowy Instytut Fryderyka Chopina (https://polishscores.org)
!!!YEM: License CC-BY-4.0 (https://creativecommons.org/licenses/by/4.0)
